/* XPM */
static char * icon_xpm[] = {
"64 64 244 2",
"   c None",
" B c #5F5853",
" C c #9C928A",
" D c #554F48",
" E c #B2A89F",
" F c #BBB1A9",
" G c #938980",
" H c #7D746C",
" I c #5E5750",
" J c #998F87",
" K c #B9AFA7",
" L c #C6BCB5",
" M c #8D8278",
" N c #7D736A",
" O c #726A61",
" P c #78726B",
" Q c #AEA39A",
" R c #DAD2C9",
" S c #D3CBC2",
" T c #8A8078",
" U c #7A726A",
" V c #837A71",
" W c #5E544D",
" X c #A9A098",
" Y c #CAC1B8",
" Z c #918880",
" a c #8A827A",
" b c #7C7068",
" c c #80766D",
" d c #716961",
" e c #AEA59C",
" f c #C1B7AE",
" g c #A79D95",
" h c #A79C93",
" i c #8F837A",
" j c #6C635A",
" k c #787068",
" l c #CFC5BD",
" m c #B7ACA4",
" n c #A19890",
" o c #E5DDD5",
" p c #6E665E",
" q c #756B64",
" r c #58514A",
" s c #47413A",
" t c #BFB4AB",
" u c #887E75",
" v c #A3968D",
" w c #978E86",
" x c #897F77",
" y c #685F58",
" z c #736860",
" 0 c #958981",
" 1 c #786E66",
" 2 c #817971",
" 3 c #8E867E",
" 4 c #A49990",
" 5 c #A0958D",
" 6 c #887D74",
" 7 c #665E56",
" 8 c #49443D",
" 9 c #9D948C",
" ! c #7C726A",
" # c #847D74",
" $ c #8D847B",
" % c #91857D",
" & c #6D655E",
" ( c #746C64",
" ) c #7A7068",
" * c #81776E",
" + c #4E4842",
" , c #A4988F",
" - c #9B8E85",
" . c #8D837B",
" / c #71675E",
" : c #48423B",
" ; c #615A53",
" < c #9B9189",
" = c #92867D",
" > c #635C57",
" ? c #857A71",
" @ c #968C83",
" [ c #968A82",
" ] c #756D66",
" ^ c #756B62",
" _ c #83786F",
" ` c #50453D",
" { c #9A8C85",
" | c #81756D",
" } c #433C34",
" ~ c #5A524A",
"BA c #897B71",
"BB c #9B9087",
"BC c #504A44",
"BD c #726B64",
"BE c #524840",
"BF c #483F37",
"BG c #453934",
"BH c #6E635B",
"BI c #413931",
"BJ c #3C352E",
"BK c #655952",
"BL c #4C413A",
"BM c #463C36",
"BN c #594C44",
"BO c #62564D",
"BP c #695D53",
"BQ c #61544B",
"BR c #75675F",
"BS c #4E463F",
"BT c #514840",
"BU c #8D8075",
"BV c #443E38",
"BW c #544C44",
"BX c #766A62",
"BY c #3A322A",
"BZ c #94867D",
"Ba c #423C36",
"Bb c #46403A",
"Bc c #564841",
"Bd c #736A63",
"Be c #6C645C",
"Bf c #867D74",
"Bg c #6F6862",
"Bh c #23211D",
"Bi c #26211F",
"Bj c #2D2823",
"Bk c #312C26",
"Bl c #38302A",
"Bm c #3F3833",
"Bn c #85786F",
"Bo c #60524A",
"Bp c #938A83",
"Bq c #7B6D66",
"Br c #3C3731",
"Bs c #574C44",
"Bt c #867B72",
"Bu c #A68192",
"Bv c #332827",
"Bw c #5B5048",
"Bx c #615850",
"By c #4C433C",
"Bz c #635851",
"B0 c #AE9F9B",
"B1 c #CEB5BA",
"B2 c #957081",
"B3 c #746962",
"B4 c #544A43",
"B5 c #5C534C",
"B6 c #7F736A",
"B7 c #665C55",
"B8 c #6C6058",
"B9 c #36322E",
"B! c #3A332D",
"B# c #554D46",
"B$ c #BFA8AA",
"B% c #B493A0",
"B& c #74505F",
"B( c #6A625B",
"B) c #3B3630",
"B* c #625B53",
"B+ c #4E453D",
"B, c #CCAFBA",
"B- c #AE8196",
"B. c #B58A9D",
"B/ c #625651",
"B: c #686059",
"B; c #948180",
"B< c #BE98A8",
"B= c #987586",
"B> c #C19FAD",
"B? c #A9798F",
"B@ c #84566D",
"B[ c #6C615A",
"B] c #534842",
"B^ c #A68D92",
"B_ c #BF94A7",
"B` c #9A6C82",
"B{ c #A2798B",
"B| c #9A6682",
"B} c #A3708A",
"B~ c #7A475D",
"CA c #5E3F4B",
"CB c #584F47",
"CC c #6C6055",
"CD c #8D5874",
"CE c #7D4E64",
"CF c #5A3744",
"CG c #5C544C",
"CH c #925C7A",
"CI c #2A2721",
"CJ c #895371",
"CK c #96617B",
"CL c #8D5C75",
"CM c #502C3B",
"CN c #382E2B",
"CO c #845A6F",
"CP c #74475D",
"CQ c #6A5A55",
"CR c #3F3B35",
"CS c #62394B",
"CT c #5E504A",
"CU c #786C64",
"CV c #744154",
"CW c #6C4053",
"CX c #3D3934",
"CY c #49343A",
"CZ c #834F67",
"Ca c #856071",
"Cb c #6B3D4F",
"Cc c #572F3D",
"Cd c #5E4D48",
"Ce c #663448",
"Cf c #5A3343",
"Cg c #514140",
"Ch c #71635A",
"Ci c #92667C",
"Cj c #886576",
"Ck c #6B4556",
"Cl c #795866",
"Cm c #3D1F2A",
"Cn c #6A5156",
"Co c #695D58",
"Cp c #734B5D",
"Cq c #906077",
"Cr c #85746F",
"Cs c #332127",
"Ct c #642F3F",
"Cu c #6A384A",
"Cv c #492634",
"Cw c #38342F",
"Cx c #582834",
"Cy c #492B36",
"Cz c #7F746D",
"C0 c #4D202C",
"C1 c #2E191F",
"C2 c #231C1A",
"C3 c #0D0D0C",
"C4 c #161413",
"C5 c #12110F",
"C6 c #181614",
"C7 c #0C0A0A",
"C8 c #080707",
"C9 c #1B1918",
"                                                                                                                                ",
"                                               B C D                                                                            ",
"                                               E F G H I                                                                        ",
"                                             J K L L M N O I                                                                    ",
"                                           P Q L R S E T U V N W                                                                ",
"                                           X X K Y F R X Z a b c d                                                              ",
"                                         e e E R f g R Y h Z i P V j                                                            ",
"                                       k f L S l m n o R h G O p q r I s                                                        ",
"                                       g X S L t u f R R t v w x y z 0 k k 1                                                    ",
"                                     2 n R Y m g 3 S S R l 4 5 6 y 7 M G O O M 8                                                ",
"                                     e X S Y a I 9 Y l o Y K Q i C 6 ! # $ 2 V % 8                                              ",
"                                   n f l l Q & P E F S o f m f m E v i $ ( ) M V * +                                            ",
"                                   f f l R , & F f h S o m e f l Y Y E - ! p % . / V :                                          ",
"                                 ; K g J t X < 9 9 m o l f Q Y m = K l F 1 1 N ) Z V * r                                        ",
"                                 > t f M E l S E e o o f E Q Y % 1 < m X * V x 6 0 J u ? /                                      ",
"                                 > X 4 @ n X S L S o R e E < [ / ) = % ] 5 Q @ i # G Z ^ H $                                    ",
"                                 D 4 w a @ v R F F R l C . O _ ` y ) . H v m X h < @ = $ G ? 6                                  ",
"                                 + 4 n U 3 - v [ { h h * q k | } ~ 1 3 U [BABABB -BB v m Q - - @                                ",
"                                BCBB @BD 9 9BEBFBGBH , 2 V U MBIBJ b . (BKBLBLBMBFBNBOBPBQBPBR b &                              ",
"                                BS % - 2 <BBBIBTBC q h V ? UBUBJBVBW /BXBE } } }BIBYBYBYBY } ( 1BZBa                            ",
"                                Bb Z 9 # aBBBcBdBe b hBf _BgBABI + > +BhBiBjBkBlBmBJBJBIBJBa vBABnBo                            ",
"                                BVBp n H u { `Be 1 | v VBq ( MBJBb q kBjBrBVBF :BTBTBTBSBsBaBtBXBRBs                            ",
"                           gBuBv D V 0 U a 4BwBxBd | < ) ^ & _ }BW j zBkBV }BF :BTBEBTBWBsByBABoBzBo                            ",
"                        B0B1BuB2 bB3Bt #Bp 5B4B5Be c G cB6B7 i ` ~ kB8BhBlB9B!BMBWBT : :BLB9BqBsBxBP                            ",
"                    B# EB$B%BuB2B&B7 u w 3 @ `BwBd * T VB3B( <ByB)B* H s +BC rByB+ s ;BD p k -BEBoBK                            ",
"                   6BuB%B,B-B.B2B&B/ w n 2 <Bs ~B:Bf G * pB:BZBE 8BC CBB {BB -BsBIB) ] hBU MBAB4BwBo                            ",
"                B;B<B=B,B<B>B?B@B2B[ 1 J a 4BcB] & $ M ! ^Bd 0BwB7B( M c $ ,Bn }BV s sB8 & 7BRBQBOBo                            ",
"              B^B_B=B1B_B?B.B`B`B{B&Bz nBp 0BEB4Bg #Bt b 1 U <BOB5Be < 6 4 4 uB+BJBr 8 /Be OBnBOBwBO                            ",
"            BgB>B^B-B_B>B-B|B}B`B~CAB/ C P %BNCBBg # M * ^ & 3BzB7 7Bf _ E c ?ByBlBJBC z ~ jBACCBwBQ                            ",
"            B=B}BuB}B-B_B}CDCDCDCECFBK JBg 0BNBTBD Z i N | d 3BwCB ; H _ 0 (BnBFBkB! : /B8BeB6CCCGBE                            ",
"            B`CHB}B}B}B?B|CHB~CECECFBw GBD [BcBE ] Z =BfB6 p .BoCBB: ! cBt / |BLBkB) + ^ zB7B6CCBwBNCI                          ",
"            B|CDCJCHB?B.CKCDB|CLCECMB[ @ & .BcB+Bd . i TBn y [BoCG p | c < z bBLBkBrBb /B8B*BqCCBwBNCN                          ",
"            COCHCDCHB|B-B|CHCECPCECMCQBfBe [BNBF PBp i VBqB: ZBsCB qBt b %B8 6BTBjCRBV z 7BOCCCCCCBN }                          ",
"            B&B|CHCHCDB.CKCJCPCSB~CMCT $ > 0CTBW P . @ 3BU 7 ZBoCGBgCU G Q p 6BEBkBmB)B7Bx ~ /CUB6BQBI                          ",
"            CACHB@CJCJB}CLCVCWCWCLCMCT 0B( ZBwB5 U T @ 2 u 7 aBwBx ( | L KBU MBTBkBaCX /B7 DBPBoCCBN }                          ",
"            CYCHCZCaCaCHCECVCbCSCECcCd x ; 0BP ~ ] a { *Bn O GBO WB( Q YBZ TBBB4BkBVCX j yBWBECBCCBcBm                          ",
"            CYCJCHB,B$CaCVB~CeCfCPCcCg H > iB/ W ] 3 ,Bp [ N GBKBO &BZBZ { i i `BlBaCRB3 zCB sBwChBcBJ                          ",
"              CiB-B1B1B`CSCjCjCSCbCcCY qBg iB/ W k HB[ WBxB5 xBQBQBd T u h iBUB4Bl }Br _BqCB 8B4BO `Bj                          ",
"             >B%B%B>B}B-B=B>B.CkCMCfCcB8 & @BHBx 1 pBbBVBVBr xBQBO d ? C v /BZBsBlBFBrB:B6BTB#B4Bs `    CQClCl                  ",
"           >B1B,B.B}B|B_B<B.B|B@CkCkCmB5 & =B[B7 ] 2 V 3Bt ; .Bx 7 ( q 0 | ^ 0BSB!ByB) DBXBT rBqBNBL DCTCnClB&Bj                ",
"      B/B2B1B,B<B`B}CiB}B.B-B`B`B-CiCNB# p 6BHCBB8CU H 2B4 2 JBx p dBd 5BRBX iBEB!ByCX IB3BV IBHBLCCCoCgCnCpCbCpBc  ClB2Cl      ",
"     &B>B=B>B>B.CAB{BuB-B.B}B{BuCqB`CaCgB: T T u x C H & H KBf ) $ P .BZChBRBAB+BY :CX DB8CX &ChBMChCTCgCSCcCcCkCaB2B2B{B{Cd    ",
"    B,B<B{B1B%CkB=B,B-B?B.B`B?B,B{CJCWBJ 7 6 h C L e I P 5 gCUB7 ! P 3BqBHChCrByBYBFCRB( ? q /BcBLBOBoCACFCMCcCnClCaCiCOCLCn    ",
"  CoB<B-CiCiCjCiBuB_CqCfB?B.B,B%CECVB&CgB7 1 / w g kBp * q / z pBx r zCCBKCQBqByBlB!CR rBwBCCGBYBLBsBQClCACmCnCiB&CLB~CVCVCk    ",
"  CAB|CLB@COB_B|B@CDCECEBuB-BuCpCcCiBuCpCgBzCo f Q 5 9 h X n < Z 2BDBXBsCTBQBRByBYBa : rB7B* _BQ `BKBOCSClCsCACqCLCZCtCtB~Cl    ",
"  CNCPCWClB1B_CDCiB`CZCOB<B,CjCMCaB?CECMCg 7 3 L Q g e F f t E 5 5 -BH `Bc WB[By }BVCX : I i %CTBsBOCdCcCZCnCNB&B@B~CtCtCuCE    ",
"    BuCOB^B1B|B@COCKCLCqB< lCjCfB=CWCSCv D ~ E F 4 - 4 Q E g wB:CB ~BFBF `CBB7 :BiBjB)CwBjB) |ChBzBoBoCfCeCECYCOB~CVCeCxCuCL    ",
"    B<B-B>B?CJCECWCJCWCuB.B-CDCkCZCSCyCmCNCz o m C Q f e X $ Q [ H )B8BrByBwCoBx ;BgB*CGB7Cw NBzBIB+BcCxCbCuCvCACuB~CuCtCxCECY  ",
"    B%B}CqCeCPCWCaB{CPCOB_CHCbCACPCfCsB! > f L f X @ % xB: /BB g ? |BqBIBaB]B+B8BA MCzB[ |B) BBcCIBIBICvCeC0CvCfCtCuCuCtCxCbCN  ",
"    BuB@CSClB-B-B_B{CiCpCPCuCMCMCbCYBs q Q 9BHBe a 5 _ ! C ) H 5 $ ZChBIBjBaBa }BFB* U 1BnBSBgBFBiBEC1CmCbCmCyCbCtCtCtCtCbCtCm  ",
"    ClCPCaB,B<B.B`CJCECPCFCvCvCfCcB; m L ,B[ )B3 7 y &B3 H ( ! J 3CzBNBFBjCIBbBD ]B( ; DCGBCB(B!BjBlC2CsCyC1CFCVCxC0C0C0CcCVCg  ",
"      CkB.B,B_CKCJB|CiCSCvCyClCyCm % F eCUBXB3 z j ;B7B(B( ; / _Bf *BcBJBsCwBb X t e 9 w n a :BkBiC2 rB#BaBiCvCxCcC0C0CxC0CV    ",
"      CgB<B}CiCHCZCHB`CMCmB2B{CmC1 _ m ?B[ / 1 / / ;Bx y yBx yB7 *BRBcB!BXBC DBtB8BHBf h e @ `CIC3BjCzCCB8B+C1CmCtCeCxCxCxCf    ",
"        B%CLCLB}CHCqCFCMClB.CVCvCY ?CU i ! 7 b bBtCz 7B/ W r BB: yBEBM 8CUBkB9BEByBWBsBSB5 6BwC2C4 ]Bd 8 b |BkCvC0CxCxCvCS      ",
"        ClB.CLCVCKB&C1CmB^BuCfCmCg C C b ) p |BH b 6 !B3Bx + >Be }BjBkB3BqBjCIBJBV :B4BW ; cBsC2 + 1 rB5 a %BOCQCvC0CxCyC1      ",
"          B~CcCMCMCvCkCOCiB~B@C1CY K 4BzBn , %B:B#B#Bz & ) yBCCIBhBkB# )B8C5Ba [ _ H HCz T iBQBjBkBb # h gBZCQ bCNC1C1          ",
"          CsC1CsClCPCiCiCSCSCpC1Cg X x | !BX _ uBdB[BSBb 8BaBhBjCRCG ] 1BMC3BiBzBn @ { M iBABPBjC6BM ) gCz iBRBZBJ              ",
"                CFCFCvCmCmCvCyC7BVBB * 6B3 7B7 yBq b ( k k O kBDB(B: dCzBlC3BiB) sB+B+BFBI }CQBJC8BiBW I WBKCdBoBk              ",
"                                  Bf ] DCBB7 yB*Bz y q i C - - 5 h 2 q zC2  Bh 8B4BIB!BYB!B)Bw }    BjB!BIBlBjC2                ",
"                                   8BxCR +CB WB* I DB4 8BVBFBFBSB8 wBpBL      B9Ba }BlB9BIBrByBk                                ",
"                                    C9BiB9B)BVB7BH ( H OB( j ^ IBECr iC2            C4C6C6C9C2                                  ",
"                                              C4BhBkBb rB5CBBSBxB[BoBl                                                          ",
"                                                            C9C6C9C6                                                            ",
"                                                                                                                                "
};
