/* XPM */
static char * icon_xpm[] = {
"32 32 219 2",
"   c None",
" B c #8B847D",
" C c #C5BAB0",
" D c #6F6860",
" E c #544F4A",
" F c #C1B8B0",
" G c #CAC3BA",
" H c #B1A79F",
" I c #8E837A",
" J c #797066",
" K c #BAAFA6",
" L c #B4ACA4",
" M c #D4CBC2",
" N c #9D9288",
" O c #7F766E",
" P c #746B62",
" Q c #35312B",
" R c #7C736C",
" S c #AFA59D",
" T c #A9A097",
" U c #DBD4CC",
" V c #B8AAA2",
" W c #877D75",
" X c #6B625A",
" Y c #8A8077",
" Z c #7A7168",
" a c #413C37",
" b c #777069",
" c c #ADA199",
" d c #857B73",
" e c #81776F",
" f c #90857C",
" g c #837A75",
" h c #C7BDB4",
" i c #958C85",
" j c #81766E",
" k c #47413B",
" l c #887F77",
" m c #A69A90",
" n c #928880",
" o c #A0958C",
" p c #958B84",
" q c #90867E",
" r c #92877F",
" s c #8C8278",
" t c #605B53",
" u c #766E67",
" v c #978D85",
" w c #A69C93",
" x c #635850",
" y c #9A8F87",
" z c #978C83",
" 0 c #716860",
" 1 c #6F665F",
" 2 c #958A82",
" 3 c #50453E",
" 4 c #635950",
" 5 c #837971",
" 6 c #615850",
" 7 c #504942",
" 8 c #7B6F67",
" 9 c #453C35",
" ! c #4C423A",
" # c #564A41",
" $ c #8A7F74",
" % c #514B44",
" & c #655D55",
" ( c #887D75",
" ) c #645A52",
" * c #93887F",
" + c #7D746C",
" , c #62564E",
" - c #564F49",
" . c #4C453F",
" / c #322D28",
" : c #403933",
" ; c #454039",
" < c #867A70",
" = c #6A5E54",
" > c #8B7E7B",
" ? c #8D6378",
" @ c #6C5F5A",
" [ c #898078",
" ] c #786E66",
" ^ c #645B52",
" _ c #534A43",
" ` c #312C28",
" { c #534C44",
" | c #4F4841",
" } c #6B6056",
" ~ c #5B5148",
"BA c #978884",
"BB c #C2B0AD",
"BC c #A6778D",
"BD c #6F5C5B",
"BE c #8F8881",
"BF c #594F48",
"BG c #776D66",
"BH c #6D635A",
"BI c #524C45",
"BJ c #79716A",
"BK c #726961",
"BL c #423B34",
"BM c #726A62",
"BN c #83796E",
"BO c #6F6358",
"BP c #5B4F46",
"BQ c #AF8598",
"BR c #BBA0A6",
"BS c #B88A9F",
"BT c #9E7387",
"BU c #7E5B6A",
"BV c #7A7068",
"BW c #786C64",
"BX c #A99D94",
"BY c #38332C",
"BZ c #625A52",
"Ba c #786D65",
"Bb c #5E5049",
"Bc c #947986",
"Bd c #B78D9F",
"Be c #9D6D84",
"Bf c #925D7A",
"Bg c #694657",
"Bh c #766C67",
"Bi c #7B716A",
"Bj c #5F574F",
"Bk c #342F28",
"Bl c #5B544E",
"Bm c #71675E",
"Bn c #736961",
"Bo c #955F7E",
"Bp c #AA7A90",
"Bq c #8C5773",
"Br c #674050",
"Bs c #736762",
"Bt c #584C44",
"Bu c #7D766F",
"Bv c #83776D",
"Bw c #322E27",
"Bx c #81556D",
"By c #A07289",
"Bz c #794B62",
"B0 c #673D4F",
"B1 c #6F655C",
"B2 c #817972",
"B3 c #817871",
"B4 c #585049",
"B5 c #6F625A",
"B6 c #6F5F55",
"B7 c #93647C",
"B8 c #79485D",
"B9 c #807771",
"B! c #615951",
"B# c #5D544D",
"B$ c #5A3C4A",
"B% c #BD98A9",
"B& c #714C5A",
"B( c #5A3344",
"B) c #60524C",
"B* c #675C55",
"B+ c #6A5F58",
"B, c #B993A4",
"B- c #8F6B7B",
"B. c #534541",
"B/ c #675D57",
"B: c #6E625A",
"B; c #7C6265",
"B< c #5D4B51",
"B= c #A87E91",
"B> c #554543",
"B? c #80736B",
"B@ c #8A837D",
"B[ c #39342E",
"B] c #605650",
"B^ c #60544C",
"B_ c #62434D",
"B` c #8F707D",
"B{ c #977285",
"B| c #8A5C73",
"B} c #756B64",
"B~ c #72625B",
"CA c #38312A",
"CB c #554D45",
"CC c #6A4F56",
"CD c #512A36",
"CE c #724856",
"CF c #7D4E67",
"CG c #7F5268",
"CH c #9A9088",
"CI c #433D36",
"CJ c #696159",
"CK c #86536A",
"CL c #622D3B",
"CM c #704351",
"CN c #82566C",
"CO c #41242C",
"CP c #5F3C48",
"CQ c #633447",
"CR c #8C8179",
"CS c #522F40",
"CT c #663947",
"CU c #6C625C",
"CV c #69635B",
"CW c #26211C",
"CX c #552C39",
"CY c #54232F",
"CZ c #5D4E4D",
"Ca c #6B615B",
"Cb c #685E56",
"Cc c #8E847C",
"Cd c #2A2824",
"Ce c #301C23",
"Cf c #272320",
"Cg c #1F1C17",
"Ch c #3C3731",
"Ci c #231F1D",
"Cj c #1D1A18",
"Ck c #49433D",
"                                                                ",
"                       B C D                                    ",
"                     E F G H I J                                ",
"                     K G L M N O P Q                            ",
"                   R M S T U V W X Y Z a                        ",
"                   G C b H U C c N d e f a                      ",
"                 g h H i L M K F K V P j Y k                    ",
"                 l m H h M M c n d o p q r s t                  ",
"                 u v v c V w O x X W y N z N o 0                ",
"                 1 2 r 3 4 r 5 6 7 8 3 9 ! # # $ %              ",
"                 & y ( ) R * + , - . / : 9 : ; < =              ",
"             > ? @ [ q , Z Y ] ) ^ _ ` ; { | _ } ~              ",
"          BABBBCBDBEBEBF b (BGBHBIBJBK 4BLBMBNBOBP              ",
"        BQBRBSBTBU d pBPBJ 5BVBW ^ rBXBHBYBZBaBOBb              ",
"      BcBQBdBeBfBgBh [BF R (Bi PBj d * 4BkBlBmBnBP              ",
"      BoBoBpBoBqBrBs gBtBu IBiBmBj eBv ,BwBjBmBOBP              ",
"      BxBqByBoBzB0B1B2BPB3 f ZB1 4 Y f ^BwB4 ^B5B6              ",
"      BgBqB7B8B0Br @B9 xB3 z 5Bn ) c mBHBkB4B!B# =              ",
"      B$B%BQB8B&B(B) OB* R 8BnBnB* 2 yB5BwB!B+ .B)              ",
"       wBdBCB,B-B(B.B9B+ 1B/Bl 1 ^ [ IB:BY - ^B4 # :B; k        ",
"  B<BRBR ?BQB=BTBeB> JB? d RB@ 5 u ( 8 }B[BIB]B!B^B)B_B_B<B`B<  ",
"  B%B=B-B=B{BCB,B|B_ X y wBJ IB} DBaB~ xCACBBHCB 3CCCDBg ?BqCE  ",
"  CFB{BpBfBxB,BUCGCGB.CH TBX S v eB^Bb ~ QCICJB~BPCCB$CCCKCLCM  ",
"  B{B,CKCFCNB%BUBzCOB] h w SBX 2Bm 7 _B^ % | |B5 #CPB0CPCECLCM  ",
"  B{CF ?B{CNCKCQCPB.CH o vCRBi i qBPB[ 7B1BaBj %CACOCDCSCQCLCT  ",
"  B$BdBSBoCFCDCSCCBB 5B+B/CUBK O [ 3BkCVBE gBu ;CW 9CACXCXCYCT  ",
"    BQBoBfB(BUBrCZ zCaBGBGB/B#CUCb 3B4 {CbBMCRCA QCU 6COCXCLCD  ",
"    B&B8B0CPBTCSBhCc j +CUCaBl kCd ) ! a XCb j 9 .B9BAB~COCe    ",
"        B$BgB(CeBsCcBnB}CaB/CJ EBl ]Cf :B}BmB: !CgBV 8B~        ",
"                Ch &BFCbCUBKBGBV fB}  CiBLBwCh :  CjCW          ",
"                    Cj `Ck - - _ }B[                            ",
"                                                                "
};
