/* XPM */
static char * icon_xpm[] = {
"256 256 250 2",
"   c None",
" B c #6E6861",
" C c #B4ACA4",
" D c #AFA69E",
" E c #8F857E",
" F c #7E766F",
" G c #4B4640",
" H c #837C74",
" I c #C4BCB4",
" J c #B3A8A0",
" K c #6D635B",
" L c #7D7369",
" M c #776F67",
" N c #524D47",
" O c #746E67",
" P c #BEB5AD",
" Q c #A59C94",
" R c #A99E95",
" S c #92877F",
" T c #928981",
" U c #857C72",
" V c #81766D",
" W c #625C56",
" X c #C3B8B0",
" Y c #9C938A",
" Z c #B3A69E",
" a c #AAA199",
" b c #D2CAC2",
" c c #968E86",
" d c #827971",
" e c #7A7169",
" f c #776D65",
" g c #7E746D",
" h c #6A625B",
" i c #9E958D",
" j c #A49A91",
" k c #BAB1A9",
" l c #8A7F76",
" m c #746B63",
" n c #6D655D",
" o c #756C64",
" p c #8F8880",
" q c #B0A39C",
" r c #958B83",
" s c #8D837B",
" t c #73695F",
" u c #695F56",
" v c #877E76",
" w c #655C55",
" x c #716963",
" y c #81776F",
" z c #9B8E86",
" 0 c #837A72",
" 1 c #443F38",
" 2 c #CAC0B8",
" 3 c #A49990",
" 4 c #8B8178",
" 5 c #797068",
" 6 c #786D65",
" 7 c #B9AEA6",
" 8 c #C2B6AD",
" 9 c #71685F",
" ! c #605851",
" # c #94897F",
" $ c #E3D7D0",
" % c #CFC6BD",
" & c #9D9188",
" ( c #887D75",
" ) c #817870",
" * c #655C52",
" + c #756961",
" , c #7D7066",
" - c #4E4842",
" . c #DDCECA",
" / c #D6CCC3",
" : c #E6DDD5",
" ; c #C9BBB3",
" < c #6D645C",
" = c #8F847A",
" > c #67605A",
" ? c #DCD4CC",
" @ c #EFE8E0",
" [ c #A1968D",
" ] c #6E665F",
" ^ c #8F8179",
" _ c #817369",
" ` c #877971",
" { c #888079",
" | c #A4968E",
" } c #665A52",
" ~ c #7C736B",
"BA c #BFB1A9",
"BB c #80746D",
"BC c #675F56",
"BD c #60564E",
"BE c #524B44",
"BF c #58524B",
"BG c #999089",
"BH c #6C6059",
"BI c #71665C",
"BJ c #615952",
"BK c #5B564F",
"BL c #B9AAA3",
"BM c #998B84",
"BN c #867C75",
"BO c #897C72",
"BP c #665C55",
"BQ c #71665F",
"BR c #574E45",
"BS c #D2C2BE",
"BT c #AFA297",
"BU c #7C6E67",
"BV c #8A837C",
"BW c #79736B",
"BX c #3E3832",
"BY c #5D534C",
"BZ c #574F48",
"Ba c #A99B91",
"Bb c #93847B",
"Bc c #332F29",
"Bd c #45413B",
"Be c #554D45",
"Bf c #38342E",
"Bg c #4F463E",
"Bh c #736962",
"Bi c #524A43",
"Bj c #69605A",
"Bk c #6C5F56",
"Bl c #7D716A",
"Bm c #423D37",
"Bn c #5E5249",
"Bo c #9B8E83",
"Bp c #524941",
"Bq c #4B453C",
"Br c #403B35",
"Bs c #4B433B",
"Bt c #554A42",
"Bu c #605650",
"Bv c #413831",
"Bw c #5B524B",
"Bx c #625A53",
"By c #61564C",
"Bz c #988A7F",
"B0 c #34312B",
"B1 c #594F47",
"B2 c #262420",
"B3 c #494039",
"B4 c #5E564E",
"B5 c #695C55",
"B6 c #52463E",
"B7 c #574C44",
"B8 c #50453D",
"B9 c #3B312A",
"B! c #494036",
"B# c #685C52",
"B$ c #23201C",
"B% c #3C342C",
"B& c #443A31",
"B( c #493D35",
"B) c #322B25",
"B* c #7C6D62",
"B+ c #60544D",
"B, c #2F2722",
"B- c #71635B",
"B. c #37312A",
"B/ c #665650",
"B: c #5A4C45",
"B; c #5D4F48",
"B< c #433830",
"B= c #4E433C",
"B> c #2D2A25",
"B? c #3C362F",
"B@ c #2C2320",
"B[ c #463D36",
"B] c #453B34",
"B^ c #3A2B2A",
"B_ c #3B3832",
"B` c #413430",
"B{ c #B09D9A",
"B| c #251C1C",
"B} c #2A2722",
"B~ c #322D28",
"CA c #161512",
"CB c #261519",
"CC c #997886",
"CD c #755762",
"CE c #CDAFB9",
"CF c #886273",
"CG c #6C4D5A",
"CH c #D5B9C2",
"CI c #946D7F",
"CJ c #81596C",
"CK c #584544",
"CL c #9E828A",
"CM c #C3A4B0",
"CN c #91667B",
"CO c #A58E90",
"CP c #CBA6B5",
"CQ c #997284",
"CR c #7B6267",
"CS c #A47A8D",
"CT c #B592A1",
"CU c #BE93A7",
"CV c #AA8194",
"CW c #7E6969",
"CX c #C29BAB",
"CY c #B28298",
"CZ c #B28A9C",
"Ca c #A27189",
"Cb c #764C60",
"Cc c #694253",
"Cd c #7D4F66",
"Ce c #72475A",
"Cf c #9C6D84",
"Cg c #81536A",
"Ch c #5F3E4B",
"Ci c #B98BA0",
"Cj c #906078",
"Ck c #877371",
"Cl c #7F4963",
"Cm c #AC7A92",
"Cn c #905B76",
"Co c #88576F",
"Cp c #98627E",
"Cq c #A8738D",
"Cr c #854F6B",
"Cs c #9B6881",
"Ct c #8E5674",
"Cu c #713D52",
"Cv c #78435B",
"Cw c #693E51",
"Cx c #5F3849",
"Cy c #683A4D",
"Cz c #714357",
"C0 c #603346",
"C1 c #53343F",
"C2 c #5B3243",
"C3 c #52303D",
"C4 c #482936",
"C5 c #3E222D",
"C6 c #503E3C",
"C7 c #512A3A",
"C8 c #582B3B",
"C9 c #673345",
"C! c #4F2331",
"C# c #441D2A",
"C$ c #441824",
"C% c #602B3A",
"C& c #0F0E0C",
"C( c #070606",
"                                                                                                                                                                                                                                                                                                                                                                                                                                                                                                                                ",
"                                                                                                                                                                                                                                                                                                                                                                                                                                                                                                                                ",
"                                                                                                                                                                                                                                                                                                                                                                                                                                                                                                                                ",
"                                                                                                                                                                                                                                                                                                                                                                                                                                                                                                                                ",
"                                                                                                                                                                                               B C D E F G                                                                                                                                                                                                                                                                                                                      ",
"                                                                                                                                                                                             H I J E K L M B N                                                                                                                                                                                                                                                                                                                  ",
"                                                                                                                                                                                           O P Q R S T E U K V H W                                                                                                                                                                                                                                                                                                              ",
"                                                                                                                                                                                           X Y Z a I b c E d V e f g h                                                                                                                                                                                                                                                                                                          ",
"                                                                                                                                                                                         C i j k I b I T T E U l m n m o M                                                                                                                                                                                                                                                                                                      ",
"                                                                                                                                                                                       i R p q q I k C D r s U f e o t u v L w                                                                                                                                                                                                                                                                                                  ",
"                                                                                                                                                                                     x k y z Y a J J X J r L 0 e e F y V K m d V 1                                                                                                                                                                                                                                                                                              ",
"                                                                                                                                                                                     P l d q R k k 2 P 3 C z 4 s V v H v d o 5 f 6 u                                                                                                                                                                                                                                                                                            ",
"                                                                                                                                                                                   P Q U Q P 7 2 q a q I 2 8 R z 4 L d e K L 9 M M L 6 !                                                                                                                                                                                                                                                                                        ",
"                                                                                                                                                                                 c J # r 2 Q X 2 a r I $ % b 8 & & ( L ) u * 9 M o + , 6 ) H n -                                                                                                                                                                                                                                                                                ",
"                                                                                                                                                                               O P ( E R P C . D R 2 $ / : $ ; R 3 j s l H < o O n 9 < t L V y 4 = >                                                                                                                                                                                                                                                                            ",
"                                                                                                                                                                               % r r c a D ? X a % / b : @ ? 2 ; R Y [ s ) v n t K ] h t ^ _ + L 5 V ` ]                                                                                                                                                                                                                                                                        ",
"                                                                                                                                                                             Q D { r T T 2 b C : ? P $ @ : I 2 % ; | Y Q 4 s ) 6 U 9 m u t K L L + t t } 4 ~                                                                                                                                                                                                                                                                    ",
"                                                                                                                                                                           W P T l l v 7 / J ? ? P % @ @ % ; / / /BA Y R Q U [ 4 e 0 4BB t t t U 9 < u KBCBD 9BE                                                                                                                                                                                                                                                                ",
"                                                                                                                                                                           7 R T c r Q b a / ? P I b @ 2 2 / 2 . % 8BA 4 Q T U i t n 4 l V ) K 6 = m t * K !BD LBF                                                                                                                                                                                                                                                              ",
"                                                                                                                                                                        BG C i Y [ k 2 r P ? k J b @ ? P b 2 P 8 2 % ; [ T a T v 4BH m 4 ) v v L ( L 6BI K hBJ tBBBK                                                                                                                                                                                                                                                            ",
"                                                                                                                                                                       > P r Q c a % Y Q X C a C @ $ I % % 8 DBL ; 2 % 7 &BM Q sBN 4 EBO s 4 4 S s 6 LBP < V u t v o W                                                                                                                                                                                                                                                          ",
"                                                                                                                                                                       P c Y [ R 2 q i k C DBG ? ? X b ? % P i 7 ; 2 . 2BLBM sBG # l r # 0 S y 0 # _BQ ~BR e U o m d 5 h                                                                                                                                                                                                                                                        ",
"                                                                                                                                                                     7 3 T i Q b C i a k k j P / I b ? / X Q j X % : : :BSBT # E Q c U T c c r VBU V o 6 y u r V n U F K ]                                                                                                                                                                                                                                                      ",
"                                                                                                                                                                   p 7BV c 4 C Q pBG D 7 D J 2 J P I 7 D Q 3 % b : @ @ : /BABL r Y 3BG E r = E 4 y 6 ) 6 L T 5 v d u V K o M                                                                                                                                                                                                                                                    ",
"                                                                                                                                                                   kBG v { 0 r 4 ~ d a J J C k P P P a Q r D % % % / @ : ? %BA 7 i 7 J [ 4 0 6 s = (BN S U T V 5BV LBC ) 9 9 o G                                                                                                                                                                                                                                                ",
"                                                                                                                                                                 D T i [ T r X a v D I P % $ / b I X 8 D c Q Q a k 2 $ / .BSBL 7BABA b R | z r = R | 3 ) S r { nBW v + u y K } mBJBX                                                                                                                                                                                                                                            ",
"                                                                                                                                                               p c E ? 2BG / ?BG k % 7 2 @ : . ? 2 % 8 J a TBV a / / / % / / 7 qBLBT XBM r [ Y z | & R d n H F O H HBN 6 0 `BY wBQBZ                                                                                                                                                                                                                                            ",
"                                                                                                                                                               j ~ k @ a % @ 7 P b D X : : b ? $ . b / I qBVBV C $ $ b % ? : 2 qBaBa 3 U U #Bb # & 4 ( ~BZBK > H p dBN s ~ mBE 1BCBFBc                                                                                                                                                                                                                                          ",
"                                                                                                                                                             a = [ @ P J @ 2 I b C a / @ / % ? % I % : 2 R HBV I ? ? ? $ : : . X q | r 5 0 U = # E vBCBFBdBe 9 = l g F e > GBfBX -BFBF                                                                                                                                                                                                                                          ",
"                                                                                                                                                           F R U I $BG b I k b k D I : / X / b k 2 % ? 2 yBW i ? 2 ? : : : : $ / k 3 zBO _BB d d L o N 1Bg h 5 y f nBhBC -BXBfBdBZBZ u t hBi 1                                                                                                                                                                                                                                  ",
"                                                                                                                                                           J S 4 2 J D I k 2 C k 2 ? / D b / 7 P % X 8 r -BG I ? 2 : $ $ : $ / $ ;Ba & & 4 rBO ) VBjBFBJ m + ) 6Bk KBDBhBEBfBZBK * < u h u * h e m !BF                                                                                                                                                                                                                          ",
"                                                                                                                                                         { q S P C 3 R [ I 7 k 2 ? / k % $ J Q X XBA ZBeBK k ? / / $ : $ : . ? $ % 8Ba | [ R Z 3 i y w 9 U 4 L l } KBJBQBW - h L < <BC < hBJ * * 5 5 eBl f W                                                                                                                                                                                                                    ",
"                                                                                                                                                         C [ R X cBM l P k C % : : 2 b : 2 3 7 7 Q R 0Bm { % ? : ? / ? . $ / ? $ : %BTBaBT q 8BT [ Q V y d c S LBPBH 9BP x u d r v y e wBC h <BP h 0BhBCBI + ) N                                                                                                                                                                                                                ",
"                                                                                                                                                       j a s D i T ) R I J % : @ b 2 / I D C X J R RBC GBG b / @ . . I ? $ / % : @BS RBaBTBT J [ Y D Y 0 s E T 6BIBQ S + wBnBoBaBo = # #BQ * h ] * < M 9 n V ~ UBZ                                                                                                                                                                                                              ",
"                                                                                                                                                    BK D s a j T H c b C % : @ b X 2 P R C D 2 I 8BL ! ] C 2 ? : / % b ? % / 2 : ? 2BT # z &BT Y 3 3 Y TBN E l 6 y 5BNBQBpBEBkBLBT l d # [ eBCBj u u m ~ n o f U E wBq                                                                                                                                                                                                          ",
"                                                                                                                                                     D 4 i P cBG i 2 % ? @ @ $ a D k J q 2 a I P 8 rBd c P 2 : ? % ? : k 2 / b : / ; J & V S & | E c yBG T U ( 0 t 0 >BXBrBsBt d ZBa S e r Q v F ] e < n ] 9 f t vBCBH x                                                                                                                                                                                                        ",
"                                                                                                                                                   FBG ) k j p i I / ? @ @ : Z v D k k % i C DBG r e N a k b . b b : : I / 2 % $ / %BA R =Bb [BT E Q s s S y U S UBh -BcBq !BDBC t | 3 = V l U s r ~ nBD o m L L 9 ) 9 9 M                                                                                                                                                                                                      ",
"                                                                                                                                                   Q M p a H c Q I % @ @ @ I EBG k D . C J P D p 4 n x C b ? % b ? ? ? / b I ? : : ? ;BLBa & &BT D Y a d ~ 5 V , 5BuBv 1 ! < 9 9BI ( = J T _ v o ~ s eBDBI m 9 e V l = h f n                                                                                                                                                                                                    ",
"                                                                                                                                                 i p ) j p p Q 7 I ? @ @ : I J k D 2 a 7 : i R FBVBKBG I : $ I I ? ? b 2 2 b @ @ : ? / ; 7BTBo Y 7 i R 3 L s `BU +BwBwBP L VBC n ] g 4 l J Y S r o m ) H < g t < U oBO L 5 6Bx                                                                                                                                                                                                  ",
"                                                                                                                                                 D H iBG p j k I C : : : : % C i D D i ? Y 4 QBN 5 N a b ? b C I ? / 2 % I $ @ @ @ ? b 7BA X q 3 J 3 # q S yBBBb ( 5 e d t L g e 9 L l 4 4 J S UBN o f f e m ~ 4 V L ( s M d t w                                                                                                                                                                                                ",
"                                                                                                                                               a sBV Q i Q 3 I a Q I : : ? % C C a i I 3 h c 4 ) N O k ? I P P b 2 I / b b @ @ @ @ / ; q k % ;BL 8 R 3 zBMBOBU &BTBb ( ( m 6 y l V M L 4 s m [ 5 dBN 9 hBI eBy ) j U T T s f y 9Bx                                                                                                                                                                                              ",
"                                                                                                                                             > D v T [ a a k k i Z 2 : : : ? b PBG k EBY H v e -BEBV C / D k P / % 2 ? % : @ @ @ : b ; JBABA J q 8 7 JBaBbBb V S ; |Bz ^ = c l U 4 ] 5 U 4 ~ { D 5 cBB L 5 M dBw d & 4Bo | S o LBk h                                                                                                                                                                                            ",
"                                                                                                                                             k i r Q D J k I Q Q k ? : : : ? % i C jBn ! d mBZB0 OBG X C C k k b % 2 b b @ @ @ @ .BA 8 Z ZBL q JBA XBa & VBOBz # Z Z #BM l 4 U V E HBH m f U mBG D s 3 y F d r UB1 t v # ( [ S = 5 t O                                                                                                                                                                                          ",
"                                                                                                                                          BV 2BV a C C J k D D Q I ? ? : $ / D p YBPBYBC !BpB0 NBV a P X % k 2 ? I b b : @ @ @ @ % X X a 7 JBLBA ; % R , ) 4 &Bb z Z R z # 4 6 y , S U ] 5 ) V x j a c [BO U # & )B1 V 0 U 4 z 5 cBQ ) F                                                                                                                                                                                        ",
"                                                                                                                                           % Y R D J C C C % P J / / % $ ? 7 TBG o >BwBr 1B2Bm O Y Q a % P k I b I ? ? : : @ @ @ 2BABA RBA J kBA X 2 J [ [ &BABa |BzBA q &BM V E ( 6 # Y g f ) ~ M c ) = J j L 4 j 0 h 4 , ( 4 ~ e V t SBx                                                                                                                                                                                      ",
"                                                                                                                                        BG R 3 a i J C k / $ C 2 / % 2 % a H { { F { >BFBW NBW a a j P X P P P b I ? / / @ @ @ : 2 kBL a J 7BA kBA X % 2 R z 7 7 |Bb |BL R R S ( Y =BO # j 0 5 ) F 9BRBg ~ i E tBz q M y E g (BhBh ] e 9BV B                                                                                                                                                                                    ",
"                                                                                                                                         IBL D T a C P ? @ % k ? 2 8 bBT l R [BG cBV !BW p F a Q T k P C 7 7 J k P / I ? @ @ @ : . 2 IBL 7 J 7BA 8 X % X R q 8 8 RBT aBT q 7Ba zBOBM zBO z aBN vBN 5BFB3BsB1 g U f # & t & & 4 tBY ] mBN v i N                                                                                                                                                                                  ",
"                                                                                                                                         ? J S a P % . ? : 2 ? ? P % ? I % ;BL 3 T M NBVBV i a Y C P D a 7 j i k k % I @ @ @ @ $ . % bBA k q JBA 8BA 8 /BA 2 : $BABTBLBL q ; JBa & ^ Y 3 zBO i cBN F >BeBp wBD V r , ( Y y r s o * hBH 9 pBj 4BK                                                                                                                                                                                ",
"                                                                                                                                       j b # q P P % I / ? X : / ? @ ? $ ? 2 R l {BK N p { D J X I a D JBA r D 2 I 2 % @ @ @ : : ? 8 C [ J q C 8BA D % ? ; ? : : . CBA %BA ; 8BT RBa = &BT S 4 R s v m !BJ ] eBC c &BB c & 5 # ) f o oBC e g t 4                                                                                                                                                                                ",
"                                                                                                                                       P C Q IBA 8 k I : / 7 ? b @ : b $ b ; S ~ xB0 B c { D 2 b C k P X kBG a P X P ? @ @ : : ? I & E c J j J 8 J J / % 7 8 % . $ 2 7 ?BS XBS ;BL qBa #Ba 3BN s z T HBw n g 5 g n ZBa = | & = z ` < 6BB 0 ~ v L E >                                                                                                                                                                            ",
"                                                                                                                                       C q 2 k P P k b ? 2 k / / ? / / ? ; J = ! -Bd c p p I ? X C b C P D c j k J C $ @ : / 8BA ; 7 D D J a Z C 7BA X . 7 & ;BSBS X X . / ;BSBSBS qBa J & # c 0 d S pBZBZ { < e y d 3 # l R [ r R ) o L ( V o ) g s O                                                                                                                                                                          ",
"                                                                                                                                    BW R I % 7 P 7BT P % P R P X ; ; / .BABT 4 >BF H { F D 7 P C 2 7 j 2 k 3 Q 7 r P : : ? 2BL / . ; ;BA P C k Z J k % $ R [ .BS ;BT 7 8 2 b ; 2 . ?BABL 7 4 & & ( 5 V oB4 f { o p e e U 4 s r M )BB f 0BO l VB5 + t 9 W                                                                                                                                                                        ",
"                                                                                                                                     Q E % P a C R 3BT 8 DBG q JBABL XBS ; 7 |BW {BG g i i 3 a X k r C I 7 YBG q a : @ : .BABS / %BA 7 J Z a a a [ C I /BTBL . ;BLBb # ZBL 2 ; ; $ / 2 7BLBT & q & ( 9 M d 0 y y 9 T o m n <BJBtBJBy * *Bk < L ~ u g uBP O                                                                                                                                                                      ",
"                                                                                                                                     3BN 2 7 s YBG i Q D cBN c & R q ZBA b Z ^ ~ i H c c T T { z ( i J I 3 E 3 P b @ @ @ bBA % % % k C X k R D J a k 2 : qBL 2 P z + r Z & R ; / b 7 P 8 q 7Ba R & d f > ~ #BB ~BQBl r vBQ ] h *BB ) U V ] hB1 e { g g * KBNBK                                                                                                                                                                  ",
"                                                                                                                                     j 4 % P { a D q D a p d E S a 8 7 Z X jBGBG Y j D c 4 sBG z r { C P v i I / : @ @ @ ?BA 2 $ % PBL Z J J a J P I : @ 3Ba X RBO { TBG r # Z .BA R ? / ZBABSBT z fBwBEBC M s gBB <BB 0 (BNBV 3 [ i S T i i 4Bj 4 T gBB e * lBC                                                                                                                                                                ",
"                                                                                                                                   GBG V % k i P 2 k J C | S v r J 2 8 D P . XBG D I 2 C 7 7 D i )Bw Y i Q I b ? @ @ @ @ . Z % : /BL P D 8 D a C C 2 : @ i Y 7 ^ ` v d vBT ZBA . ; % $ / ;BL / 8 4 BBqBe ]BC 5 M oBN M 9 ~ L f c J X 2 8 i S j r w vBN t 4 < ! U e                                                                                                                                                              ",
"                                                                                                                                  BK E U % R Q I k P J 7 q r m TBT Z k 7 . @ X r C % % 2 C r Q 4 w F Q D b / . : : : @ @ % R ? :BA 3 8 k D a D Q 7 / @ $ = ` # y 5BnBh V rBa J q X 2 2 ; / ; 8 % iBxBe x ) F m F x 0 T 6 mBB 6 5 S # Q % I l ) Y 0 w Y = V (BIBC E ~BE                                                                                                                                                          ",
"                                                                                                                                   > Y 4 2 a J 2 C b C ZBT s t 4BaBT 2 2 X $ b C k / $ b Q D I i c D I / : ? : @ : : @ @ % & 2 2 q Z ; 3 T DBG P 7 / @ b VBO 3 = t 9 ~BV y ` = ` 7 8Ba 7BA qBLBL Y ]Bw 0 T 0 E 4 v f UBG V L ( U ) ( V ) 3 qBB s Y l + & l V l 6 9 U 9BJ                                                                                                                                                        ",
"                                                                                                                                   W iBN 2 7 k I C % 2 q 3 g h s [ X . 2 [ % $ / 2 b : $ b $ I 3 q k b $ : $ : : : : @ @ 2 E 8 / 7 8BA Y C i Y ? q Q / b L r &Bl 5BN y )BO SBM & 2 7 q | [ z zBa 0 { g 4 E 0 E z y 4 nBM Y U U U ( d # Y L 3 D U r [ U u 4BN , d n 9 S K ]                                                                                                                                                      ",
"                                                                                                                                   W r l 2 RBT C JBA /BA R yBC S = Z %BL i 2 ? % % % . $ % I J [ a 2 / ? $ $ $ : : @ @ : 2 z 2 bBLBL | Y a r C 2 Q 3 $ 8 L 4BB V m M y U #Bb [BA 8 3 q r 5BO V E H r r ( z & 4 p sBV # S SBM E ~BN U sBN V ) R 3 S ( r L e s ~ m yBQ L ( f TBK                                                                                                                                                  ",
"                                                                                                                                   > S E P & 3 qBL 8 2 8BA & 9 d ( c k J z 8 X 2 % C / . I 7 a a k / / % $ ? ? : @ @ @ $ X z QBL | 3 & r q j a 7 R a / 3 5Bl 6 E * ~ l l [BO z | Z [ zBB ] r dBB c YBM 4 E Y Q E cBG # R [ LBM S e L U = v 5 ) T C r e U g 5 9 e g e ] 9 d ) T >                                                                                                                                                ",
"                                                                                                                                  BJ r S 7 3 c 3BT J 3BL ; T 9BNBG R R i i JBL 7 C P ? b ; k R D P / % 2 $ % : @ @ : ? ; R = rBABT X R Y 7 c Q i 4 k RBOBD e n ~BPBl y ( = 6 # = q [BG ) y SBh 0 r =Ba 3 [ r q 3 s T &BO j U t r E L o l = E EBN E j Y ) tBhBj fBN ~ m e t v s [ x                                                                                                                                              ",
"                                                                                                                                  BK c 4 a j s ( s = E QBL l M c a 8 a v 4 3 q c C b ? . ; P a 7 % ? 7 b $ ? @ @ : 2 8 Z J [ c 7 2 ; 7 q i c j 5 E [ &BIBtBHBhBh wBhBU ( 6BkBb S S ^ dBQ nBCBDBVBN &BT 7BA JBG R [ U # = U r v U s r ( V 4 #BG r 0 6BM R oBH M f < d s U 4 L TBG Q B                                                                                                                                            ",
"                                                                                                                                  BF c ( D R j r g r # S Q 4 F Q i ; 7 # 5 = | R ? $ : $ 2BL C 2 $ / X : $ @ @ @ / k C b 2 aBG I ; J k i r E m e = r |B6BnBYBh uBx o 6 l + , 4 = & 4 6BH F sBN ~BN QBT 8BL % k z a RBO r & ( z a s 4 i z [ |BM Y [ # t U E U L L oBC 4 Y v V 6 d & & ]                                                                                                                                          ",
"                                                                                                                                   N z o J 7 3 r ~ 3 [ S z 4 B T S J k Y e 4 a b @ : : : /BA 2 : @ $ ? : : : : : 2 I . : 2 r p % 7 a a 4 s KBj n t %BbB6ByBPBPBR ! e L ( + ( VBB a [ s m rBV s 5 {BM RBLBL 2BS ZBo Z & = [ [ s 3 3 4 T R & 3 q # j | [ V t # 4 5BzBb e s r v 6 _ 6 r = o                                                                                                                                        ",
"                                                                                                                                     YBC Y k r [ c [ qBo c S F EBN Q k c M S X $ @ @ @ : ; 2 $ : $ b ; . . / : : b ? : : 7 F p PBT a p y e h 5 w J X tBRBw * *BtBDBI < eBC U m v a # TBh p y 0 ) T E JBT Z ;BaBL 7 3Ba z rBa 3 4 c 3 E 4 j ) [BM rBa ^ &BzBI E E s R Y t e i U 6 l u sBB M                                                                                                                                      ",
"                                                                                                                                  BF 4 * ) D s # aBG i 3 r ~ vBV H [ P p o ( qBA $ @ : 7 Y k X Z [BoBo Z 8BS $ $ : : ? ; = d H Y s EBP fBx 9B1 y a _ (B7B8B9BpB1BnB7B!BuBJ e + vBBBl c ] n M ~BQ sBMBT 7BTBL | & 8 8 3BT aBo | Y c 4 YBN T 3 U z cBzBb ` | r F Y j s a j ` 5 4 6 S L m y 5 B                                                                                                                                    ",
"                                                                                                                                   N E < U 7 Q p c Q r a ( x O M s c j l d VBo |BA % J 4Bb # zBN ( z #Bb &BL b . : . Z s 0 vBN s yB#BHBBBpBiBD KBI Q &BnBsB$B%BYBJ wBYBh w ~Bj <BH # [ e { mBQ B ) rBz 8BaBo |BoBo 8BTBa X 7 i [ i 4 c | s S c f = ,BoBTBzBa Q V a 3 = Z & l 6 ) oBM m e V 0 >                                                                                                                                  ",
"                                                                                                                                  BF vBC ) C a i Q R c 3 4Bx FBW g # Q 4BW U [BT |BT r & [ & s = S | |BoBMBT ; / bBLBb T r 4 0 T eBJ UB#Bx n y s 3 q LBnBtB%BvB1BJBC f eBDBBBH o c Q r 0 c S { ~ yBbBaBTBo # &BbBb | |BoBT /BABT C Y 4 J R S 4 = + # ` | Z | q iBG k ( S #Bb r l ( 6BG 4 E ~ )BJ                                                                                                                                ",
"                                                                                                                                   N g f e P a p a R r r s x x { gBo 7BNBh r R q RBaBM a 3 q z & RBLBA R #BL 8 XBA | i 3 p 5 d T g g e V h ) u ~ S Y 6BnBtB& GB&BpB1BP *BY L e e Q 3 s ~ r 0 o d ` zBABaBaBoBbBOBoBzBbBoBoBTBA 7 ZBLBo R q j = & rBo |Bb RBL | q a R Z rBM #BzBO # l E z sBV y TBK                                                                                                                              ",
"                                                                                                                                   GBW v o D 3 p j C Y ^ 4 ) O { ( 3 7 L 5 3 RBa J q qBaBbBa ZBMBT ZBL RBb RBTBT J [BT T M f U ~ SBQ { EBY mBh ) LBO ,B8B(B%BKBfB)Be ! *BQ g e ] iBA l o c h M {BU R ZBbBb lB*B* `BO , l ^Bb |BaBzBaBT & R &Ba | | RBT 7BT C J q a QBaBT &Bo #BB d [ & r S T p H d                                                                                                                              ",
"                                                                                                                                  BF x d ~ i [ s D D J z r n B F ~ Q P U L c J | l [Ba ^ _ VBMBOBbBzBb _B*Bz ^Bb q R & v p Y MBN 5BY J +B+ E e T z V lB7BtB9BFBmB,B6 uB# o + KBh R a ) F )BY F e (BL ^B-B#B#BkByB#B-B#B- + , ,B# tB*B* _BbBzBTBa & 7 RBTBA 7 % 2 Z qBaBa J RBM # #BoBaBz r = l g MBh                                                                                                                            ",
"                                                                                                                                   NBN O * i J r 8 [ E r 4 G W p ) z J E { T qBzB+B5B-B- }BnB#Bk }BkBnBnBtBk , ,Bb &Bo r c { ~ vBJBG QByBD )BJ g L r R tBIB%BfBrBcB.BnB/BC uB- m 3 ( *BQ MBY o K `BbB:B6B;BtBnB;BtB:B:BtBtB7B6B<B7B7BtB#B/Bk _ ^ ,Bz | `Bo RBaBa [BOBoBa |Ba 8BLBTBLBL JBa 3 r s L +BC                                                                                                                          ",
"                                                                                                                                  BFBV 6Bn T C [ q S = RBhBr ] p y Y J 4 U cBL |B8B&B6B6B(B=B!B!B=B!B&B!B!B: KBOBa | z E e F p hBN Z U KBj m <Bh f a |B*B/BvB>BrB?B@B[ }By * n 5 RBOBC o mBC FBC _ +B=B=BtB=B8B6B8B6B(B!B!B&B<B]B8B<B!BtB=B6BtBnB7 }B#B/BkBkB-B#BnBtBtBtBtB; t _ , ^ |BaBoBzBzBa s K LBr                                                                                                                        ",
"                                                                                                                                  BFBV , < ) R # & s U q <BK H { M R 8 T { c 8 RB=B@B^B)B)BcB)B)B.B^B.B)B)B! 6BA . 8 # & l ) ~ f j yBU <BY 0BN M H SBMBkB;BvB2BfB_BfB.B;ByBH 6 & 7 S e 0Bj mBW nBOBnB=B8BsB!BsB!B(B]B<B<B<B&B%B[B!B<B]B(B(B!B(B<B&B(B&B&B`B<B!B&B<B!B`B%B&B(B&B&B6B8BtBnByBnByBy l {BI M                                                                                                                        ",
"                                                                                                                                   NBV U MBN [ # Y & M SBP F F gBB D % c Y 3 JB{BpB|B|B$B@B,B,B)B9B9B.B)B@B% f Z . RBO Q 4 M hBG 4 5BO tBh rBN Y vBa &BkB#B9B$B}B_BdB0BvB1B# , z 2 & 6 oBx B 5 ( `B!B(B3B<B3B=B]B&B[B]B<B&B!BvB?B%B&B&B`B<B`B%B^B9B%B%B9B%B(B<B9B%B%B9B`B`B<B&B<B!B!B(B8B!BpBtB=BY r u ~BJ                                                                                                                      ",
"                                                                                                                                     { d K e [ & [ z V y 5 { e g 4 k X p p YBLBaBtB,B,B,B.B?BvB3BgBgB3BvB.B]BN | ;Bz 6 s e m T E y # S 5 ~ M o e T % lBkBkB,B2B2Bc GB_B~B3BtB# t XBo < 5BhBQ s ^ VBsB?B%B!B8B!B&BgB7B!B]B3B=B?B9B%B%B9B9B`B9B9B&B<B9B%B<B!B&B9B9B(B`B%B]B<B<B(B(BpBRBtBtBiBxBxByBD 3BB ) y                                                                                                                      ",
"                                                                                                                                  BmBN yB5 6 3 z | | aBo r HBW { { iBABG c rBABbB=B9B9B)B3BZBZ !BuBJBwBpB3B6BO |BA Y 6 s V v i F s ( ` dBj mBN x SBTBkBIBkB)B2B,Bc W GB_BXB3BpB& fBM } ) ,BUBMBb KBqB?BsBgB<B]B!BpBpB!B!B!B=B&B%B`B9B9B`B%B9B]B=B<B<B]BsB(B%B`B3BsB<B(B[B<B&B!BpB4 !BxBxBh M LBIBUBaBoBB lBF                                                                                                                    ",
"                                                                                                                                  BdBVBlB+ m z # 3Bz R | 4BVBW H d s k T c S R _B=B(B]B?Be wBJ wBj ] hBwBqBY lBz 2BT 4 Q gBN E d & l `BIBQ F T 9 y V tB*B-B.B@B}Br > 1 1BdB_ -B[B[ fBn 6 + + `BOBnB3BpBeB`BvBsB!B&B&BvB<BvB&B!B(B<B(B[B`B)B%BsB`B&B=B3B3B<B3B7B3B]B[B!B&B!BsBg h ] m { qBLBo & UBMBTBo + U f                                                                                                                    ",
"                                                                                                                                     g e wBWBT l YBo =BM l v F HBW ( RBN {BM q lB8B8B]B`B4 <Bj ] ] n ] wBqB1 4Bz X 7 [ iBW ) l U l s 0 < MBQ 9 H 0 4 [ `B#B)B}B)BmBKBZ NBF GBr -BYBhBRB7B;B;B/ }BRBsB1B=B=BZBgB3B]B&B?B<B<B&B!B!B6B8B&B[B(BsBsB&B=BpB(B]B(B8B=B&B3B!B!BsBpBs G B c YBL %BLBOBO ` lBaBo t y ` !                                                                                                                  ",
"                                                                                                                                     g S m h q #Bo [ i = 4 ) O r f 4 c r T E 8 &B(BpB!B3BYBJBh M ]Bx h hBqBp ^ &BT 7 R i e f 0 5 ( r ) LBj h h x 0 & |BOB;B$B>BfBXBw ] > WBF NBmBwBjBRB]B)B,B)B@B,B2B@BcB.B.B,B,B)B)B)B%B%B]B%B9BtB8B1B1B=B`B`B`B%B.B)B)B9B,B,BcB.B)B,B)B~B>B_BF 7 8BaBoBoB# `BO ^Bz `BI 6 ` u                                                                                                                  ",
"                                                                                                                                     eBV ]BF aBa [ r [ Y E c B j d S z s T lBABaB!BpB!B]Bp u v fBhBJ < !B!Bt rBaBTBL a c ]BN s sBM # `BI * O O 5 9 &BTB*B/B@B)BfBXBZBKBK > !BK -BfB@B@B@B|B|B|CACACACAB$CACACACACACAB|B$B$B|CAB|B,B@B~B|CBCBB|CBCAB$B2B$B}B2B@B@B$B2B2B$B$B2B0 G a ZBoBoBOBy , `Bz l _BIBn `B#B~                                                                                                                ",
"                                                                                                                                     xBN >BJ RBaBMBM s Y # c h 0BV y zBN v c ;BaB=BtB=B` * ) V ~ v n 5BDBEBY =Bz q Z | ~Bh E c S =BOBl oBC < o H eBkBkB:B:B)B,BcBr NBq G m xBFBJBF FBZCAB$B$B2B$B$B$B$B2B2B2B2B2B}B2B>B~B}B$B$B}B)B)B@B}B0B~B~B.B0B0BfBfBXBrBvB3BvBrBrBrB?BXBcB_ F [ ^ |BOByB- _ l ^B*BkB=BlBkBX                                                                                                                ",
"                                                                                                                                     g EBPBj r JBa zBG S T { B n v (BaBM s i ;BMB=B8B=B&BH m , 4 dBQ ~ !B8Bx ^Bb qBL Y ) ~ E E l d V V fB1 n ) f s # `B;B:B,B2B)Br GBg - h ] n n > % gCBB@B@B@B@B2B2B}B,B>B>B~B_B?B0BfBfB.B.B0BvB3BsBiBqBsB3B[BsBsBsBXBvB3BgBsBpBRBsBqBsB[ 1B~Bf B a ^BaBzB7BI _ _BbBIBkBp KB5Bg                                                                                                                ",
"                                                                                                                                     F e ] 0 r J q Q r v Y E g x M lBLBM ) EBA ^BtB8B]B%Bg 9Bl d ~ tBI uB7 tBbBzBTBA j f e T _ V ^ U , }B4 M > ] d &BLBb `B)B2B~B_BsBq -B4 ] o B g I KB|B)B,B)B.B~B)B~B.BfBfB?BrB3BsB3BdBsBgBqBgBEBtBZB6BgB7BRB1BwBuBsBsBpB1 }ByB1BRBwBsBsB=B)B_Bx z RBTBoB6 u ` VBzB*B#B6BkB#Be                                                                                                                ",
"                                                                                                                                     ~Bj x T 4 J i R & iBa y h ] h S 3 d v UBABbB;B8B<B`Bg ] V ( m , o 9Bu tBM ^ Z 7 z { g U , =BbBUBBB- U 9BWBW d &BzBz _B@B}BcBrBiBgBqBsBCBW n x P tB@B)B)B.B%B%B?BXB3 -BZB1BsBiBpBgBgBpBpBiBtBeBtBeBgBgBnB7BpBEBtBYBiBsB<B7BwB=B3BRBgB=BpB~Bm ! oBLBTBzB8Bn ( lBOB*ByB= }ByB1                                                                                                                ",
"                                                                                                                 !                   FBj n ) ) D 3 jBMBa 7BB > M 5 zBb o E = Z &B:B8B&B&Bp u 5 e f { U }BY < `Bb 8 Z S r eBN z & VBkBU (BhBJ sBh r & `BoB=B|BcB0BmBZBEBeBtBCBW B O 7BBB@BcB~B9B%B%B?BrB3BgBeBiB[B]B]B[B3BsB3B3B=BpBpBpB6B6BRB=B&BvB[B1BpB[B]B&B]BpBsB3BiB8BpBcBd WBj ZBaBOB8Bg L ` _ +ByBsB+B;Bn                                                                                                                ",
"                                                                                                               QCCCD N               0 e ]BW F a R s s SBaBk hBV oBU i v E E J zB:B7B]B?BtBP m V r 4 K uBj ~ y ^BS 7 d { g lBO , }B- VBIB1 m m MBG =Ba (CAB2B0BfBm NB1BYB4BQ n > ) 8 9B@B.B.BfBvBXB%B?BvBvB?B%B?B?BXB?B] 1B[B]B]BgB6BgBtBsBpB1BvBXB3BpBpBqB[B]B!BHBpBqB1BpBtB~Bm > fBTBoB*B6B8BCBI _ tB/B8B5BtBy                                                                                                                ",
"                                                                                                           >BGBLCECFCDCG          BdBNBh n H ~ T J S U # ^BnBxBV MBB R T T vBa |BnBRB!B`BgBPBI 0 H uBh vBP 5 ^BH |BT ( p {BO + +BD iBlBn w nBC W 0 lBbB=B)B)B.B_BrBEBDBw * )Bh wBC P +B,B9B.BfBrBrBXB?BfB%B.B.B%BvBrB?BrBmBrBvBvBpBpB8BgB3BpB4BtBeB3BKBeBqB!BsBgBwBsBpBRBtBRB.BrBC < [Ba _B!BsBRBY ,BIB;B6B-B=B#B0                                                                                                              ",
"                                                                                                         >B{CC .CHCICJCDCDCK       GBVBBBHBh f d Z [ r l LBC OBN o pBGBN c c q 7 }BtB]BvBpBx K o K f ) mBxBh z _ lBz T c s 6B#B# Y 3B#BRB1BC x x F VBk }B;B.BfBr 1B1BYB+BxBw K h < kBUB,B9B)BcB?BrB[B]B?B_B_B_BrB[B[B[B3 1BmBmBmBgBgBpBgB=BgBeBRBEBpBEBgBeBiBZBYB=BgB7B7BtB1B9Bm W U Z &B*B<B!BeBxB*BIB:B: }B=B#Bf                                                                                                              ",
"                                                                                                       h &CLBL /CMCICNCICDCGBj     G { E 6B4 <BN R [ E =BO OBV { ~ z i v c j 2 ;BHB8B!BsBwBJ ! u yBh < ~Bj ] & l #BT [ Y ~B;Bn c c }BkBgBh o >Bj U u 4 ZByB9BfBXBq *BnBRBPBpBY x e ZBkB,B9B)B)B?BvB[B[Bm 1BmBr 1B[B3BsBsB3 1Bq -B3BgBeBtBwBEBeBsBpBpBgBqBiBwBYBFBgBtBRBtBtBRB? 1BF c 8 ^BkB&B!Bg < +Bk }ByBRB; }Bf                                                                                                              ",
"                                                                                                     x QCO 7 2 .CPCQCFCFCFCGCRBQ   h ) ) LBn u = # | E l Y n OBW v E Y p c 3 X JB+BnBwBgBY !B1 o oBJBQ MBD K = ` & ; R EByB= c Y } K V eBW B p xBhBB X ZByB9BfB_Bp *BRBF nBCBF O x qBkB,B9B,B~B?BXBmBm 1 1BXBr 1 1B3B3B3B3BsBqBeBZBpBgBtB1BiBgBgBKBgBpBiBgBYBwBRBpBpBiBpBRBpB%BrBY ~BTBzB#B!B[B3BC tB/ *B#B:BnByBX                                                                                                              ",
"                                                                                                   JCOCLCEB{ $ $CECSCICFCNCJCGCGCR { g eBlB- KBB 4 = ( s sBN B h p E [BV p i 2BMBnBYBsB[BeBuBD hBC > B !BCBC rBOBT ;BGBJ n { 3 K f 5 # mBx xBh nBY & ZBOByB]B.BvBpB1BRBx x BBe > 9 q tB@B)B,B~B.B?BXBXBXB?B_Br 1 1B3B3 1B3BgB3Bg !BRB=BiBeBtBsBeBR -BiBg -BZBtBeBpBgB1BnBpB=B.B?BJBUBb ^BnB`B&B=BDBDBnByBkBtBnByBd                                                                                                              ",
"                                                                                               W 2B{CLBLCOB{ @ .CECTCSCQCICFCJCDCDBMBNB-BB } <Bh ~ g o d 0BG r WBV [ Y H p j 2 `ByB1B`BvBgB1 uBH LBQ B nBCBxBz 6BoBA ~ w cBN t s L y E ! >BpB%Bg { ( ( `B#B!B.BrBtBgB1 * 5 MBFBKBN JB#B@B)B)B>B~B.BfB?BfBfB_BrBrBdB3B[B]B&B3BrBqB1B8BsBZBpB3BEBiB3BEBpBgBeBwBqBpBtBpBYBYB=B3B~B0 > #BbBOBnB9B&BqBFBIByBnB#B6 tBnB3                                                                                                              ",
"                                                                                             >BSCOBaCHCMBMBS :CECUCVCSCSCVCSCSCQCRCFCWCWBUBC 4BQ U 4 ^ = s { p OBW C 3BV p iBL `B/BRB<BvB=B6BQ 9 KBQ M eBi 9 [ _ ` 3 ]BV s 6 + [ (BB , tBCBgBC x E yBzBbB#B&BcBXBpBgBY n ] h >BC yBL }B$B)B)B)B>B~B.BfB?BfBfB_B_BrBrB&BvBXBrB[BiB;BsBgBYBsBs -B[BsBRBeBsBiBwBsBgBpB8B=B[B!BvB)BfBF sBoBzB;B<B3BsBw eB-ByByB6 6BkBe                                                                                                              ",
"                                                                                          BF 7B{ Z 2 XB{B{ $CECXCYCSCQCICQCVCVCVCICRCDBlBQ )BN u 4 m ( R 0BWBV { { i EBG i {BLBMByB;B&B?B6BDBP < ]Bj F hBZ x j & lBM t r ) V _ 4 )BQBU VBg < ~ FBj c z |B-B<B~B?BsBp * BBx ! > W t & tB$B>B)B>B,B)B0BfB_B0B~BcBcB)B.BfB%B]B&B]BsB6BpB1BeB=Be 1BvBpBeBe 1BqBqB3B3B3B3BvB?B?BfBfB_ - dBoBbB8B]B3 - n K +ByB7B3B- lBR                                                                                                              ",
"                                                                                        BK rCOCE .BLBLCOCECECZCVCVCQCQCICICaCSCSCFCRCGCDBjBjBu ! ~ m m S ) U { HBV r HBWBG pBL &B1B7B`B%B=BwBwBH F w 5 ! n B Z # l q oBN M V V z 5 d s tBw oBw gBW a R JBkB%B)B?BgBt K m )BW M d 0 RB#B$B,B)B}B}B>B~B0BfBcB~B~B0B~B>B~B~BfB%BXB3BsBgB1BsBEBKBd NBsBrBmBXBd GBd GBFBF - GBmBmBd G - FBT _BtB(B&BEBCB1 ,BkB6B! }BOBw                                                                                                              ",
"                                                                                      BNBGCLCM ? X 7BLCTCMCVCLCLCSCQCQCQCQCSCICFCDCbCcCKBPBjBe K m YBQ g s k p p p R [ OBV p 7 RBtB=B)B]BtB1Bw m n ~ ] m M x TBH L 3 g pBl L lBM 5 n VByBh !BF > F 3 8 8BIB%B)BrB4BJ 9 o { v F Q k ;BsB$B~BrB_BfB_B_BXBXBfB_B_B_BfB0B>B>B,B}BXBsB[BeBpB3BwBZ 1 n -B0BmBd -BK - NBKBKBZBE - - - - W JBLBOB:B[ 1BE WBgB*B/B8B=B:B*BD                                                                                                              ",
"                                                                                   gCLCOCLCOCE XCMCEBaCTCZCVCZCLCVCSCSCSCVCVCFCbCGCGCcB; y xBZ K + j c S i X pBG { i j {BV H Z |BsB(B)B=B1B8B1 < o dBCBW > x zBk e 3 { c L _BG s MBP VBnBCBJ F x g lBz RB*B&B,B.BcB)B,B$B$B}B}B, > % mB@B.BXBrBdBq G -BqBd NBKB4BZBZBKBF NB[BXBpBsBtBsBgBC -B_ 1BK >BFBFBpBFBK NBZBK w W > eBWBW C ?BoBOBtB]BsBqBYB6BIBnB6B=B:B*Bu                                                                                                              ",
"                                                                                CLCZCOCUCOCO X ;BSCOB{CMCZCXCECPCUCVCVCZCSCQCFCdCeCDCGCDCWBF u u e v E a i R vBG p { HBVBGBN RBzB1BsB9B3BeB6BYBuBlBj h ~ ] > D = d iBNBVBU V = y < * mBC o > h nBV SBo [ +B3B@B$CACAB$B$B>BmB_B> N % IBeBZBxBZBC ~ hBZBFBwBC n m ) V l T Z +B)B!B!B3B!BpBFBfB2B0Bd ) XBT R # a 3BTBo | 7BTBaBL / b J = _ByB8BrB3BJB1B-B;B7B=B: _B1                                                                                                              ",
"                                                                              COCTCZCCCLCOCOCE .B{B{CHCMCVCVCTCXCXCXCTCTCVCSCFCQCFCGCDCGB/BYBJBI 5BG v R 3BG T MBVBV O x c i J ^BHBtB%BsB6B1 * ! mBx 5 v > W qBo V f F r VBlBUBCBuB1 K t FB4BF H v z ZBzB*BpB,BcB0BcB_Br - N GBd >BA :BL & Z |BL RBMBMBo & Y i & &BMBoBA ;B;B,B%B&B[BsB&B?B>B$BfB_Bq ? @ : ? %BL 8BA ZBABaBbBA ; JBaBb _BIBtBvBr uBkBIB6B6B6B6 +B7                                                                                                              ",
"                                                                            BACPCZCNCFCCCC ZCHB{B{ .CECXCTCSCSCVCZCTCUCXCVCQCFCFCQCGCDCGB+B:B6 t + i 3 [ k i a F HBV d > FBGBABzBIB6B9B&Bp !BY m wBj B B W >BT & s g ) r = ) y <BCBh K 6BIBw W 5 f #BaBoB-B8BcBfB_BdBdBxBKBdBdBd h IBS 8 2 8 ; ZBTBaBA 8BA % ; Z ZBLBa ZBzB!B)B9B]BvB?BvB[BqBfBr GBX [ ? 8 ;BA |BzBTBaBo ` lBz [BTBzB* `B-B3B!B[BDB-B-B(BtBnB3 +B;                                                                                                              ",
"                                                                         W XCECUCICICCCQCLBLB{ J .CHCMCXCZCSCSCVCZCTCSCQCSCVCICFCFCJCbCDCGCKB=BI o V q T 7 j 3 aBV EBV p ) { Z |BHB6B`B] KB1BxBjBwBP B BBC wBT q & & T S lBU 3 U o m t eBD !BC 5 eBb 3 ^B/B8B.BX WBx > ]BC WBKBJ h ;BTBz l 4 U 6 y U #BzBz [ VB* VBO ^ `BkB=B,BcBmBvBvBsBwBwBfB_BdB3 u _ ,BkBO `BnBnBk }By *B/Bn LB-B# ,ByB!BgBgB4 tBkB<B6 }B( ,By                                                                                                              ",
"                                                                       B 2CHCHCZCCCCCICVCLCLCM .CHCPCMCUCZCVCVCVCSCUCUCVCfCNCSCQCdCgCJCGChB(BPBB 9 ~ R c 3 Q zBG F E d cBV H ;BAB/B6B%BgBwB!BPBR 9 ] BBx WBK Z | z l vBN V V YBh KBC yBB * <BFBJ m a | lB*B6B.BwBQBIBJ n m hBFBK h ZBzBIBI 0 * U o 0 dBo = Y d < +B/ V tByB(B,B)BmB&B[BgB1BwBcB0Br -BPB- +BY m m ! t }BDBYB4 f ! uBIB# _B/B!BsBqBRBIB*B&B<B#B!B*B:                                                                                                              ",
"                                                                     ]CECHCMCTCZCQCFCCCLCCCMCHCHCECECECMCXCXCTCVCVCVCUCYCNCgCdCFCFCdCJCDCFCWBU o u E Q Z s J J ) MBV H F pBV ; 2BnBtB`BvB%BYBDBC mB4 x h ] WBL | 4 o {BO U r yBH f t lBUBY !Bi h F S # [ `B6BvB7BnBH 6 oBYBx -BZ F 7 VBI 3BI L c V l s T E Y z , y VBI ,B-B9B,B~BmBrB3BtBtBpB0B_BdBdB3 d 6 t 6 K y = * K } K u ] e 9 K `B/B6BiBg -Bk _B(B9 tB(B5B7                                                                                                              ",
"                                                                   )CMCECECMCTCOCICLCICICPCECECECECPCECECECHCECXCiCVCVCjCbCbCdCJCFCFCCCZCOCkB/B/ u 0 ` [ T 3 a ) H E i {BVBGBSBLB/B7B<B)B&BPB1BxB+ < F F > n JBL = n r 4Bb rBQBl 9Bk VBkBn 9 ] ) 0BMBMBo `B6B%B]B7BD vBgBu ]Bs > H J + ` S u # v V V S i z & z z Y U VBOB*B(B2B}BrBXB3B7B+BZB>BrB_ 1B?BQBI f V u 9 u u 4 L uB4 9BC 6B* _B#ByBpBgBCBO +B(B9BIB6B-Bt                                                                                                              ",
"                                                                 s ZCPCECMCMCOCFCCCLCFCECHCHCHCPCUCUCiCZCPCHCHCPCUCVCfCdClCbCgCICNCQCICNCDCGB+BP } tB5 t E V r H d { Q p H pBS |B/BtB&B9B3BeB;B1Bh e ]BW W > jBA S oBN m V y t y nBk V } K y v h H aBa &B-BtB.B!Bp +BwBC ] hBF h m J d rBI 5BM 6 U ( S R j / R l z , l l `B!B$B2BrB?B[B7 *BZB$BrB0BrBZBw 5BI < < mBn L s < <BP 9BC M VB*B-ByB]Bq K rB*B=B^ KB1 KBq                                                                                                              ",
"                                                              BGB{CTCXCXCTCLCFCNCLCICM .CHCHCMCYCmCSCnCaCZCZCPCECXCmCNCdCgCgCoCNCSCZCNCFCDCGCKB5BY ! } u m ^ % i ) { T { HBV ; [ }B1BvB9B&B3Bw u oBw O F B W qBL E f y < 6 VB- * +Bl l u # y r ]BW [ Z ,BkBYBcB[BPBP 9 + tB4 w ] ~ P # s l [ 4 ) l v T TBA / | Y = LBO ^ _B%B$B}BrB?B[BpBtBmB} GB0BfBJBpB5 e <BD 9BP S LBC 9 < e ) f + `BIBnB[BgBw tB*BtB)B-B1B#B8                                                                                                              ",
"                                                             jCOCZCZCZCVCLCJCFCZCFB{ . /CHCMCYCmCYCYCpCVCYCQCSCZCXCVCFCdCdCJCFCICiCUCVCQCRCDB;B5BZBu eBP E a 2 jBV T i BBW p ; &B5BRB9B.B`BpBR o h *BWBV F > D [ o 5 4 uBB #By 9 dBI y K ` ( SBP BBGBzBzBbBtB) -B4BZ fBD tBeBJ n O I r r [BM L # l lBM Q ? R # R ) L 4 = _B<B$B>BXB?B[BgBgB.B0 NB0B}Bx nB+ U uBRBw f l KBNBxB4 fBM _ , ^B*B:B]BRBwB7B*B8B,BkB;B#Bp                                                                                                              ",
"                                                           PCLCTCMCZCVCSCNCCCZCVCO . .CHCECTCVCqCiCiCqCYCmCSCSCZCUCVCfCpCoCjCqCUCiCVCSCICFCFCGCGBEBu n n i 3 Y a Y T Q O B ) X &B1BtB9B%B]BpB4BQ w ~ n F B N a J , 6 E 5 VBbBI L VBy l 6 f ~Bl g g Y |BaBMBpB~BiBs KBwBjBu B n n B k Q 3 ( S 5 l L rBz ; / |Bo = U V V ` ^B]B2B)B?BXB]BsBsB.BXBmB}B~ G 5BH VBJ K * vB4Bx m } fBC z L _BbBkBnBpB1BpBe _B6B,B#ByB-BtB>                                                                                                            ",
"                                                         I qCTCMCECVCVCSCSCXCVCVCMCH .CHCPCZCmCfCiCYCmCmCqCYCUCUCZCfCaCmCjCpCPCUCaCfCaCFCJCNCDCDBj N w M r Y R a a QBG O O H 7BoB7B7B%BvBpBp mB4BD n B B >BE ZBL L t U V ,Bb ( L VBIBM + ~ K ~ vBV rBABABoBpB%B3Bi * }BYBx eBJ > F 7 k S V S f ( 4 Y | /BA [ S 6 U ( 6Bz #B&B,B~BfBXB]B]B]BrBrB0B2BcBi <B5 6 < LBn l f MBF 5 0 v lBCB* ^B*B#BpB!B] K VB8B)B;B# +BtBc                                                                                                            ",
"                                                       C ZCTCMCHCZCVCZCVCUCiCSCZCMCECHCHCZCYCSCVCXCmCmCYCYCmCYCVCqCnCrCnClCgCXCiCjCjCpCdCeCFCDChBPBE hBC S a R iBG i p W O SBA &ByBnB`B?BsBg uBYBP M F x n - J R L LBN y 5 = LBB 4 oBOBy 5Bj F e g s qBT ^BYBv -BJBuBHBZ H !Be >BV q r 0 z V o # S 4BA /BaBb f L L ( l | lB<B,BcBfB?BvBvB=B&BrB_B2BfBZ KBH o u nBs ] h <BY y u m oBI ,BOB*BHBtB=BsBB `B!B^BtBk tB7B?                                                                                                            ",
"                                                     TCMCOCOCMCMCVCTCVCXCZCVCZCZCMCMCPCMCZCTCTCPCPCYCmCmCYCsCaCmCqCpCtCfCnCdCmCmCnCrClCuCcCGCbChB+ ! xBDBN a Y c c i HBF M [BSBaB#B+B&B9B[B= ! n nBV ~ O > N a & 6BN S 5 t = t f yBRB:B- V m 5 oBW V i z l }B`BZBw w t y eBgBE > c RBU o # L U # ^Bo /BS & V t U e LBbBz lB&B}B~BfB?BvB[B=B%BrBsB>BfBq f o f * wBEB4BgB1 5BC *BD 6 U #BbBIByBnBeB4 ` ,B8B9BtB* +BtB~                                                                                                            ",
"                                                    CMCOCOCZCMCZCMCTCTCZCaCVCiCUCTCUCPCPCTCMCECHCXCYCmCaCsCaCsCaCmCaCpCqCmCnCaCmCvClCvCwCxCwCGCxCKBYBC * FBG r Y Y { FBK x i 8 & }B1B<B%B[Bt eBQ m g o n >BF aBTBO f d y 6BM L t 4BDB7 t 9Bh o M B { Q ` (ByB%BRBR 5BU l *BRBFBW d a ( o l t E 4 lBT $ Z = 5 K V V mBOBb VB%B}B>B0B?BvB<BvBcB? NB>B>BE s K t u MBeBDB1 * UBR oBJ U lBzBzB*BtBRBsBw , +B8B%B(BOBIB]B~                                                                                                            ",
"                                                  COCTCLCOCXCLCTCHCTCTCCCVCiCVCVCSCVCTCXCiCUCXCECUCYCpCtCpCpCqCsCsCmCaCoCsCNCSCQCyCvCzCyC0CxCGCxC1BiBF w 0 r sBG YBW B N W g 8BoBkBYB<B9B]B6 K f o KBw >BWBK R Z =BQ y ( f rBB fBMBI ,BlBPBP <BQ > d qBbBUBDB%B=BRBI ( 6BJBeBF dBe Q E ` 4Bk y l = X / 3 = m n 5 , L L S _B9B}B>B0B%B`B`B]BcBr -B~B~ - E 6 )Bu *BqBeBj 5 tBp *BH l 4 _Bz `B:ByBgB1 L }B!B%B` `B-B9Bc                                                                                                            ",
"                                                  CECOCCCLCVCICTCTCLCZCLCVCVCfCmCYCZCVCVCUCUCUCPCXCqCrClCpCtCpCqCpCsCYCaCpCgCNCfCzCzCyCyCwC2CcChC3Bg ! o D i v r c F WBd > ]BL |B- }BvB,B[B!Bh < 9 KBw pBW > 3Ba R g v l m l V ) l + l VB+ 5 s KB4 O J & ^B5B9B8Bw ] t *BxBeBF >BrBaBOBOBOBH V l [ % J 3 = t o e o 6 ,BM VB9B@B>B.B9B`BvBvB%B[B_BfB_Bi = V FBqBDBRBg KB7BnBJ m t = SB* |BbByBDBgBI _B;B=B`B< tByB<B~                                                                                                            ",
"                                                 xCTCICQCCCQCCCVCZCSCVCVCQCsCaCYCZCZCUCiCUCXCPCXCUCaCtCrCpCpCrCtCfCsCpCVCqCjCnCSCvCzCyCcCcC2CxC3C3B+Bi ) / a S cBV { B W HBW 7 ZBkBuB%B,B&BJ KBtBDB4 F v ] ]BG [ | E T lBC l ( V (BUB* +BD l ` nBJ M k [ VBnB%BgB1BwBYBD *B4 WBKBm qBO V V t d ^BMBT 3 & (BI f 5 f f UBz ,B)B2B>BcB%BvBvB%BvBXBfBfBf 1 +B5BIBg VBDB!BC 9BC V y ]BO ` , ` _BkBnB] * *B1BpB`B]B#BpB<B?                                                                                                            ",
"                                                 TCLCNCCCQCQCSCVCUCVCCCSCQCaCmCmCYCYCiCiCUCXCHCXCUCqCnCrCpCsCtClCoCaCnCrCdCoCoCfCNCbCxCwCeC1C4ChCRB5B1 ] b 7 sBV H HBK h F FBLBaB#B+BvB@B3 < }BHB1 o p x v xBG q ^ r 4 6 9 = + o c y _BB * g f M ] ) [ = `B6B.B]BtBtBCBC hBZ h >Br Z l L ` o 0 4 = Y [ c d t t o f f y # VB9B$B>BcB%B?B%B%BvB.BfBfB_B0 ] m ) 9 YBwBR V S 6BJBR K (BlB* _B*B- KBeBpB7 tB8B9B( }BRBvB9                                                                                                            ",
"                                                B{CLCCCaCICsCSCSCTCUCSCSCaCaCqCYCYCYCmCYCUCPCECUCUCqCpCtCtCpCpCtCrCoCsCdCzCzCuCaCXCgCyCyCbC3CcCRC1CKBjBw D R U 5 MBW WBW OBW ZBaB5ByB&B@B3Bt n }BJ gBWBVBV B QBTBO #BB m < g 5 yBM l lBI wBl o M { v r # lB:B,BvBgB4Bw h ]Be w WBsBL V (BB m v U l S [Bo e m 9 f 6 t _Bz ,B%B2B}BcB9B%B%BvBXB0B_BfB_B> x L g ] eB! < v tB7BYB1 o l tB# _B*B-BH <Bt t lBsB9BtBtB7BsB)                                                                                                            ",
"                                                CMCLCSCNCjCNCaCaCmCUCVCSCaCaCsCqCYCYCqCqCmCUCUCYCmCpCqCsCpCrCpCnCrClClClCbCvCzCVCZCvCuCzCgCGCDChC5B3 !B1 Q E g m FBV > B { HBLBaB/B;B%B@B`B;B1Bg M OBVBW O W iBLBb r ) t h ) = l (BU V nBj m h )BV H q q `BnB,BvBgBuBY ! n h B N G J 6BO L o V g U `Bz ^ o t 9 o 5 fBBBzB*B`B@B>B~BcB9B%BvB?B0BfB0BfB> W h tBwB1Bg 9 eBCB1 u * t L , t _B#B# }BeBY 5 `B:B) }B(B!B=B.                                                                                                            ",
"                                              BKCTCQCaCjCnCjCfCaCsCZCYCSCaCfCsCnCmCYCfCsCsCYCYCmCqCnCqCsCaCnCvCjCrCrCvCuCvClCzCNCaCzCzCzCgCbChC1C5B[BgB1 q & g FBV rBJBKBV r XBTB/BpB`B)B3BwB%B4Bj F { n FBK p % z T S 0 ] g s l y 6 6 9 x m F H m o + `Bb }B)B<BtBRBYBJBQBj x GB[ 3 L 6 V U L t V ` ^BB K 6 t m m , , ^BOB&B}B~B~B~B9B%BvBvBfB_B0BfB~ - tBIBnBe F 4 u d f u *BJ n y , _BkByB;B&Bx K +B6B,B#B!B(B=Br                                                                                                            ",
"                                              CWCCCICaCjCtCnCpCfCpCYCYCaCsCpCqCnCsCYCsCsCqCqCYCqCqCpCtCaCtCmCtCtCnCrClCuCzCvCwCNCsCwCwCyChChChC1B]CKB] w [ r y e r HBK BBV sBLBoBIB7BvB)B]B3BeBY > H B O F B c / | ( l (Bj ~ S S l ` ` <BC m v O w eBOBbBbB#BcBvBgB6Bw g e * O N G a V , L V d 5 LBO # y K o + m o _ _ ^ `B&B@B>B~B~B.B%BvB]BXBmB0BdBZBs ) T VBR U [ + L *BDBDBR U V _BO _B#B;B]BCBI }B(B) tB8C6B6Bm                                                                                                            ",
"                                               {CjCNCaCjCtCnCjCsCpCmCmCsCsCpCqCmCpCmCsCsCiCqCqCqCmCaClCsCfCnCaCvCpCrClCzCvCuCuCNCsCzCwCyCxChChC1C1B[ -BN q s e v a >BF W H EBA _BUB;B]B)B%Bt oBC ) O O n B x p % & y s gBQ 4 4 #Bb ` o < ! nBjBC O Y # R [ByB)BvB8BtBC 5BjBx mBKBd RBl ) L 6 VBB LBb SBl +BIBkBI 6 _B* ^ _B<B@B>BcBcB.B9B%BrBrB_Bf N B ! U = gBiBx ` < MBH * !Bx l K `BbBO , }B[BeB= !BpB) +BtB8B;B3                                                                                                            ",
"                                              CCCFCjCqCjCtCnCnCpCnCpCaCjCpCpCsCiCqCqCqCfCUCiCqCaCqCaCrCtCiCoCrCrClCfClClClCzCuCJCpCvCwCyCxCxChCxC4B9 ! r D s F Q pB4BJ NBW {BL +B*B;B3B9B9B6BY ) M !BW WBW x ) ; | ^ { VBN [ y 3 =BUBHBQBC x m F m 4 ^BOBoB/B9B]BgB1 ]BJ u u n ]BX [ ^ l L <BB VBO | z _ oBUB#B#BHB* ,B* `B(B@B~B~BcB%B%B%BmBrB_B_ 1 - ~BJ r 6BtBHB#Bn ~BHBtBt e 6 }B*BO ,B*BkB1 !BgBQByB, +B6B! }B6                                                                                                            ",
"                                              CFCoCtCmCpCtCnCtCtCrCrCsCnCnCpCsCqCmCqCmCaCiCUCiCmCaCpCnCrCnCaClCpCrCfCjCoCrCjCoCsCsCuCwCyCxCxChC1C5B^ fBG Q 4 F C w F ]BK v dBABOB-B+B]B)B9B=B# dBP n F F c M H 8 Z l 5 ) 5 S E a (BH 6BIBDBj n gBW r z `BOB-B9B]BpBYBDBg oBj > gB] a ^ , y u U ` #Bz [ # eBlBHB#BI + _BO _B&B$B~B~B.B%B%B%BXB_BrBfB0Bc 9BJ S nBR cB-B& 0 eB7B1BP * 6B* ^ ,B#B#BH fBY mB;B@B*B=B]BnBt                                                                                                            ",
"                                              CJCFCgCaCaCtCnCtCrCrClCnCnCtCtCsCsCqCqCmCmCiCUCiCYCfCnCsCpCvCpCpClCpCqCqCfCdCtCsCfCSCuCuCyCwCzC2C4B,B3BN 7 i + F aBY r >BKBW { ;Bb _B+B`B)BcBsB+ nBB 4 E F ~ x { 2Ba VBN 6B5 4 =BLBoBb & tBp K 0Bj g iBM ( ^BkB9B<BRBDBw > 5BHB+ eBZBa ` d y f U d S ` R [ yBUBHB5 + _B*BbB*B&B$B>BcBcB9B%B.BfBfBrB_BfB$ ! e 6B-Bp (BbB3 4 L *BHBe u 4BO _ ,B- }B6BHBpBHB/B,B*B8B<B;B6B}                                                                                                          ",
"                                              CDCjCrCpCqCpCtCtCrCtClCtCsCnCrCpCsCsCaCaCYCiCiCYCYCaCnCpCaCrCoCqClCaCXCpCaCnCdCtCgCsCoCzCvCdCcC3C5C4B+ H D r t vBGBZ lBw > B F 8Ck +B7B&B.B%B3BtB7 6 lBjBZ B > O % RBl U VBQ ( yBL zBO V *BwBh f < M s i ^BzB5B)B<B1B1 * v mBQ ! hBY & ,BO 5 V 6 ` V = 8 [ 6 tBkB# + _ 6 , _B&B$B>BcBcB.B9B9BXBrBmB_B0B}BJ V 6 fBRBtBIB7 +B7BRBDBw m )Bz _B*B*B;B` !BeBwB+B^BIBtB&BnBpBc                                                                                                          ",
"                                              CDCJCoCoCfCpCtCtCtCtCrCrCaCpCrCrCnCnCpCaCiCiCqCqCYCqCnCrCpCjCvCoCtCfCaCjCsCNCdCgCdClCpClClCeC2C4C4C6CKBN c UBB Y HBP zBZBW hBW 8CkB-B:B&B)B%B(B7Bt wBx ! O H W M . [ _ ( VBh = L & _B* + } ! nBD 5 F i [ z lB/B)B<BRBt ]BN 5 5 w BBw 3 ` y L (BQ ^ V 3 ; [ mBIB#B# t _ 6 lBoB&B$B>B~BcB.B9B9B3BdBdBrB0B~Bq o <BHBRBwB7BJ EBtBDBw * u <BI _B-B/B:B% + +BnBnB%B;BtB&BnB;B.                                                                                                          ",
"                                              CGCgCoClCnCpCnCtCtCtCtClCfCqCnCrCrClCpCmCYCZCpCaCYCqCpCoCtCnClCtCpCtClCoCjCoCgCoCgCzCbClCzC2C3C5C1C4B[Bl E 5BQ jBW + rBE F WBV 8BO +B+B&B)B9B[B6B1 ] x ) H d WBN / & z U + m S U zBU _ VBk ! < B n H QBM | =BnB)B<BtBt <BQ 5 lBJ B w |Bb V g L t d ` qBL ^ mBIB#B# + L LBz |B!B$B~B~BcB9B9B% 1 1BdBrB_B2BE z _BHBwBDBY | [BpB1BRBCBHBDB6B-BIBnBnB(Bl yB: }C6B(B8B]ByB/BX                                                                                                          ",
"                                              BZCJCoClCoCsCnCtCnCtCtClCtCmCpCtClCtCmCqCqCmCfCmCYCmCaCoClCpCtCfCqClClCzCwCcCzCwCdCbCbCdCwC2C3C4CxC4C6 0 E L oBG n 6 )BF OBKBV bBbBkB/B[B)B.B]B7BPBu e p H d ] FBS # EBB < ~ 0Bh z 4 ,BUBC ! ] m W F { 0 = ^B+B,BvBqBRBe 9 9 o !BW W Q l _ ` 6 K 5 d Z [ ` t u }Bk 6 d _ #BbB!B@B>B~BcB.B%B%BmBmBrB_ -B} G [ ` _ *B3BJ 8 LB7BD *BHBR ! +B*B*B-BtBt , 6B6BIB;B8B6BsB+B/BZ                                                                                                          ",
"                                               NCJCgCgCrCpCpCpCnCnCrCrClCaCfCjCrCnCYCmCqCmCmCUCUCmCqCnCtCfCoCmCqCrCvC0C7C2C2C7CbCfCoCgCzCxC7CxC2C4B6 (Bo = 0 FBY M 0 W BBF ~BS &ByB#B!B)B)B9BCBC ] ~ g a p H HBS # yBN o c )BI l lB*Bk uBx O ] mBVBWBV # 6B5B)B%B3BpBp 5 < o n dBx DBBBI S L KBU d R # LBIBD }BI dBO , ^BzB8B2B>B~B~BfB%B% 1 1B_B0 GB0B, T # tBCBs ! LBpBpBw 9BPB3BD SBb `B*B:B1BU _B6BnB/B6B6B8B:ByBF                                                                                                          ",
"                                                CFCdCgCrCnCsCpCpCpCtCrCvCpCqCpCjCgCmCmCaCaCfCZCPCmCfCtCnCjCvCsCsCrCvCyCFCzC3C0CbCsCnCbCcC2C1CxC1C4B]BIBbBO yBW > O B ] hBF 4 / |B5 }B&B)B`B9BQBP MBN O c T H ) % | 4 pBh y d U s ^ `B-BQBCBCBj MBW c p r lB#B)B?B!BpBY ~ K <BC O W RBl 6 = t + , V 3Bo V KB/ u m y V V =BbB6B}B>B>BcB?B%B%BdBrB_B0B0B_Bc h zBHBHBEBxBHB[BgBe < *BpBYBUB*B*B*BnB1 _ lB-ByBkB6B6B8B7B;BF                                                                                                          ",
"                                                CICdCoCdCtCsCpCpCnCtCrCrCrCYCNCjCdCrCpCtCtCfCVCXCqCpCrCtCoClCnCfClCzCwCNCbCcCxCyCoCtCwCxC2CwC1C1C4B]B5Bz LBN H v E h BBJBF z $BTB-BkB]B)B3Bg K t M H FBJ EBW F bBT 4 s v x v iBG Y 4B-BPBu h h x ] Q p lBbB+B)B%BqB4 * t tBHB4 B > 3 V y ( 9 e LBz R # _B5B5 ] 5BB L dBMBbBsB}B>B)B0B?B%B%BrBfBrBfB0B_ h 1BB L ]BR h nBpBwBpBQ nBeBtB#Bk + _Bk ! ^BbBOBOB*ByB8B=BtB7BF                                                                                                          ",
"                                                CRCJCgCgCrCfCfCpCnCnCnCoClCsCaCnCoCvClCoCVCYCVCUCmCnClCvClClCtCqCrCzCwC2C2CzCyCyCNCoCxC8C2CwC3C1C4C6B: V + rBV H v B > NBK i /BoBI KB3B)B]BnBD < n F HBW O >BWBS RBO y E BBN j qBT zBB 9B4 xBx h v iBGBoBOByB.B?B1BD !BH ~ wBK O ! 3 _ ` L 6 l [ X XBb oBC *BC f V U ) #BoB=B2B}B~BfBfB.B%B?BcBmB_BcB>BFBsBC m !BFBx <B!BgB1 gB4BpBpBIBkB* ^ByB7 lBb , _B-ByB=B=B:B6BR                                                                                                          ",
"                                                BFCFCbCoCoCfCqCsCpCpCpCtCoCtCYCjCoCzCnCXCPCPCVCUCXCnCvCuCvCrCpCYCsCdCzC2C2CxCeCeCsCgCxC2CeC2C3C1C5B<B; ^ ^BG H MBN O h NBK TBL _BI uB]B)B?BuBRBuBC O HBV xBu H bBa ( 4 S F ~ c a CBbBO fBCBQ M h H { 3BT `BkB9B?B1BJBy t f ! n hB4 [B*BO 9 6 S X ? bBM ( U +BJBH _ 4 ) ^BzBtB@B>BcBfB.B.BvBrB0BdB_BfB>BrBF ! <BHBYBF ~B!B[ 9 uB1 hB4 yBk V ^ }B1 y lB* _BkB6B!B!BnBtBR                                                                                                          ",
"                                                  CICbCgCoCpCmCqCsCpCpCpCnCtCpCnCgCbCjCaCrCZCiCYCPCmClCuCvCrCrCsCsCdCwC2C2C2CxCyCbCgC0CeCeC7C3C3C5B9B+ &BM s MBC m w OBFBKBV 7 ,B*BkB<B)Bv wBw KBQ o FBW MBF x % ZBT & 0 ~ g S c q y ` 5BP > x hBWBW rBb ^B-B9B?BDBy * LBH t O >BZ EB* 6 + V R / $BSBT JBT S tBJ t dBBBz =BtB}B>B0B.B%B?B&BrBf GBfB0BfBfBK eBHBHBw W rB!Bp KBgB4BCBI lBO | +B/Bn + ^ _ _BkB6C6B&B;B=B;                                                                                                          ",
"                                                  CICdCgCoCnCaCsCgCjCnCsCtCrCrCsCoCdCdCrCrCpCUCSCXCMClCyCvClCuCzCdCcCyC2CxC2CxCxCbCjCzCJChC7C1C4C5B`B+BM l l s e g ! x NBJ H /Ba +BHB<B)B&B1Bj 0 E 5 o O dBKBJ XBTBL # K B H 0 E & _ ( oB1 W ! m gBW s _BOB-B.B&BkBR h f U m ! FBx {BUBI l & 2 $ $ X JBL [BO V 5 t L e =BbB8B@B>BcB%B?BvB&BrBfBdB0B~B_B_ 1 4BIBRBR h cBRBCBEBF hBw K V ` zBkBnBgBnBb , _B-B6B6B!B8B(B/                                                                                                          ",
"                                                  CWCJCdCoCnCsCjCbCoCgCnCoCrCtCfCaCbCdCtCtCtCZCmCPCYC9CuCvCzC0CzCbCwChC2C2CxCzCcCoCsCqCbCxC1C1C4C5B`B-Bo # E c r c FBF - >BV %BTBkB#B<B)B3BFBC 5 c 6 ] nBV W > %BaBb 6 m F v f 4 i (BM uB4 h ]Bj h p = V ^ByB.B]BYBn < 5 eBu o ~ M SB* 6 # J / : bBL qBaBO y l l = ,B* l VB8B}B,B)B%BvBvB&BrB_ GB_BfBfBfB>BC f 9BFBw # !BeB[ <BFBeB1BHBkBUB#B1B!BsBO +B*B-B6B6B=B!B8 m                                                                                                          ",
"                                                  CWCJCdCoCnCjCpCbCdCdCbCrCrCnCoCSCNCdCnCpCtCmCiCUCrC9CuCvCyCwCoCvCwCcCwCcCeCbCoCpCSCYCuCxC1C1C4C5B` + zBOBB S { 0BG N - >BV 8 |BIBkB%B, -BZBu 6 yBB F h p > h / Z l 5BN m ~ 5 s YBz zB#Bx n x m hBG [ t _ByB9B<BRBy u 9Bk o 5 x f E V ^Ba 2 : ? 7 j Z ZBo l &BzBz = V # ^BtB}B,B)B?BvBvB&BXBr GB_B0Bf 1 F E t UBYBi <B]B[BZ wB3BRBi !Bn }ByB8B3B! `B*B*B#BtB8B(B!B]BQ                                                                                                          ",
"                                                  BwCJCbCdCoCFCjCdCbCgCvCdCdCoCJCoCSCoCoCnCsCpCiCmCvCuCyCuCuCrCoCvCeCwCyCzClCgCdCnCiCaCbCxC2C3C7C5B`BkBM `BOBN gBH p O G > H ;BoB*B-B^B,BpB4 9 6 y E F O { ] M / q ^ U r ] v l 4 # ^BO tBu O x x e T R _ _B#B9B<BRBD tBQ + L w H B ( &BT 8 / :BA & a |BzBbBb U = r S ( _ =B7B}B>BcB%B.B%BvBXBr GB_B~B0BF Z = * LBC NBJB3BpBKBeBwBRB]B7BnBnBtBgBsB[ ,BOB*B:B6BsB(B8B&BJ                                                                                                          ",
"                                                  BmCFCbCdCoCjCjCoCeCgCbClCdCbCgCdCJCICdCdCpCrCnCqClCvC9CyCvCrClCvCvCyC8C2C0CxC2CcCNCoCdCyC1C7C7C5C6Bk _Bz Y 0 ) ~ {BW - ] gBABz +B-B^B%Bs }Bh n e KBW v n BBV %BTBzBb YBh H l zBO = VBIBn m xBJ x r z zBb tB9B%BeBn o V 5BhB1 F hBB 8 ; / : / & 3 qBbBB # = L T s 4 & &BzB6B@B>B0B.BcB.BvBXB_BdBmB~BfB?BZ 4 4 V nBK eB1 mBDB3 wBsBvBpBkB5B6Bg 1B&B# `BkB6B=B(B(B:B8Bp                                                                                                          ",
"                                                    CFCdCbCoCjCjCNCdCdClCbCbCgCJCbCbCjCjCdCfCaClCaCoCuCuCyCvClCuCuCzCyC2C2C2C2C3CyCgCzCuCyC3C3C3C4B(B/Bk r = f e n M W G > H 2 ZB* +B&BsB=Bx wBjBxBh pBW WBK d IBaBo l 4BJ p V ^ { )BOBIB1Bj v x 5 i LBU z _B%B?BeBR }BHBQBhBD g h s . ? : $ R ^ q & ` ` & ` ) = LBMBaBLBaB6B@B>BcB%B.B?BvBXBmBdBmB0B?B_ 1 n L = <BsBPB1 LBkBeBFBcBr + +B#BtBgBEB3BkB*BkB:B8BsB<B6BsB6                                                                                                          ",
"                                                    CRCbCbCgCoCnCjCoCgCgCbCJCCCCCJCGCDCQCoCpCqCrCnCnCuCvCyCuCuCvCvCuCyC0C0C0C0C2CdCoCvCzCxC1C1C3C4B]B5 + = y g HB4BiBF G W )BSBLCkBHB%BgBt >BZBeBCBGBV B ]BJ { $BT VBU dBu { {BB cBU =BO < oBG v { Q = `BMBUB%B&BpByBC * tBQ K { < (BS : : ; | & R =BO [Ba S L 6 S & _BbBoB6B}B>B~B?B%B?BvBX 1BdBmBrBfBr 1 w , + *BFBCB1Bt uBeB!B,BXBlBkB;BtB=B4BZB- _CkBtB8B!B[B=B[B7                                                                                                          ",
"                                                    CFCdCdCdCoCjCNCjCgCgCdCVCZCZCSCFCFCFCNCoCrCrClCtClClCvCyCuClCvCyCyC0C0CxC2C2CbCdClCzC0C1C1C3C7C4 }BI y m B F g x N N h g 8Ba _BHB%B6BRBCBeBx 0 F < x F ! ) $ Z _ 4 TBh O p c 4 ^ `BOBI L 4 f g S l [BbBkBvB&BpB5 K nBBBCBC dBj `BS $ X [ q JBa lBzBT &Bb e = zBoBOBOBoB7B}B>B~B?B?B?BrBrBm 1Bm GB0BXBrB4 # , +BDBCBYBg ~BnB]B)B.B4 6B#B=Bg WBJ + t lB:B6B!B]B7B=B7                                                                                                          ",
"                                                    CWCJCgCdCoCjCNCjCrCgCZCXCUCXCMCUCVCFCLCjCvCvCvCvClClCrCuCvCrClCyC0C0C2C2C3CxCeCbClCzCxC1C1C3C3C4B/ t E vBu 5 E vBm N ] gBABaB*BkB%BpBeBuBx e V x F e > N d %BL &BM & ) 5 T R = [ ,BQB/ g ~ ] y 4 c 0 ` tB<B<BpB# u } fBC ! ~Bj U 2 ;BT 3 & [ & = z ZBzBB d c = l [Bo ^B6B@B,B)B?BvBvBrBr 1B_B_ NB~B0 GBx t + UBs e KBg e *B&B)B.BsBkB#B!Bi hBJBBB- _BtB=BsB(B1BtBZ                                                                                                          ",
"                                                    CkCbCoCdCdCtCpCnCdCfCXCXCPCM . .CXCLCOCQCdCvClCuCuClCrClClCoCvCyC0CxC2C3C7CxCeCbCvCwCxC1C1C1C1C4CKBk o sBB E p xBmBE ] 6 8Ba +B5B`BpBZB4 h ]Bj ~ m w BBK F 2 |Bo # &BB 0 3 S z Y lB* u KBh { i U U Y ` ,B&B<B1BPBPB4 9 KBx gBP yBABoBz Y | & ^ V & qBb 4 U L L U &Bo _B(B@B,B~BvBvBvBvBvBdB_BrBKB0B} 1BC ` ,BkBw 0BtBJB1BR 1B.B?B?BRByB7BgBCBZ V ,B*B(B&B(B6B:B8BY                                                                                                          ",
"                                                    BNCbCdCgCbCdCjCoCoCTCTCMCPCH @CHCTCZCCCICJCdCrCvC0CzCrCoCrCzCyC0C0C2C3C1C4CzCbCzCvCwCxC1C1C1C3C5C6B+ , , f 0 p B - N ] + 7BaB*B+B%BEBZBxB4 K y o F v OBx ) 8 | ^ z ` y p Q z i rBb _ uBP 9 v z Y y r S ,B!B&B1B#BH nBhBJ > v w lBLBOBO t #Bo E v i rBb z l + _ `BzBzBbB!B$B}B0BvB<BvBvBv 1BfBqBdBdBK -Bw , 4 t tBJB?BiBtBD -B?BXB0BpB5B8BgBYBp _ ,B-B=B]B(B:BnB!Bg                                                                                                          ",
"                                                     {CJCbCdClCdCoCoCmCiCXCECM : .CECMCMCVCCCFCeCgCbCxCyCzCvCzCyCcCyC7C3C3C7C2CbCbCvCzCwCxC3C1C3C4C5C6B;BI ] <Bj e ] ! > xBBBLBTB-B6B`BeBiBwBw fBI g Y v x B i /Ba zBM ` = 4 S J Z `BMBbB-BQBBBV E y T o =BOB(B<BRBkBI t oBu >BVBj U [ l z V 6 y 4 E j [Ba & ^ ` ( V ^Bb ^B8B$B}B0BXBvBvBvBvBfB}BqB.Bc ] 3 E oB*Bo 5Bp uBQBY ! - 1 -B)B3BIB8BpBZBg + _BkB8B<B<C6B=B(BX                                                                                                          ",
"                                                     {CFCbCdCgCgCNCYCYCYCXCMCH :CHCPCECPCTCVCNCcCwCeCcCyCyCzCgCJCFCFC2C4C4C3CJCbCzCvCwC0CzCzC3C3C4C5C6B;BH 5 5 h o W B O o `BL ZB5BtB%BiBgBZ !BQ e p d { M x j . | q ^ _ dBl o T [B-BM [ V yBN { E ( ~ V V lB&B%BR K 6BI LBh nBVBQ vBbB* ) S ( U M r C JBT # ` ( VBB ^ &BOB6B@B}B0BXBvBvBvB]BdB>BrBfB)B~ 5 2 RBzBz }BNBa _B+ uBZBd >B?B] ,B+B6BpB3B# _B#B(B%B(B<B&B!B0                                                                                                          ",
"                                                    BNCkCgCgCJCgCVCPCYCVCiCM $ $CHCHCECPCYCaCICJCwCxCxCxCzCJCFCFCZCLCDC3C3CGCgCcCyCyCyC0CyChC7C4C4C5B(B:B+BQ f F H ] x ] O 5 RB{B-B;B[BeBEBu } < y f B h O > TBLBb ` + } uB5 g U g 5BOBOByBJBD g j T ] MBO VB(B%B7B5Bk u tBP ] v x s r R zBkBB U (BG 8BA | #Bb V m y ( &BzB8B,B}B0BXB?BvB&B[ -B~B%B?BcBcB% gBA |BbBU `BkB= }BaBCB0 N GBXB5B+BsBDBg } ^BkB<B<B=B(B;B=                                                                                                            ",
"                                                     HCkCJCJCJCNCMCTCmCYCTCP $CHCHCHCMCXCZCaCfCFCDC3C5CcCbCDCJCQCECICFCGC3CbCeCyC2C0CyCxC2C7C7C7C7C5B^B-B5BxBN { M > BBF B yBTBaBUBYBiBpBwBPBJBIBj n x d h h vBOB5BY }BDBtB1BDBJB6BwBYB7B&BgB]B4 i mBN l _ KB!B`BtB#B#BJBQ KBx H oBNBa &BB 4BG g s iBA R =Bb l e 5 6BlBbBbB8B,B>B0B_B%B&B& 1BdB~BdBXB0BfBX ! [ _ `BOByBRB3B3 6BEB~ G -BrB3B;B7 *B6Bk ^B;B<B9B6B6BtB6                                                                                                            ",
"                                                     HCkCJCJCFCTCPCSCZCPCZCH .CECMCPCUCYCYCYCfCICFCcChCGCFCNCNCECHCNCQCFC1ChCbCwC2C2C0C2C2C8C3C1C2C7B^B5 uBY y v M 5 xBZ x ) RBT +ByB=BiBuBuBD }B5 e r 9 ! ]B3B!BvB&B[B`B9B9B,B,B@B@B,B,B@B$B|B. { g y lBlBHB<B%B7BH }BD nBQB4 s M gBo V z YBG c S D 8Bo ` V V V LBU (BzBzB7B,B>B0BXB%B&B]BmBmB_ -BXBZ GBdBe s _ K <BYBpBsBgBsB%Bm NBqBqB&B7B;B1B]B5 _B=B&B^B6B6B6Bt                  B_CKBuCDCCCWBu                                                                            ",
"                                                    BVCICJCJCVCPCVCTCXCVCS .CECXCiCZCYCaCsCYCSCSCQCJCFCNCQCSCX @CPCVCVCICDC7CdCdCcC2C7C8C2C0C2C0C2C1C3C6B1BH UBlBjBW T h B OBLBLB*ByB3BgBu *BDBI yBl ]Bx { eBXB?BcB,B|B|B@B|B@B,B@B2B@B@B2B$B2B} { Q V m <ByB(B?BRB+BnBCBC W ] E 5 4 `Bz c d l Y J 2 8 ^ V ,BU l ^ l ` &BTBRB,B>BfBrB%B[B&B] GB0BXBrBZ N 1Bi E #BU tBPBgBEB4BpBrB_BqBeBwBEB&B7B8B%Bk ,B(B(B)BsB(B7B[          B~BiBZBHB+CKBuCWCCCRChBB                                                                          ",
"                                                     QCLCGCNCMCTCVCXCZCjCT .CXCXCiCYCaCjCoCmCUCZCSCFCICSCCCZ : .CXCXCZCVCFC3CxCJCyC2C3C7C8CyC0C2C2C3C7B(B;BH ( wBx > p B W ~ X ZBbB-B8B1 <Bk u t t ] eBN T B M OBZ NBdBrB3BmBmBmBXBXBs 1B_BrBXB~ c Y f g vB/B=B]BnB/ u yBP wBW 0 ~BVBlBB ( T 3 Z 2BSBa VBU o + d = = `Bb |B7B,B>B_BrB%B[B%BrBdBcB_BqB?BXBr - Y RBb = LBQBKBgBFBrB0BF >BCBYB%B<B%B)BU +B`C6B)B!B!BnBX        BfBQBHB/CGCKChCRCFCDCWCRCDCW                                                                        ",
"                                                   WBLCOCICXCTCZCTCZCQCICHCHCXCYCYCYCpCfCmCiCXCiCZCVCVCVCZCH :CHCMCYCaCYCICbC4CwC1C1C2C3C3CwCyC2C1C3C3C3B;Bu yBHBxB4 H h > gBL 8BoBnB=Bw ] uBCBP K y x { ~ FBV WBKBwBZBiBi - NBYBZBZBYBZBg -B3B~ p X rBh dBIB(B!BD * K mBQBQBP f O v ^ V [ c Q q XBL l , K u K L d VBOBzBzB7B,B>B_BXB?B]B]B&BEB_BrBqB.BXBdBd 0BaBO _BO uB4B1 fBqBX B >B4 *B4B)B)Bv `B:B9B6B9B8B(BtB?         xBQCRCWCGB+CDCDCFCICFCRCGCD                                                                        ",
"                                                   PCLCT .CXCTCECMCVCICX .CPCiCqCqCsCnCmCPCUCZCTCMCTCVCLCE .CMCUCYCfCnCfCSCgChC3C4C3C2C3C4C2CDChC1C3C3C4CKBx < 0 xBw xBJ ] { 8 8 VB!BgBY ! * ! 6 5BwBj g ] E < o n !BJBYB4BJ n w MBQ w w * -B?B2 H b H d 6 ,B]B]B+ uBP uBj h ! f O ) SBM c 5BG qBa & +B5BIBI 9 oBBBB l &BoB=B@B}B_B_B?B&B3B( !BfB?BqBfBm 1BmBx ^ ^ ` yBpBw SBb 1Bc G N !BZ *B+B1B+ _B&B%B:B9BpBtB(BX      BKCWCKCRCWCDCDCGCGCFCRCRCGCDB/B3                                                                      ",
"                                                 XCOCOCHCECZCMCHCHCVCCCPCXCXCmCqCoCoCoCmCUCUCTCPCXCQCVCZ .CPCYCmCsCpCpCsCVCdCcCxC4C1C1C2C1C1CcChC1C3C4C5B`Bu uBW F -BFBK > 4 8 ZB*B(BtBJBD u <BHBYBh 5 w T h h g 5BxBC 5 f HBhBjBN m 9 + <BqB?B~ { iBu V v eBsB[ u < <BQBjBP ] M oBN lBI *BQ { q | lBIBQ o 6 5 6 ) U ^ z &B!B2B}BfB_BXBvB8B[BqBcBXBqB. 1BrBmBeBl _ , `ByB?BJBRB.B> - n >BeBH 6BQ _B+B<B<BnB<B8B:B=Bv     N >CGCKB+CDCWBYChCGCFCDCFCGCGB;B5                                                                      ",
"                                               2 2CTCHCECOCM .CHCHCSCZCVCjCYCmCpClCrCjCiCUCUCXCPCVCCCZCPCMCUCqCqCqCtCnCmCYCdCyCcC4C4ChCcChCcChC1C1C3C5B@B^BuBh } o W gBW n 0BLBa _B1BY wBP tBxBx e ~ hBV F f c VBN )BB l E E 0 s 0 (Bl yBwBE WBm c p o y oBkBsB< m uBHBP d 6Bj mBW FBhB+ * e cBaBzBIBH 6 + 6 e d v lBbBaBbB!B2B>B0BfBXB]B6Bv -B?BfB3B.BmBfBm - KB*B- 6BRB%B!B3B,Bf h >Bx w (BU + _C6B(B%BnB!B(B!B6BE B MBuCRB;B;CGCRCRCKCDCDCCCFCFCRCcC1B;BX                                                                    ",
"                                             k .CMCHCHCZCTCH . .CTCQCSCYCsCfCmCnCrClCaCXCXCUCXCMCZCZCPCMCZCiCYCaCsCoCtCqCYCjCyCcCcC1CGCGCGCDCGC1C7C4B@B@B^BZ hBP ! FBV OBjBQ &BT _BtB4 wBQBCB; 5BQ h e 5Bj E dBQ LBG s S Y E j = 0 ( L )Bg > W ! a S E p f 6B!B< u t * < 5 gBj O H H }BQ sBN 7BABbB- t 6 + 5 U ( 4 l 4 RBOB<B@B>B0B_BrB]B6B< NBrBfBsBcBrBcBm G } , VBkBRBeBxBiB} - nBYBJ O V l ^B5B(B]B(B/B!B[B!Bs d dBwBQBuC6B;CGCDCKCGCDCFCICDCDCFCDCKB`Bt                                                                    ",
"                                       OCLCL 2BSCH .CECXCMCECHCHCVCSCFCiCiCpCfCnCoCgCmCUCXCYCmCSCYCPCXCVCUCmCYCiCpCnCgCoCsCaCoCzCNCCCICICRCJChC4C4C5B^B)B^Bp m ~ nBj W h BBU Z ZBkB:B4BJBuB1 hBHBH M 5 < { ~ K 0 l 6 l E ( E # l s S lBjBZ WBK { I Y 5Bj n yBsB! ! LBJ ~ e 9Bx M O { +BI < iBSBaBBBQ tB- , _BB L U l = # ^B(B}B>BcB?B]B3B1B& NBdBfBiBcBrB_Bd N F tBIBkBJBiBF KBmBd N !Bx w u S +B:B(B]B=B5B(B1BtB8 mBj <B;B(CKCKBuCKCKCDCRCRCGChCGCkCGChB`CKBu                           GBj h h                                ",
"                                BF ECLCCCFCCBSBS $ /CECPCXCUCHCZCQCVClCYCXCYCnCtCjCaCVCVCmCqCpCjCUCHCZCaCiCiCmCUCfCjCoCJCNCmCaCICZCXCSCQCLCRCGC3C5C4B^B^B`BsBu 6 y 5BJ h ] 6 ZBLB-B/BxBu } } ! uBI f g sBB 6 U 4 m V yBB 6Bh v [ &Bo uBs W - B i I D ~ h + eBgBp *BI uBHBI e > O ] { 6 uBCBA %BbB-BkBHB5BB , , f ` l | | lB8B,B>BfB?B]B6B:BvBEBdBfBZBcBm !BqB3 ) l 6 , tBsBwBxBr G h W <BCBH SB#B6B&B(B!B5B8 <BnBt ] { -B`CKB]CKBuCKCDCRCFCDCRCcCcCDChC1CKC6CKCD g                  BFCkCkCCCkCWCk g -                          ",
"                            CkBNCOCOCCCLCF X . . $CHCXCXCXCXCECICICYClCsCXCZCsCjCoCjCSCaCsCmCaCYCPCXCSCfCYCiCaCiCYCfCICFCNCaCYCmCYCmCQCQCVCVCRCcC5C5B^B,B9B]Bw s f x W h hBH R 7 + <BDBR uBnB1B#Bk u 5 L 9 d 4 9Bh y g 5 m x { z 3BnB) G >BJBV T k 7BBBH g LBsBe u n 5 u o o F w B dB5BY v 2BL `BkB*BIBkBU +BU 6BO ` V |BoB8B,BcB_B?B&BsBpBvBd 1B_ -B~Br 0 {BsBx V + _BQB[BpB3B} N n 1 B ] x `ByB8B&B!B& + _B#B5By }BuB`BjBYB` -CKCGCRCFCDCFCFCRCGCcCxChChChCcChCkB{ -          Bj TBNCkCWCFCkCkCRCW ^CW                        ",
"                          CCCICCCQCCCZCCCF $ $ .CHCUCZCYCTCPCXCVCiCaCwCoCiCmCfCNCFCNCNCoCsCaCmCiCXCmCaCUCiCmCfCsCiCaCICFCQCNCfCaCfCpCYCYCfCTCLCGCGC4B^B,B^B3Bu T eB4 xBZBC hBM &Ck 6BpBtBYBDBDBH } *BH nBIBB nBH F O x > n ]BW (BIB%B?BF OBW C Q j 4BU KBh +BRBx h m 4 e g <Bj W BBWB# } [ $BaB*B* _BkBQ +B- +BIBB ` `BOBzB6B)B~B.B?B&BsB6B&BqBqB0BdB>Bm N ~ 0B4B5B+BJBYBEBFB.B>BdBE h hB4BjB*B6B(B&B8B& tBbB#BH }BHBwBuBuC6B[C6CDCRCICGC7CJCbCcChCJCGCDCGCDCcC1CGCICk       {CCCkCLCICkCCCFCNCQCICDCW ^CW                      ",
"                        CLCICLCZCVCVCSCbCO @BSCPCTCTCVCZCMCPCECUCPCFC7CeCYCUCaCFCNCVCFCgCsCsCpCaCiCaCsCiCECmCnCtCiCVCaCICNCSCQCsCaCsCYCiCpCoCVCQCDCDC4B,B`B3Bg K eBu ] h hBj |Ba z dBvB1 oBC * ! } 9 KBJB5 + + ~ 0BV M m hBZ { [BvB.B? - - p % D i (Bl 9 e oBtBx ] K V e 9BWBxBW B BB7 u X 2 lBkBIBIBk , 6B*BUB- _ ` # &B*B8B)B>B)B?B]B3B!Bv - GB~ GB>BdBmBcBK ~ (BBB- }BZBqB$B>Bd O HB1 > dB#B6B<B<BpB!Bt ^B*BkB/ + gBuB]B`B]CGCDCRCGC1CxCcCcC1CxCdCxC2CcCFCJCwCDCICGCR g ^CkCkCRCWCNCICCCICSCQCQCFCICFCWCW                    ",
"                      CLCLCTCTCZCXCCCgCJCE $CMCZCXCUCZCZCMCECXCUCTC7C5CeCSCPCYCfCSCSCICNCaCSCmCYCiCqCmCYCUCYCpCnCSCiCSCVCFCNCTCNCNCaCqCaCrCrCjCUCFCJCGC4B^B]B[Bx 0 vBZ W ]BQBTBA ^ 6B%Be 9BJ KB+B1BY } * K U ( H sBN 5 ] xBC E oB.BdBmB}B} k I j D Z f l r _BRBj e u U y M B o BBW <B+ s . RB*B* +B- 6 VB-Bk t + V V , = #B!B)B>B)B?B]B(B=B]BdBdB>BEB> 1BdBfBfBq = 4 K mB4B,B$Bf G O w 5 m r }B8B%B[BRB8B]BI +B-B-B-BhC6B`C6ChCRCcChC3C1C1C7C3C3C1CxC7C4CcCcCDCJCcCRCDCkCkCRCRCFCICNCCCQCSCUCXCLCFCFCICRCFCk                    ",
"                    COCCCVCECMCTCVCbCjCICECECUCTCPCXCMCZCECXCYCZC7C4C3CeCQCUCTCSCQCICVCVCVCaCaCUCiCmCmCqCUCpCqCaCsCmCSCYCVCICVCVCFCfCaCjClCrCgCZCVCJCbCGB]BXB3BIB5BC WBE x eBMBaBo uB3 g v ) 5 ~ H g e s { y U r a S r HBN M 9BCBdBFBKBF p b D v j rBnBh d = * UBG S r d vBC x > i 5BI D %BoBkB*B-Bk 6 +Bk +B* 6BBBl ,B*BoB!B)B)B)B?BvB!B7B]Bm GB>BdB,BmBF 1BdB.BC V t h !B}B>BdBrBF x E UBMB/B!B^B!BtB7B;BkBnBI ,B/BYB]B`B:CcC1CxC3C1CxC7C!C3C!C2C7C4C4CcCDCGCDCcCDCDCDCRCICICRCCCNCCCICICVCTCNCCCVCICCCICFBX                  ",
"                 NCCCCCZCTCECECXCjCNCICQCHCTCXCPCXCXCTCXCHCTCUCDC5CGC4CDCJCICVCQCQCICMCYCTCSCNCaCaCYCUCNCaCVCFCaCsCmCZCiCTCZCVCVCVCJCgCoCoCzCaCVCZCjCdCGChB`B`Bj 5 w h > h M z qBoBt fBG ~ ] g T Y TBG p a J U i 2 Q g oBE h B > F H F C / a c p R 5BQBYBH 6 tBN [BGBN x H F > h Q < o I ;BOB- +BI +B*BI t + + t V ` `BOBOB=B)B)B~B?BvB=B6BvBdBFBcB?B> GBCBKBqBrBZBU m uBeB$B0B_Bm > o g TBOB=B=B9B(B6BpBH `B/B# ,B;B5C6B`ChChC1C1C7C7C7C3CxC7C7CxC3C#C5ChCcCGCGCGCGCFCICICNCFCJCNCSCICQCCCaCQCQCZCXCJCFCICFB+                  ",
"                CLCCCZCTCTCPCECSCICVCJCVCHCTCHCECTCUCTCHCMCECIC3CGC3CGCNCFCFCZCCCICUCECSCECXCICfCUCECXCYCFCaCVCnCgCfCYCiCYCVCZCSCZCQCeCdCdCjCiCfCSCNCFCGC1B^B)Bt 0 oBE W B B [ ;B* U C 4 s Q C q Q j a Q Q % 7 c j gBYB9BX i B i X D 2 % I P 8 C PBQB#B5 +BU V S a 4 UBW c c ] cBGBu e %BL V , + +BU , tBIBIBIB- + ` V _ `B=B@B>B~BfB?B[B&BvBqBFBcBfB~Bm O {BEBdBE KBwBtBYBXBr - N ] M 6 | tB(B6B9B!B;B6B: ,ByB/ tB:B;B`B^C1ChC2C1CyCyCeCbCzC!C7C2C4C4C5C3ChCDCcCGCRCLCLCNCcCFCNCCCVCdCQCNCjCNCSCSCNCFCICCCICW                  ",
"               dCCCTCUCTCXCPCMCCCaCICGCUCXCMCHCUCTCTCECHCXCZCxCDC2C2CNCQCVCUCXCSCSCHCiCiCPCUCZCPCHCPCiCVCVCjCZCSCdCnCYCiCYCYCTCZCZCVCDCeCbCZCZCgCsCjCFCGC3B)B)Bs sBh o ! O mBM XBO % ? % / . / 2 % 2 I % 7 X : EBZBXB~B0 x p x 7 r j 2 P 7 ? ? b bBUB;Bk }BU y & S e 0 H E r { D 0BY 4 2 ^B#BkBkB-B- +BIB-BIBQ +BI ` ` + _B(B@B>B>BfBvB[B]BqBsBEBcB?BcBm ] # fBFBp e 9 * = ^Bq NBF W H iBOB(B6BtB9B[B:B6B(B;B-ByBkBnCKCKC5C1CcC3C2CxCzCeCeCzC7C3C2C$CcCDChCDCDCDCDCZCCCGChCJCQCQCVCJCbCfCoCFCfCaCoCwCFCaCTCNCD                  ",
"              B{CTCXCXCMCMCHCECVCZCbCJCHCMCECPCXCUCMCHCXCZCxChCDCcCJCVCXCPCECXCZCMCHCFCSCHCYCmCXCTCSCmCUCiCfCoCQCQCsCYCUCUCTCUCPCECZCICJCdCfCaCbCbCdCbChB,B^B^BgBkBP w h > o = ZBT 7 q k j =BO S Y [ a % % / % !B2Br - ! B > H s u s . b XBLBL J 7 JB*BHB:B:BNBb , g ~ E m B c E h w a 8 _ +BHBkB* tBkB- o + +B* + (B-B*BOB&B@B)BcB%B]B&B3 tB]BrBfBrBc GBF z ,BwBu }B5 #BSBaBqBd W < S |B+B^B6BtB9B(BtBtB:B8 _B#B-B#CKB;CKC4C3ChChCxC1C7C!C8C8C7C7C#ChCcChCcCGCFCCCICxChCJCNCICdCFCFCjCfCnCgCjCoCsCoCgCdCFCDCW                  ",
"             HCTCTCMCMCXCE .CPCTCSCcCTCHCHCHCUCMCXCHCZCxCxCxCxChCwCFCPCHCECMCXCXCPCMCFC2CiCfCpCYCiCSCfCYCiCaCICoCSCUCUCMCUCTCM $ @CMCQCoCbCjCsCvCwCzCcC4CBB3 1B3 KBhB1 W h h zBTBz lBO U 6 0 # E # i I ? 8 % cBm N O g B OBVBN nBwBG 7Bz =BU ^B* + _B#BkB7B6 <BQBHBC e )BQBJ F W h > JBa VB*B5BH +BkBk + +B- +B-Bk ` _ ^ [B!B2B~B0B?B[B`BpBPB)B~B_BdBcBZBE UBl K 4 ` i ;BABb !BmBKBl SB5B(B9B(B8B%BsBnByB7B6BOByBkBkB/CKCDCRC4CxChCcC1C!C!C7C!C!C7C1CcCKChCcCDCFCFCGCDCJCFCFCeCJCjCNCjCoCaCsCbCNCgCICgCoCeCeCF G                ",
"            COCTCTCPCMCTCXCMCTCiCgCbCPCECECPCTCXCPCHCbC4CcCwCzCbCwCZCHCHCMCMCTCPCMCYCSCcC5CdCfCYCYCVCaCpCfCfCVCNCICTCXCXCUCMCHCHCHCMCFCbCeCnCoCvCzCzCGC5CBB[BmB9B5BQ ] ! x ]BM & & lBU + U Y r S Q I @ PBa C { O d d F p j j v nBjBG KB- 6Bl + tB5 }B#BnB1BJB1BeBuBuBCBj h ] FBZ > O k ^B*BkByB-B-BkB-BHBk +B* KB5 t ^ = =B!B$B>B0BXB]BvB(B%B}B~Bm 1Bc - 1BJBN } t ^ zBbBb KBgBd ) 3BUB3B]BsB=B!BvB[BnB:BtB6ByB6B/B*B;C1ChCQCFC4ChChC2C4C#C#C5C4C4C2CcCKCGCDCDCbCbCJCGCGCNCeCICVCjCYCaCvCdCgCuCoCuCiCeCwCoCzCFB;                ",
"            CTCUCXCPCMCUCPCXCUCSCcCgCXCXCXCiCiCE .CFCcCbCbCjCmCsCeCZCHCPCECXCTCECUCYCmCfC4C4CbCiCaCmCZCZCVCfCnCZCTCZCXCMCX .CHCVCNCICdCbCzCbCdClCeCxCxB|CBB^BvB[Bi e ]BEBx hCkBbBoBBB;BQ E L {BG J @ . Y z E g Y FBN F a Y ]Bj BBC g u U (BUBQBUBQ + 6BHBQ hBF -BYBC w wBE B OBF M o q ^ _BnBYBIBkBkBQ uBHB-B5BkBkBQBl y ,B&B2B>BcBXBvBvB9B@B}B0BdBrBcBq 1Bv KBPB1 !B/BDBJBZBXBm F rB:B(B%B]B8B(B%BcBpBpB6B(B(B=BkBIB6CKCxCcCICRC4C4C3C4C5C5C5C5C5CKCDCDCFCRCGCbCJCcC2CcCeCICVCSCpCpCnCvCvCvCvCyCoCNC9C9CJCzCwC6                ",
"            CMCMCXCUCTCTCECMCUCjCoCNCZCXCXCYCjCICFC4CJCNCoCZCZCtCyCSCECPCPCiCXCPCmCYCaCdC4C4C5CdCYCYCiCPCHCXCqCUCHCECUCMCMCHCZCFCoCFCeCzCbCbCeCeCbCxC4B@CBB@B~B3Bi 6 dBF ]BwBlB{Ck KBeBV s 0BG r . : [ E S f x E H E 4 sBPBu w <BJ w K mBQBHB5BH uBH < K mBh hBC !BFBC < N FBK G W > 4 ` VBnByBHBy } uBkBk }B/B5BHBQBU _ _B&B@B~B0B?B?B?B.B)B>B_ GBmB) N GB? < +B1BpBjBuBiBiB.Br >BHBsB(B)B,B]B=B9B)B=BnB!B9B=B6B-B/CKC1C1ChCRCCChC5C1C4C1C1C5CBB@CGCGCRCQCJCgCdCwCyCcCcCNCmCjCnCjC%C9CvCnClClC%CvC!CyCoCyCbCwC6                ",
"            CECZCaCQCICSCMCPCSCjCNCjCdCoCNCdCwC7C7CeCaCaCiCPCmCdC0CNCECXCZCpCqCYCfCVCpCvC#C4C2ChCbCaCSCiCYCfCSCYCECHCMCXCHCPCJCJCmCFCwCyCzC0CcCoCVCNCbCJCRB/B;C6B3B+ sBx 5BPB- & _B; w v gBG c 7 :BG ]BI *BY h 5 ~ R 7 ( t g 0 ~BB ) ~ e g g g 5 g y 5BQ t 6Bl gBh !BFBF n F GB_Bd > VB-Bk }B:B/B+ }B/ }B#BkB5B/B#BIBQ V `B&B2B~BfBvBvB%B.B0BcBr -BqB~ -BZBq ^ `BRBpBZB[B3BE - 1 e *BtBwB%B@B%BtB9BvBRB:B6B%BtBn ,B*B;CKChCbCICFCFCKC5C4C6CKC6C5B^CGCDCICCCSCQCoCzCbCbCJCVCoClC9C9C9C%CvClC9CvC%CuC9CyCgCJC8CDB5                ",
"            CUCFCoCNCoCQCPCTCjCjCjCbCbCzC2CxCxCxCdCSCSCUCHCZCjCrCwCwCMCXCqCoCoCaCNCsCtCgC4C7CxCFCNCJCQCPCXCsCSCXCXCECHCECHCVCbCjCgCzCxCxCyC7CgCFCVCaCjCjCICVCLChB`B- MBE > > K VBUBtBQ x T c Q @ [BD WBxBPBh ) U g Y q &Bb SBM r r 4 ( {BVBN g ~BN {BN y U 0 v dBh nBxBZBF W !BdBr <BOB-BkBnB;ByByB#By }B#B5 }B5 }BC t ` `B&B@B~B?BvB?B9B9BfBfBd - 1Bc G - 1 }BHB[BXBrB.B~ -BFBq g * u KB(B@B9BtB%B]B7B6ByB8B=Bk _B*B;C1ChCwCCCVCDCFC5B)B`B(C1B^C4CDCICQCNCZCXCjCgCJCgCfCnCoC9CvCvC9C9C9CgCyCuCvCvC9C9C8CzCzCCB-                ",
"           WCCCdCoCNCjCaCXCfCrCgCnCgCsCNCgCxCcCeCaCUCV .CHCaCtCvC8CxCUCUCqCoClCtCnCjCoCbC2C2CcCNCVCSCJCSCPCE $CHCUCE . $CPCJCdCeC2CyC0CxC!CdCNCgCVCVCVCQCdCFCDCxC5 ` {BsBKBuBQ ^B+B8 KBW Y d / / c [ Y Y Y [ | R c 4 z & r z Y a R c r r T { dBV E l v lBNBN T g 6 m BBKBFBKBJ xBK n SB5BkB;ByB+BnB+B+B/ }ByBy }B5 uBU l `B(B$B~B?BvB?B%B%B_B_BdBgBsB_BqBEBsBvB.B9BdBwBdBX N -Bs xBY fBQ }B[B)BtB9B[BnB/B7B6B=B5B* +B/C7C3ChCJCSCDCICcB|B^B`B^B@B,CGCICFCoCfCYCoCnCNCSCaCoCzCyCoCrC9C9C9CvC9CuCvC%CyCoC%CzCSCJB/                ",
"           >CQCbCoCjCjCfCZCfCgCzCNCICNCSCJCeCjCfCUCaCUCHCZCqCfCuC8C0CVCSCfCtCvCvCgCqCpCdC3ChCbCNCVCVCICFCJCC .CHCSCXCXCPCICoCdC0CxC2CxC2C4CVCbCICICCCZCSCJCeC2C2C5B: dBmBJ !Bk VB9B3BxBV v a : I I k JBLBL RBa 7 J S ( y & a & i D a Q j i S Y j c s vBV vBlBN y 0 y 5 B x nBxBQ O g sB/B;BtBnB;B;B1BYB+ }B+BuB/BP K K , `B&B@B.BvBvB`B?B?BXB_Bd G GBrBdBF GBKB3B3 B oBJ >BCBZBJ 0BsBlBzB- }B(B6B9B8B5 _B8B(B7B5 _ _B-C4C#C8C2CFCNCbCFC1B|B,B,B|B@CcCDCgCoCNCjCgCdCfCiCsClCzCYCrCzCvCuC%C9C%C9C%ClCjCSCdCgCXCGCG                ",
"           >CCCgCoCjCjCICSCjCgCwCNCSCfCICdCICaCiCiCYCPCZCqCaCpClCwC8CSCqCjCnCrCvCdCmCmCjC2CwCbCYCPCTCZCSCFCJCVCVCdCJCdCcCbCNC2C2CyC0CxC#CFCVCdCSCJCVCZCQCFCbChC1C5B9BiBXBZBxBu 6B%Bs FBV F $ b X P 7BL J JBTBTBT ZBa # S q P 3 Y D C q a a i R Q r r S T SBNBV v ( 0 yBB ) MBh 9 MBV ^BtBgBtBnB;B1BtB;B/ }B7B1BP uBHB# K `B&B@BfBvBvB`B?BXBrBXB3Bi GB_Bd N -BWBM ~ oBxBuBNBhBw B FB1 z ZB*B*B/B6B%BRByB*BnB7B1 +CkCkB-C5C$C!C2CFCSCzCJCRB`B|B@B|CBC4ChCGCFCNCoCdCgCSCYCgC9CjCYCuCuCuC9C$C%CuC!C%CpC9CvCjCdCFCbCD                ",
"           NCNCdCdCnCNCoCgCnCgCzCoCjCJCcCQCaCYCXCYCPCECiCsCtCtCrCuCwCVCVCpCrCoClCdCoCNCbCxCxCJCP .CXCSCCCLCTCTCSCNCcCxCcCcC2C7C0CxC2C7C4CECECqCjCoCZCZCNCJCbChC4C5B` wBi NBZB- `B<Bi r y D : 2 X JBL q &Bz # z & [ R J J 7BA J D C J q a D D D a q q a & r c r c r { E { 0 y g ~ H d oBsB]BpB6B8B:B:B:B;B1B7BYBuBDBI tB5 lB(B$B0BvB]B&BvBXBrBXB]B[ GB_Br - 1Bi 4BbBU }BCBQ < f h f U 7BMB*B*BnB=B&B6Bt }BkB:B8B+B/B*B-C4C#C7CyCbCJCcCzCGCRB]CACBCBB^C1CGCgCoCvCyCyCFCNClC%C9CrCrC%C!C%C!C%C%C%C%CuC9C%C9C9CeCQCD                ",
"            CFCzCdCoCnCbCeCNCdC0CwCzC2CDCTCVCPCUCUCECMCiCnCnCnClCuCJCVCaCpCrCtCoCgCvCoCuC2C2CdCXCECTCSCVCXCECPCTCZCIChCGC1C2CwCwC2C3C#CF @CHCpCnCJCSCSCdCbCcC1C4C5B`Bu WBZBEB-BbB9 h E 0 / . X C C 7 Q 3 jBM S Y &Ba RBT Z Z J 7 C J C C J k P C 8 X k Q 3 j cBG j Q i c S E T { T ^B5B+B[B8B[BgBpB;B:B7B:BH tBuB1 f + K lBsB$B0B[B3B[B[B[BXBXBvBvBiB?BdBFBd -BsBi s ^ 6 K 6 l LBbBTBA _ _B-CKB6B8B3B8B;B5BtB(B7B#BkBkC4C7C!CxCxCJCdCzCcCJCWB@CACBB@C4CbCgCJCzC$C8CoCgCuC9CvCyC9C9C%C9C!C%C!CuC9CuCoC%C9C9CdCSCD                ",
"            CFCzCgCdCvC2CeCjCdCwC2C3C2CUCXCMCECiCPCPCXCiCpCpCnClCvCICmCnCpCnCNCtCjCgCoCuC8C2CbCZCUCYCmCTCECECXCPCTCXCNC1CGCbCeCwC3C4C7CH .CVCoCrCzCNCNCwCyC1C4C4C4B`BZBF !Be e =Bs { g J $ X 7 C q D q q R a R R | j R Q a q J J C 7 k P P P b R q / 2 X X P Z a a 7 q a 3 Y i Q [ ^B:BCB7B=B1BsB6B:B:BRBw }Bu *BY uB#BH `B(B@B0BrB3B3B3 1BmBm 1B[ -Bf -BJBqBdBXB?B[BI & &BM zBoBaBABOB5BUB/B8B=B:B=BtB7BIB#B(BHBOB*B/C5C#C!CdCzCdCICQCSCJCJCDB^C&B|C3CcCGCbCyC0CdCNCbCuCmCpC%C%ClC!C9CuC%C8C%CuC%CvC9C9CuCuCjCDB`              ",
"            CDCeCwCyC7C0CbCvCdCeChC4CDCHCP .CPCPCPCXCiCmCmCsCrClCgCZCYCrCfCqCaCsCfCpCoCvCyCzCoCSCVCmCfCTCH $CMCTCHCPCCC1CGCbCwC2C1B@CF @CXCtCoCuCyCjCoCxC2C7C5C4C1B, G NBuBZBN E o y e / / P k 7 J P J C 7 C k P C J J J C 7 C J X 2 2 b b / b SBN b : Z 7 2 X k 2 I k JBT a [ R a ^B!B+BHB]BpB]BpBtB7BRBRB7B1Bu } KBJB1BOB!B@BfBXB3B3B3B!BmBrBrBrBXBcB_ GBrBXB?BdBXBvBn =BA 2BTBb `BtB7B-B+BtB(B:BwBDB/B/BUB(B# _B*CKC$C$C2CdCeC8CwCdCQCgCNCDChB^B|B`ChCxChCdCVCQCICeCNCmCpC%C#CvC%C!CuC%C!CyC8C9ClCzCvCzCoCoCbCK              ",
"            C6CcC3C5CxCoCgCbCeCzCwC3COCH . .CPCECPCiCqCsCmCpCtCdCoCQCaCjCmCmCpCaCYCaCdCuCwCbCSCiCiCYCSCM : $CECM .CLCFCxC3CbCcC1C4C5CHCHCsClCzC0CeCFCbCxC3C4C5C3C4C6 WBFBFBe 6 ~ {BP i : X 7 7 q R kBa 3 J [ 3BA P k ; % / b X 2 ? / 8 ; b : % 0Bx I /BQ wBU ` S | ^ ` ^ # ^BO _ ` _B]BvB1B7Bt }B8BsB6BtB1BnB5BHB-BPBwBR _B6B@B0B?BrB]B3BqBrBfBcB?B.BcB~BmBmBmB_BdBFBEB?BXBC ( #BO + _B-B-BnB:B(B6 }B+B-B6BnB!BnB/B-B:C#C#C8CwC2C!C2CeCcCzCFCbChCcB`B^C1ChCFCNCQCICJC0CnCsCpC!C!CjCvC!C9CyC%CuC8CuC9C9CdCoCSCzCbCG              ",
"              CcC2C3CICmCsCdCbCeCwCGCE . :CXCPCPCXCiCqCaCaCnClClCdCeCaCVCmCpClCnCYCYCtCbCzCfCUCiCUCXCU . @CHCE :CHCJCbCcC5CcChChC5CF :CmCrCyC7C0CoCJCwC2C7C4C4C1C5 0BNBF NBZBIBU f } % . P 7 DBa [ | zBO l 4 (BbBb # Y 3 7 ; 8 X X 7 3 Y & 7 2 E > 2BGBsB3B[B=BgB[B]B6BpB8BtB=B&BsB9B,B9BsBIB/ }B;B6BpB6BRB;B+B4B1BeBYB+BbBpB@B0B0B?B&BrBdBrBcBfBXBcBcB~BmBdBrB?BdBZB.BXB_B2B$ * zBMBTBIB#B-B#B6B!B-B5B-C6B9B1B/BkB/B;C5C0CcC2C7C!C8CgCdCzCbCICzCcCKB`C1ChCJCFCNCSCeCoCoC%CvClC%CoCyC%C%C%CuC!C9C9C$CvCvClCiCuCzCR              ",
"              BwCGCFCPCXCmCjCoCwCxCFCH :CHCXCPCPCYCpCtCpCsCoCvCvC0C7CVCiCpCtClCrCqCmCfCSCeCYCXCqCUCPCM $ .CMCH $CZCNCcCeC5C4CGCcC1CPCPCjCdC7C7CwCoCeCxC2C4C4C4C1C5 e h N NBZ + 6B1 i : 2 8 JBTBL ZBTBa | & [ 3 [ & [BM SBM # SBM 4 r & iBB & I s r % g ] O > NBd 1Br -B[BsBpB[B[B]B)CAB@B.BpB1B9B!B=BgBgBRB1BeBEB1BPBuBe SB:B@B0B~BfBrBfBfB0B$B_BdBfB0B0B_BrBfBfBdB>CAB$B2B2B$BX ` l ^BI KBUBkB-Bt u _BkB(B)BJBkB*BkB;C5CyCyCzC!CzC0C8CbCxCxCSCJCcC1B^C4CGCFCFCICfC2CvC%C$C9CaC9CvC!CuC9C!C%C%CuC%C$CvC9ClCqCbCyCD              ",
"                CkCMCHCXCqCfCoCwChCO : .CXCECECUCpCtCtCtCrCrClCvC0C8CSCqCnCtCrCrCfCfCnCNCzCVCaCnCmCUCMCECMCT .CXCSCNCwCwCcC5CGChCJCHCfCrCzC!C2CoCdC2CxC7C4C4C4C3B@BwBF -BiBEBkB5BJ : ? P C Z a R R 3BaBT R jBa [ | a Q j Q z r [BM z [ a 3 J 3 o Y I E c E F xBKB4 NBZBZBuBYBY wBxBCB[CAB)B%BtB8B&B]B=BpB7BYBDB1BxBPBJBp 6B;B)B>B}B}B}B$B$CACAB0BdBdB_B0BfBfB~B>BrB$B$B2B~B~B}BfBQB- l ` +B-B# `B-B1 = }B%B)BP _ +BkCKC5CyC0CzC#CgCuC9C9CxCwCJCbCxCxC5C5CGCJCJCfCgC$C$C%C!CyCfClCuCuC%C!C!C!ClCvC$C8CyC9CvCoCsCJCzC6            ",
"                COCECECiCmCfCfCdCbCH @CMCPCECXCmCpCpCjCnCtCpCsCgCyC7CaCnCoCoClClCfCsCuC0CxCNCrCrCsCZCXCMCTCECHCSCSCNCdCxCGC5C4C2CVCYCdCgC2C7C2CjCxCxC3C5C4C4C4C3CBBuBPBd -B=BHBt j @ 2 k X 2 k 3 Y c r zBM & z 3 [ Q D Q Q a R R Q R 7 I . JBBBH i / a [ s sBN < < h WBDB1B1Bw !BC tBkB)B@BcB=B;B[B3B=BpBtBYBwB1BYBZ >BZB-B:B)B>B>B}B2B$B$B}B0 1 G N GBrB0B~B2B2BcB}B}Bm 1BrB_BcBRBb &BbBUB5Bk `BkBv 6 }B9BwB1 +B*B#B6C5CwC2C9C!C9C7CuC0CzCzCbCyC!C3C4C5ChCdCICaCwC%C!CzCjC9CnCuCyCuC!C#C%C#CvC%C9CvCuC9CyClCsCjCDCG            ",
"                 CCMCUCVCmCmCSCoCN :CHCXCECXCYCsCsCpCnCtCtCpCNCoCcC7CNCrClCrCvClCsCoC2C!C7CgCzCvCpCiCUCZCZCHCSCSCVCSCNCcCcCcCBC1CTCFCgCgC8C4CwCeC3C2C5C5C4C4C1C4CABZBuBm GB=B: K $ b P I / 2 I 8 I 7 3 r = 4 ^ & i q 7 7 k k C C C 2 / $ / lBQBl J 8 3 4 l SBN ~ M ~ 9 ]BP wBj nBQ +B-B=B,BcBrBpB]B?BsBtBYB+B1BuBwB+Bh w e }B,B_BXBrBrBfB_BdBd N NBKBCB4 N -B_B_ G - 1B_BmBr 1B0BE rBzBOBkBkBHBkB6B9BDB:B. KB=B;B*B/C6C5C2C9CwC8C2C0CwCyCgCbCzCzC!C#C5C5ChCDCFCFCyCoCyC%CoCyC8C9CuC%C%C8C!C!C%C$CvC9C9C9CyCrCfCFCjCR            ",
"                CMCUCUCZCSCmCsCoCU $CXCMCMCUCaCpCnCtCnCpCpCrClCdCwC3CNCrCvClClCoCnCvC8C!C8CzCuCuCpCiCXCZCZCCCICmCaCVCfCbChCDC5CGCUCdCeCdCxC0CeCxC2C4C5C5C4C4C3B@CB -BZB3BiBpBs k : 2 2 . D = c CBA k k k j Y |BM i P 2 / q 7 b ? ? 2BA 2 Z 4 9 F ? b qBM & s ~ V ~ e e ~ e o 5 mBU _B-B6B%B%BrBqBxB?BsB6BtBRBRB;Bu KBkBD MBPB@BfBfB_B_BrB_Bd 1BmBXBrBeBY m m n W x O sBqB}BfBdBmBZBOBM |B-BnByBtB.B%B1B]B)B]B:B#B:B;B6C#C!C!C8CeC0CyCbCdCzC7C7CwCyC#C4C5C3CcCgCdCuC9CvCrCoC%CvClC!CvCrC!C$C$C$C%CyC%C!C8C%CuCoCdCbCG            ",
"                CTCTCUCiCZCTCSCFCECHCPCUCiCmCsCpCoCrCpCpCtCrClCeCwC7CICnCuCvClCtCjClC0C3CxC0CuClCsCiCUCXCUCNCiCaCpCpCjCbCcCGCcCFCfCwCeCbCyCbCyCcC1C5C5C5C4C4C5CBCBB? G -BZB[ 0 : / b / C [ rBB 4 4 ( 3 8 % % C j k % ? 8 _ Z $ /BT _ ` 3 7 YBh x C % q [ |Bz 0 V v y d 0 ) g 6B- (BzBkB=B!B%BdBf wBgBvBpB8BRB1 }BkBy uBH VB=B$BdBZB4BJ h h h O h N 1BvB%B[BpBCBh M mBM oB$B>B_ GBE 6Bb _ByB=BsB]B,BvB7B)B~B%BnB:C6B;CKC4C#C!CeC9C8C8CzCFCbC!C!C2CzC!C3C4C5C1CdCeC8C!C9CaCsC!CoCjC!C%CvC%C%CuC%C!C%CuC!C!C%C9CgCoCbCG            ",
"                CTCTCXCPCPCPCYCFCXCPCPCqCsCjCrCrCrCrCnCtCvCbCdCzC3C4CJCNClClCrCiCsCvC0C7CzCyCvCtCqCUCUCHCTCaCiCpCtCnCdCwCwChCGCICdCcCJCzCzCeC2CxC4C5C5C5C4B,CBB@B)B3 GBZBq w . ? / ? ? ? @ 2 3 c p s H d R $ b X $ : ? lBO 7 V +BHBU + 5 E EBu 5 f [ 7 R 3 [ r = = v 0 l y ) V LBO #B5B6B8B%B[B?BXBeB.BgBpB7BRBkByB: <Bu mBH } S q J Z 7 X 7 k I D E mBCBRBRBRBnB# K ` &BfB2BcBd N 0 qB*BkBDB1B.B)BvB3B$B~BvB=B9B6BtB(C5C$C8CuC!C2C2C9CbCwCxC2C!C3C$C#C5C5CxCeC2C$C8C!CsCvC!C%CdCqCgC%CuC%CvCsC%C!C!C!C!C9C9CuCoCeCb            ",
"                B{CTCPCUCiCiCfCFCXCXCqCpCpCrCuCuCvClClCzC0CwCwC3C7C2CcCoCpCoCrCECYCvC0C7CzCwCdCaCYCXCPCPCfCfCfCsCrClCvCyCxChCcCQCzCbCoCeCbC0CxCxC5C5C5C4B,CBB@B^Bd -BEBY - 2 : % ? : : @ @ ? ? 2BG HBN d ~ s k $ / 8BA [ IBaBnBP w e T mBw FBC nB4 T b kBA R i z S E l ( dBB L V ` VBnB6B6B%B.BrB~ -BqB]BRB6BnBnB7B1B1BpB1 &BA 8 & Z ZBoBL J & 2 q 3 EBN E U 9 uBDBC o |B3B$B}BfBdBw l _B5BnB=B.B9B3B9CAB,BvB.B`B/B(B<C5C#C!C2C9C0CuCzC0C#CxCxC#C!C$B@C5C1ChCxC!C$C!C!CzC%CuC8CuCiCrClC!C!C$ClCuC!C!C%C!C%C%CyCFCeCxB@          ",
"                COCHCMCmCmCZCfCoCUCmClCrCtCvC9CyC0C0CxCxC2C7C4C7CcCeCbCNCICaCsCaCmCnC2CyCvCuCoCZCiCUCPCSCgCfCjCnClCuCwCwChCxCcCJCxCJCbCzCwC2CwCxC5C5B@B@B|B)B?BrBsBeBxBF T @ @ : b @ @ @ @ : @ $ I q T 0 MBj g [B5 } + Z . &BH mBhBx 5 yBY v c *Bh k / 7 Z k D R Y z lBl y 6 + m ~BbB:B8B6B]B) 1BfBfB4BvBpB7BYB6BtB+BgBgB8 } ,BUBU ` ` _ _ yBU S ` ` +Bk VBlBI +Bk n 6 |BsCAB$B0B_ G eBUB+BsB%B9BvBtB$CAB)BvB@B3 }B<B]C5C#C!CuC9C9CwCzC!C!C8C2C!C4CBCBChChCcC0C!C$C$C8CuC%CyCuCuCzC%CyC%C%C!C!CuC8C%C%C%C%C!CvCVCzC3B@          ",
"                 I .CZCYCZCYCfCzCfCqCrCvCuCyC0C8CxCeCdCgCbCyCcCeCjCQCQCZCaCFCfCbCNCnCzCwCoCjCnCYCUCUCiCfCoCjCrClCvCyC0CxC2C2ChC2CcCgCyCyCyCxCxC4C5B@B@B@B^B]B[BsBeBPBC n : $ 2 C T k X % % 2 8BA ; $ JBG e E oBD !BYBPBHBM # ~BQ eBQ wBP oBC 5 c P . R = < D X J c =BB mBHBh ~ 5 [BTB:B6B:BpB)BdBrB} 1BqBvB=BtBtBtBtBgB=BgB8B!B8BuB5By u KBH tBk t + } *BkBH KBQ KBIBU qBwCAB}B_Br G d `BQB<B9B9B[B%CAB2BvBvB)B1B=B(B`B@CBC#C!C9CgCwC8C#C#C#C2C$C#C5C5ChChCJCxC$C#CuCuCoCuC9C%C%C!C!C!CuC%C%C%C%C9C%C!C8CuCvCuCdC8C3B,          ",
"                 2CXCQCICsCsCgCzCaCjCvCyC2C2C7C7CdCjCfCNCgCoCgCNCYCSCZCXCVCFCNCoCFCwCeCeCNCNCNCVCXCUCqCtCpClCvCvCuC0C0C2C7C4C1C4CeCbCxC2CxC2C3C5B@B^B`B`B`B3BpBu K mBu Q ? Z zBN dBhBh o m 0 LBOBT % a 7 X 7 v nBh m )Bh t ` 3 4 oBW 5 *BC hB1 m S = 6 * ] Y X R sBQ u h 9 5 y s XBzBtB6B;B6B)BmBrB~B~ GBsB[BEBpB3B3BsB=BtB7B=BRBZBD uB5BPBYBHB# ] ~ wBP uBPBj 9 + o VBTBuCAB2B_ GB_ BBM +B`B.B?B]CBB|B2B9B.B]B5B<B&B@CBCBC$C$C0CeCuC!C#C$C7C#CBC4C5C1C4CcCFC7C#CwCfCjC9C%C%C!C9C%C%C$C%C!C!C9C$CuCuC!C$C%CyC%C8C#ChB^          ",
"                 JCZCQCoCgCoCdCeCdCzC2C2C7C7C1CGCNCNCVCYCaCaCNCfCVCSCiCECUCQCSCXCSCbCdCeCbCbCbCgCaCqCtCpCsCuCyCyC0C2C2C7C7C4C4C3CeCwCzCxC2C1C4B,B`B=B=B3B6B+BH eBB o g ? .BA j DBNBjBj ] o xBW g y [ 2 . % #BN pBN 5 ( 4 ~BI l r T s v gBuB4Bj KBwBH xB4 O T k 7 T ]Bu 5 V 6BB j XB-BtB7BtB8B9B0BrB0B}Bc WBZB?B?B%BXBmBsBgBgBgBZBeBYBHBJBwB1 n f MBVBQBJ K nBj t t ) #BaBiB$B_Br G N hBMB-B<B.B&B)CAB}B}B)B)B7BkB&B^CBCBCBCBC$C2CzCbC8C!C!C8CBC#C4C5C1C5CGCdC$C0C0C9CoC9C#C9C!C$CjCSC$CyClC$C!C$CuC9CvCvC$C8C8C0C!ChB`          ",
"                 ZCHCTCoCJCgCbCcC2C7CxCbCcCcCbCNCQCaCPCXCZCqCmCfCVCZCVCPCPCSCZCMCFCoCNCjCbCdCxC3CeCzCvCpClCyC0C8C2C2C8C4C4C4C4CcCeCwCeCwC2C1C5B`B=B6B=BYB- +BB { v 6 8 : 8Bb tBl s s ( ]BC h m B h o E R 8 7 7BA |BM lBl 5 ~ tBP T q r YBVBJ > B OBWBV T p r 4 a 7BN e F o mBN X zB;BtB6B=B7BvB>BXBcB}B2BdBFB$B2B2B$B)Bm 1BgBtBpBiBeBgB3BEB4 fBB 6 { 5 ]BBBQ t o uBIBM ZBpCABF BBZ N B 4B/B`B9B?CAB$BcB.BvBv +B/B%B)CBCBCBC$C7C8CzCJC2C7C3C$C$C$B@C4C4C1CJCyC2C0C8C!C!C%C%CyC%C%C%CgC!CzCdC$C9C%C%CzClCvC$C8CyCzC8C1B)          ",
"                CTCPCUCfCfCjCdCxCxC7CcCJCFCJCQCSCNCZCPCZCZCSCYCfCYCiCTCECUCVCSCQCFCICSCFCeCJCyCxC2CwCbCzCyC0C2C8C2C2C3C4C4C4C3CcCyCxCcCyCxC4B`B=B=B=B+ fBB 0 E r y T $ / ; 3 6 ) m e s y K < ] B hBh ] 9 s | ; X & 3Bb VBN ~BCBCBQ z C 7 a y hBC g H iBA J J ~ v 2 i 5 o eBN R RB;B;B7B6B6B:B`CAB}B~B>B>B}B_BrB_BfB>B$B2B?BqBiBgBiBgB3BpB4 9 5 + UBG d p i + 6 VBQBQBOBLB1CABm > O W WBMBkB~BvB@CAB@B~B%B`B6B5B=B,B|CBCBCBC4C1C#CeCJC7ChC3CBC5C5C5C4C5ChCDC!C2C9C8CyC%C!C9C%CyCuC!C!C8C!CbC#C9CnCzCoCyC%C!C!C0CzC0C1B^          ",
"                CCCSCSCSCfCnCgCdCcCxCDCFCNCCCTCZCSCXCUCmCaCVCiCiCXCXCMCaCoCoCoCdCVCPCVCdCoCgCeCeC1C2CeC0C0C2C2C2C3C3C7C4C5C4ChCxC0C2C2CxC4B`B:B+B;BPBl y s E E p ) J 2 |Bl s ` 0 n u K m o ~BQBC B o mBjBh L lBz 5 } 6 =BN 0Bh u d k X 8 % +BC gBQ M E s sBG cBG X k Q [ i D b +B;B5B+B6B6B6B(CACAB$B~B_B0Br GBF WBK GB0BcBfB[B]B!B3B3B4 5 0 T e l EBh & R # z 3BM & [ ZBwB$BF ! WBW ] ^B;B)B?CACAB2B)B]B)B/B6B9B@CACBCBCBB@C5C7ChCeCwCGC1C$C#C5C5C5C4C3CxC!C2CIC!C$C%C!C!C%ClC8C$C#C$C$CzCJC!C%CzCnCzC9CuC0C8C!C8CGB6          ",
"                CDCICsCNCsCfCICjCzCGCFCFCCCZCMCVCXCHCYCmCpCYCUCXCHCPCmCvCuCjCoCdCbCQCjCJCnCeCxCeChC7CxC0C2C8C8C2C3C7C4C4C5C5CcCzC0C2C2C3C4 +BlBl 6 0 s s T c c T a ; ZBBBJ 6 4 f h n 5 6 ~BQBQBhBCBC B ]BC o 9B5BPBP e o 6 g [ #Bh z l _ %BQBp ] U ( y QBBBG q k & # z [ k 2BTB:Bk }B:B8BtB=B!B,B}CACAB}BfBr 1 1BY F M > W - - -BdBqBqBsBpBsBqBqBqB3B%B&B!BpB4 !BpBtB1BYBpB} N O WBWBV SB7B?B>C&B$B@B)B%B,BnB(B)CAC(CACBB|CBCBC4C7C3ChC1C1C1C$C5C5C5C5CDCJC#C9CNC!CuCvC!C$C%CuC!C$C%C!C$C#C%C!C!C9CuCyCuCuC9CuCyC!CwCK          ",
"                B[CNCFCdCdCJCJCzCxCJCICCCVCECMCTCHCECiCiCYCiCPCHCECpClCvCrCnCrCoCJCyCxCbCuCzCxCJCbC3C7C2C2C3C3C7C4C4C5C3C5C5CxCxC2C8C2C4B/BA 3 3 [ | q a Q a a k b b 8 S K w + 0 dBQ ]BQ fBhBH + eBjBJ ]Bj h wBu m e 5 6BPBh 6 ( E }Bx nBBBC <BJBP i e 4 { j YBMBB KBPBY M l }BnB+B/B=B6B6B=B8B%BrB?B2C&B$B>BfBc 1BeB4 >BF x g O O O B >BKBF N N NBJ !BEBmBrB?B.B_ 1BrBr -BqBrBF ! h OBBB6B]B2CAB$B,B%B~B9B]B%B|C&B|CACACBCBCBC5C4C5C5C5C5C#B@B@C5C5CGCTCeC2C2CyCoCbC9C!C!C8C%C%C$C!C%C$C$C$C#C#C%C8C9CuC8C9CeCJC8CwB/          ",
"                  CFCoCbCzCyCxC2C2CFCLCZCE .CPCHCHCUCXCXCiCiCHCHCjClCrCoCrCrCpCNCfCoC2C7CxCwCbCSCeCxC5C5C3C7C7C4C4C5C7CcC4CxC2C7C8C8C2C5CR 8 % % I I b P I X X @ X `BO + KBhBQB5BQ = `BIBQBQBh < KBQBhBj h wBCBhBJBC u x w wBUBu 9 fBu m w ] E wBZ y ~ K [ T rBG S v yBJBPBD } tBkB+BsB6B6B6B6B`BvB3B[B2C&CACAB$B}B$B)BmBE H E cBV F OBW B O F O B O B nBKBFBKBK W h WBxBx >BdBcBr N o dB=B9B$CAB$B)B9B.B[B^B,CAB>BfB2B>B|B~B@B|B|B@C5B,CBB@B@B@B|C4CQCgC2CbC8C9CuC!C$C%C#C!C$C!C$C$C#C#C$C$C#C!C!C!C%CuC%CvCuCzCFCJC4          ",
"                  CRCJCQCgCxCwC7CxCICCCE $CECHCHCPCUCPCiCmCmCVCjCvCpCpCpCnCoClCoCsCgCeC0CxC2CNCSCcC1C7C5C4C3C4C4C5C4CGChC5C4C3CxC7C7CxC4B/ q % Z J : / 2 % b . @ ;BOB-BQ ] xBQ <BPBh r & vBjBC 5 KBJ K oBQBxBuBP wBDB+BjBhB5BPBHBC e 5BC h x ) wBx ~ m ) l u ~ 7 c & v h H 6 VB-BHB7B&B=B6B6B3B`B)B]B8B3CAB$B$B$B$B$B~Bm n H i k i F O O x O O O x x W >BC WBJ ! > n > B x B WBXBf 1BxBhB=BvB2CAB$B)B$B~B]B)CAB$BdB}Bm GB> 1 1BfB)BrB^B|CBCBCBCBCBC1CgC0CyCzCuCuC%C!C$C$C!C!C!C!C!C$C!C$C$C$C$C$C#C#C%C0C9CoCuC9CJCDCK          ",
"                  BuCGCNCJCwCeC3CcCCCV $ .CPCHCPCiCiCXCYCmCqCyCoCpCpCsCYCVCnCpCnCrCoCjCjCdC4CICbC2C2C1C1C4C4C4C4C5ChCeCcC4C5C4C2C4C7CxC5B; E 7 # D 7 I . % $ : b EBB 4BQBHBxBC w eBHBY t l )BP }BhBQBYBxBPBP wBuBx wB4BjBP <BP * FBP K MBi r MBg M g 6 E 5Bw E C q UBQBV k r SB#BtB;B(B8B3B&B!BvB,B[BpB6B@B$B}B}B~BfBr - w E 7 Z D a i Q iBG cBV HBW OBW 5 M O O O M F { M BBV BB0BEB3B3BgB`B$B$B2B>B$BfB,B2C&B_B_Bd !Bm 1B] 1BsB3 -BcB|B@CACBCBC5C4C7C8C0C%C!C!C!C8C#C$C8C$C!C$C$C$C$C$C$C#C$C$C#C$C$C8C9CyCbCbCJChBm          ",
"                    CICJCGChC3C7CDCVCP .CECECECPCiCPCHCYCiCpCvCrCtClCqCqCjCoCaCmCrCtCVCiCeC$C3C4C7C7C3C2C3C5C5C5CxCeCJCbC1C5C4C4C4C4C7CBCKBB 7Bb %BN l % k % @ | fB+ e lBN o 6BuBZBQ 5BxBiBC < wBY 9 5BHBYBwBu 5BJBpBQBCB4BC ] hBJ ~BxB1BZBhBw - nBx TBl < ) q j s < h D rBMBbB;B+B:B(B<B9B9B[BvB~Bi }B7B`B$B}B_BfBfBEBF o JBL 8 % ? b / % % X a c F gBW 5 ~ 0 {BV E EBV d ) C vBf NBZB]B&B)B|B0B}B$B)B)CACACABfBfBE 1 1BKB3BvBsBvBsB[B|B,B,CACBC5C!C8C%C!C8C8C$C8CJC7C8C!C$C$C$C$C#C!C%C!C$C$C%C#C#C#C#CyC9ClCFCJC6            ",
"                     >CNCFCgCxC3CFCT .CECPCMCTCXCTCTCHCXCqCrCqCvCrCtCrCrCtCrCmCjCpCtCVCCC0C0C7C$C5C5C4C4C4C5B@C7CJCQCQCzChC5B@C5C5C5C5CBBu # R v 2BG x RBT m |B5 d y ! o 5 _ l EBN }Bx fBJBhBhBh ]BuBP <Bj WBwBZBFBC w >BP <BH m < m H !Be mBpBK ~Bx n E y r EBNBY x ] a V dBUBn +B8B(B(B3B`B%B)B%BJ mB/B6B~BcB_BfB_ ! > 3 lBz . % % C a / 2 k X X k R Y s s r T c iBG i [ i E nBvBqBZB=B`B|B$BcB$B|B~B|CAC&B2B>BrBFBu ] mBeB]Be 1B9BiB]B)B9B@CBC4C4C!C0C#C#C!C$CeCICcC7C$C$C!C%C$C%C%C!C9C%C%CuC8C!C0C!C!CuCyCyChB^            ",
"                      CGCDCDCGC2CCCECECMCMCXCUCUCXCjCICUCpCqCaCoCpCrCoClCoCaCiCnCtCpCYCJCbCgC3B@C$C$B@B@C5C5C4CFCVCZCNCJCbB@CBB@C5C5C5CA x & P y X CBG QBLByBU KBPBNBuB+ < 6 < y c cBl u ] 6 [ 6 u 5 K wBJ ! WBjBw 9BhBJ x *BP nBj KBh 5B[ 6 <BE ! nB1 ~ UBwBuBQBJBC pBG 4 lBIB*BkB6B6B3BpB<B9B@BX >BhBkByBqB_B_Bd 1BZBG rBIBA 2 J & ( d J r Y Y q 2 ; ; 2 P k C D J J k k X l uB&BvB1BsBsCAB$B2CAB}B>B$CAC&B>BrBsBQ 4 fBH }B!Bp F <BtBsB?B)B~B@B^C#C$C#C$C$C$C!CwCyC!C%C9C!C9C9C%C%C%C$C%CuClC9C9C%C8C%C7C!ChCxC4              ",
"                        ChChC3CcCTCECTCTCiCZCXCUCUCaCdClCpCYCrClCrClCtClCtCXCaCrCjCpCVCoCoCbC#C$C5C5B@C4C1C4CJCVCVCVCFCSCcCBCBCBC5C5B@C&BQ a qB+ X / 2 8 bBU `Ba mBx M wBP L f tBHBU 4 S (B5 g gBYBj o ] wB4BFBCBhB5B/ t oBC K K ] n K wBsBY ! >B4Bj B o e w x F 5Bx C ( 4B-Bn +BnBnB6B!B(B&B,B) 1 n 4B-B/B1Bm G GBr > Y * 3 ;Bz #BlBI E | ^ T VBb cBa k 2 b . b % ; 2 P I 2BGBIB&B%BeBvBgB$CACAB|B}B$CAC&C&B0 GBF ] d f +B-B:BgB+ _B-B+BqB%B.B^B@C5C#C!C$C$C$C7C8C!C!ClCvC8CyCyC2C$C8C!C!C!C9C8C%C9C8C%CyC2ChChB`              ",
"                          C6C4CFCHCMCZCVCSCsCVCiCVCZCjCoCaCtClClCpClClCvClCnCoCnCpCaCUCbCuC2C$C5C5C5C4C1C3CGCSCZCVCCCICIC7B@B@B@C5C5CBCBBj & sBw % 2 7 a aBl oBB ( xBJ w KBQ ) 9B4B1BZBPBJBP } 0 lBPBZ h >BC >BxBtBP }B;B# h <BC ]BJ gBjBE WBF wBh *BxB4 wBhBP 5BM i Y n = +BnB5BkByB(B&B<B9B@ 1Bw H # 6Bn ! 1 NBd ! OBeBwBL =BkB;B5BH +BIBH K + g U T Q D C I : ? b % ? % R # +B!B%BtB3B!B,C&CACAB$CACAC&CABfBdBu h g &B-B+ }B5B=BsB:B-BEBvB?BfB)B,C5C#C#C$C2C!C$C$CuC9C!CyCzC2C8C8C2C!C!C!C8C!C!C!C8C8C2CxC2C2B^              ",
"                            BdCCCECMCZCSCaCaCqCaCaCjCpCfCfCnCnCoCoCyClCrCrCrCpCpCfCXCSC0CyC#C5C4C5C5C3C4C1CQCYCYCTCQCfCbC4C5C5C5B@CBB|B^CW l g u 2 P | q DBH S + y ~ !B4BQ nBD nBxBJ WB4BYBx mBH g E y f ]BP > BB1BpB1B/B: KBQBJBQBxB;BU oBZ ] WBu eBuBZBjB4 nBYBZ d V EBMB/ }B5 +B;B!B(B`B,B,BqBj [ VB/B= *Bm NBdBE NBvBQBoB*BHBsBy nBxB;BRB+ e ! * < f s (BO jBG zBO R Z &BM _BpB]BsB:B(B,C&C&CACACACAC&B2B0 - N FBl yB- <BYB5BYB4BpB/B5B(B[B?B9B@CBB@C#C#C2C#C$C$C%C!C%C9C9C8C7CyC8C!C!C!C#C!C!C$C#C!C7CcC2CK                ",
"                              CLCMCTCZCVCTCiCoClCdCtCfCjCaCtClCrCrCuCrCrCvCrCrCtCfCZCvCuC8C#C4C4C4C4CcCxCFCTCXCUCUCSCNC9C8C5C1C5CBCAB|C4Bl 0 0B- b a q zBL m ] dBM tBZ ]Bj n ]BQ { y s S 0 x wBQ }BP (BN wBY hB4 !BZB1BY <B1B5 tBZ wBuB6 +BJBKBP oBhBwBF WBJBZBwBYBJBjBB 6B6Bt }BkB6B=B(B9B2B? - o [ +B6B`BgBd GB_BfB_Bs 0Bl +BIBDBtB6BpB1BYBtBDBuB4 * ! * ]BjBDBP u }BY t EBz ^B1BsB]B:B=B.C&C&C&CACAC&B$B> - W h s l + `BCBRBYBZ 5 Y +BUB;B(BvB%B@CBCBB@C$C$C!C8C%C9C!C9C!CyC8C$C!C!C#C$C#C#C!C8C%C!C!C!C2C3B(                ",
"                              BVCMCZCZCZCUCnCvClCyCoCgCNCaCmCqCYCmCfCqCsCvClCoCjCfCpCuC0C#C7C4C4C2CwCbCGCVCMCUCUCZCsCzC2C2C4C1B^CBCBC4C3BQ s KBU %Bk SBa 4BQ { `Bl + w wBFBCBV g lBM j =BN KBi x hBCB1 ] KBxBC < wBZ ]BCBu wBtBY fB;BxBeBqBZBZBZBZ >BQBCBZB4Bu s g M gBIB!Bg KBnB:B6B(B(B@B>BsBE ~ z KB7B=B)B0BmB>B>B0 W m uBHBnBDBgB=BgBiBiBiBpB4BYBDBwBD }B4BwBF !BQ K nBN 4 ^ByB8B3BpB!BcC&C&C&CAC&CAB>BdBKBK oBM #B5 KBeB1BxB5BQ &BABM _B;B&B%B9CAC&CBC$C8C!C8CvClC%C!C%CzC%C!C!C!C$C$C#C#C!C8CeC2C8C7CxCK                  ",
"                               FCMCXCTCZCfCvCrCrClCrCjCfCaCmCaCsCrCjCqCpCoCuCpCmCfCzC8C#C7CxCxChCbCJChCJCTCUCiCmCaCvC2C8C2C4CxC5CBCBC1ChBMBaB7BM 3BnBU [ M < k _ V u mBjBp - h 5BHBh (B1 >BNBY 9 v g MBxBj x ! m ]BwBeBhBJBpBHB1BhBlBuBE 1 N NBZBwBw > xB4B4 mBhBiBW VBlB3B]B#B7BnB:B(B9B}BfBdBe FBMB-B;BtB)B$B~B2B2B> ]B+B!B8B[B3B=BeBZBZBeBRBDByBRBYB4BJBYBYBKBEBZB4 o d EBMBbBnBtB(B&B=B@C&C&C&CAC&B$ G W ] g r [BjB=BEBs - WBx K K |BABoBUB3B&B]B)C&CBC1CcC#C$C!C9C8C$C!C!C!C0C!C#C$C#CxC#C$C!CyC2C2C2CK                    ",
"                               NCLCMCTCVCsCtCnCvClCpCqCfCmCjCaCpCjCnCtCrCaCzCtCsCeC7C$C$C2CeCdCdCJCFC2CZCXCZCjCsCNC2C2C7CxC7ChC5CBC5ChCcB{BL e nBgBIBz yBZB4 J ` R VBR y 5BuBEBx ( ( }BZ ] 3 Q S Z q q e uBV oBeBw > hB1 !BCBYBjBgBu K -BqBFBK -BKBKBF h hB4 dBeBq sBIB;B%B<B<B(B+B=B]B)B%BqBgBx EB-B-B/BtB,CACAB$B$Br uB:B[B]BsBpB6B=BRBeBpBpByBtBnBwBpBsBgBE -BiBeBFBx s s & #BnBpB3B`B7B9CAC&C&C&CABf n > x { QBuB[BxBYBvBqBFBZBj o 6 Y &BOB;B&BXB?B9B`ChCxC#C$C$C!C!C#C$C$C8C!C!C0C!C2CxC#C!C8CwCyC3CK                      ",
"                                CkCLCTCTCSCsCnClCtCZCaCnCaCmCfCpCmCpCvCaCaCzCaCeC7C4CBCBC5C3CcCbCgC3CR .CXCICICmCyC2C8C3CeC3ChC5CBC1ChCKBL ; sB[B) ! d (Bh 4 4BO kBaBIBCBxBj ]BD v SBQ vBjBlBMBQ + _BB ^ ^ 8 JBNBH OBW 5BwBJ m KB4Bj nBe W GBE >Bx W W B BBuBW N W MB5B[B)BvB&B<B:B(B)B)BmBFBZBK 4BkB;ByB;B,B$CACAB$BEB6B]B<B&B3BgBsB[BsBEBwByB1BpB1BeBgBeBsBs -BiBJ ~ m M d p #ByBsB=B^B3BqCAC&C&C&B>BF F e E Y ~B) B OB3BrBd N xBx x E (BOBOB-B[B3B? -B(C3C4C4C$C$C#C$C#C!C!C!C#C9CJC2CeC0C8ChCwCxChCKBf                      ",
"                                BjCDCZCiCYCiCmCjCsCVCnCvCrCpCtCoCtCtClCaCaCjCsCzC4CBCACBC$C#C#C4C4C5CMCHCZCVCECFC8C2C7CxChC3C1CBCBC1CcCGBL Z nB]B1 # 6 SB+ 7BO +BT l `BQ 5BC g MBP K K 6 MBQBBBU +BUBU ^ 7 8 R i C EBF M eBe }BuBeB4 <Bq !BZ - !BKBF N - G HBWBd FBwB.B%B.B9B`B%B<B%B$B.BqB+ <Bl & +B+B/BRB)BcCACAB$BqB9B)B@B)B9BvB3B=B3B!B1B#BgB6BRBpBwB4B1BZBEBFBw f 4Bh ~ 4BOByB!BsB%B]B9CAC&C&CABd O S i b EB>Bd nBxB~BrBd G ] x x d s ^ _ +B]BDBRC6CKCKC6ChC!C$C$C$C!C!C!C!C8C8C9C!C!C8C8C8ChC7C7B`                        ",
"                                 -CFCQCmCUCUCUCSCYCVClCvCuCuCvClCtClCpCaCsCmCbC2C5CACBB@C5C5C4C4C5CD $CECMCHCVCyCyC2C3CxC1C4C5CBCBC4CGCGBL iBYB-BT 8 % ZBQ f } ! ^ ` + mBu oBHB+BU s +B; KBxB1BHBBBABL ^Bz aBhB1Bl T {BtBP KBC wBgB~BrBi NBFBd !BK N -Bi ! H ! - 0B`B)B.B)B^B%B<B)B@B2BrBpBYBj 3BTBOB-B+B%B9B&B$CAB$B$B|B2B>B~BcBfBm -BgB3B!BgBsBeBJBZBwBe *BwBeBFBeBZ n eBl L lB#BsB=B]B=B%CAC&C&B2BF EBL a tBsBr W E gB)BfBm - > dBN E T | ` +B3B1 ,B=B/ +CKCKCKC#CBC#C#C$C$C$C!C7C!C#C#C#C#C7C3C4B^                          ",
"                                  CWCFCZCXCmCiCYCUCmCvCbCyC9CuCuCvClCSCNCoCICyC#CBCBC5C5C5C5C7C7C5CT .CE .CUCbCzCyCwCwChC7C5CBCBB|C4ChB; C T 5 8BABABSBTBNBJBiBtBQ tBQBi }BuBQBQBQBaBL 3BBBPBEBwBP 6BlBlB5B- K uBJBj QBG 6 < wBhBQB1Bi ! G - NBK O !BF O j >B[ 9 nB)BcB~B)BcB9B`B@B|BfBqBRBJ ] Y ` , 6B/B@B`B3B$CAB$B|B>BXBrBdBdBdBd GBi GBsBsB3BEBZBZBwBEBDBRBFBYBD !Bx eBN , l }B!BgB(B=B[CAC&CA G ~ | ^BPB9BZ >BZ ]BNB? W hBC h mBV P kBaBzBUBtBsBO +B- _BkBHB;C6C5C#C#C$C$C!C!C!C!C#C#C#C#C4C4B)                            ",
"                                  CDCeCNCUCiCmCsCjCnCbC0C8CyCvCyC2CzCjCfCjCeC8CBC$C5C5C5C4C4C4C4ChCHCHCMCXCNCdCgCyCdCbCGC4CBCBB|B@C4C4CG 8 Q a ? :BTBb #BUB+BU | (BRBCB+Bh vBk T SB6Bz / kBwBZBZBFBiBR !BuB/ gBjBw y e p g x oBH R DBw -Bs W > N N N h T ~BgBuBuB?B)B,B,B>B}B$CACAB}BXBiBR g r 6BIB5B5BkB,B]B2C&CAB0B_BXBs - G G GBiBi GBs GBsB3Bq -BeBFBwBZBYB4B+Bx h d e UBO ^ uBsBsBsB3B]CAC&B$ x fB;BvB9BFBx -BcBZ i gBNBN { O d Q X b & `BIB7B: +BOB*B* _BOB/C6C1C#C#C!C!C!C!C#C#C#C#C#CBB,B>                              ",
"                                  CKCbCyCgCoCjCrCyClClCyC2CwCwC0C2CuCbCdCcC5C$C5C5C5C4C2CxC7C4C4CLCHCQCSCVCNCJCbCbCFCdCGC4C5CBCBB@C4C3CW 7 a R k b Q RBz yBsB;BzBBB7 3 # l & ` VBb KBYBj oBiBxBeBEBuBFBi >BuBt VBU u n >BFB4Bh q X zBeB%BrBZBZ GBE NBJ nB[B.B]B9B,B2B}B2B}B$CAB$BcBr 1BZBg } a `BB +BIB;B,B)C(C&CABfBEBF wBCBYBYBx ! !BZ NBZ N - N !BwB1B4BJBJ wBuBx x S 0 v f 6B/BpBpB=B!B%CACAB$ NB9BXBvBrBK GB.Bm ! iBT z r { H # ;BSBABM lB-BtByB-B*BOB-BkB-B/B^B^C#C#C#C#C#C#C$C$B@CBB,B,                                  ",
"                                    CJCyCyC9CwCyC8C2C0C2C2CxCxC8C8CxC0C2C5CBC5C4C3C7CyCeCbCcC3ChCMCVCeCgCNCoCcC2CJCFCJChC1ChCBCBCBC5C3CW 7 a P Q T Q s #BQ }B1B(Bv ( ;BS /BABM ( [ P xB[BYBK ! !BFBwBZ -BeBxBuB: }BH f hBC M w 3BBB; 5 !BsBiBFBEBF g xB)B~BcB}B}B$CAB$CAB$B$B}B_BXBiB1BJ xBF 4BMBOBO _B=B^CAC(C&CAB@ > 3 a r f f mBQ , < < > x uBj K K uB- m K f M f F l l s d ,B5BpB7B8B3B%CACACAB?BsBfBrBd 1B> G i a ~ q RBa [ aBLBaBABLBbBbBUB:B;BkB* ^BOB/B6B3B^B^C5C#C#C$B@CBCBCBB@B^Bf                                    ",
"                                    BuCGCcCyC8C8C7C!C#C#C#C4C4C4C4C5C4C5CBC5C4CxCwCxCdCFCICFCwCCCXCJCvCuCyCyC2CyCFCNCFC3ChC1CBCBCBC5C4CWBA Q X D p R 3 iBF !B; ~ 0B+ , & qBA 2 |BM R S p w <BwBwBCBYBF NBZBgBwBwBpBwBYBYB4 !B4 wBuBw Y z dBhBP < e 0BECAB}B2B$CACACAB$B$B2B0Bf 1 -BZ KBK > FBP KB-BU +B(B^C&C&C&CAB| * [BL Z q rBBBN 4BB 0 d EBN 0 ( d E l V V l { M U s [ #BM #B-B1B6B6B=BvCAC&CAB$B3B)B%B_B~ N O Y DBM 3 | qBa XBM _BAB{Bb V VB+B;B-B-Bb &BUB:B9B,B^B@B@CBCBCBCBB@B~B>                                        ",
"                                      CGCyCwC2C7C4C#C#C#C#C5C5C5C4C4C5CBCBC4C2CFCbCdCICjCVCQCFCMCICbCzCuC9C0CxCFCNCICFC4CxC5CBCBB|C4C4 (BL R C J Q j a 3BJBZBY z eBtB5 SBBBU 7BL _BU ^ q y )BuBx <BYBEB4BKBEBEBYBRBwBZ - N - !BZ > NBDBUBHBI ( ~ WB)CACACACAC&CAB$B}B~B_BfBrBd G W m h ]BC F EBwB:B-B/B<B@C&C&C&CAB2B?B6B/ Z b 7 j i = # c R [ TBMBa & RBM ^ YBM |BG cBG Q & _ z VBRByBRB=BvB$C&CACABXBZB?BdBJ H p E + z 2BL 8BL [B7 cBL &BMBO `B/B;B-BkB*BbBbBkB<B|B)CBCACACBCBB$B|                                            ",
"                                        CGCxCxC7C5C5C5C5C5C5C5C5ChChC4C5C5CxCzCSCTCNCjCNCZCQCSCZCJCbCdCwC2C0CeCQCICICGC7ChC5CBCAB@C3C5 ^ 7 Q j q [ 0 SBBBu 9 s m y rBM 0BVB; t RBb [ `BQ z i e <Bu { x -BFBYBZBwBZBZBYBw - -BFBFBZBiBNBUBn s 4B]CAC&CAB2B$B$B2B}B0B0B_BmBmBdBE GB4 oBC MBN h ) <B:B-B!B@B|C&C&C&CAB2B)B9B<B*BaBLBTBa Z q & % C 3 RBM j RBb | R z R 7 i i j iB-B5 ^B/ }BnB=B<B,CAC&CAB$BZBw 1 WB3 s #BJBl 2BABzBaB7 w IBz ` &Bz , +B/ByBkB* _ &BOB;B|B>B2CA                                                      ",
"                                        B0C1C7C4C5C5C5C5C5C5B@C4CRCJCJCxC2CcCbCjCVCoCgCZCVCNCVCFCgCbCdCxC0CyC2CbCFCFCcC2C3C5CBCBB^C4C5Bb J [ a D c p T MBhBO < 9 p O KBxBB 6 u 6 o z VBlBL ; D <BwBP i cBY wBuBYBeBZB3 -B4BFBE N -BYBVBiBEBKB~C&CAB$B2B~B0BcB0BfBXB_ 1BsBq NBeBK O > O hBN mBhBQB5 }B,CAB$CAC&C&CAB$B>BvB!B(BnBkBkBoBTBlBa ; 3 3 j r C 3 # J ^BbBT &BMBT & &BMBnB-B-B/BnBsB%B@CAC&CACAB$B=B[B?B?BuB-B1 { r bBL gB) aBGB*Bb & ^B* ,BkB/BUCkCkBbBbB-B`B$                                                          ",
"                                            C5C5C5C5B@C5C5C5B@C4CCCLCCCQCdCwCgCdCbCzCJCUCCCFCJCcCbCdCcC2CxCwC2CxChCGChCGC4CBCBB|B^C5C5 S R 3 C & EBG {Bh 4BMB; E > w gBh m f n } KB5 y lBT z Y w wBjBu r SBu !B4BFBeBZBs GBiBEBsBZBEBfB,B2CAB$B}BcB0B0B0BfBfBXBmBm 1Bq -BEBYBx < OBJ d o f ~ xB1 6B#CACAB2CAC&C&CAB$B>B.B]BsB(B8BpB;B(Bn R = _ _ ` z Y lBM `B- 6 ^ , _BOBb & |BQBy +ByB/B=B9B|C(C&CAB|CACBBcB3BpB!ByB1 a c [ IBi F QBe + zBoBz _B*B*BHBzBz z & ^CkB7                                                            ",
"                                                            B}C1CICFCNCCCJCbCJCdCwCwCNCQCDCGCxC2C2CxC3C7C4C2CzCcCwCxChCcC5CBCACBB,C5C4 &BT R Y _ s c FB7BBBM Y RBQBV F e h mBHBhBJBY <BH K tBxBu wBCBYBY 4 vBZB4BuBEBeBEBmBmBqBqBdB_B>B~BcBfBmBrBrB_B_BXBmBr 1BdBsBqBqBiB4BY ] x O eBWBW n r <B(BHBYC&B@B@C&CAC&CAB$B}B)B?B3BgBs -B]B[ V ,ByBkBkB5 y LB-B-Bn * <BJB+ByB# 6 ,BkB;ByB*BnByB6B%B|C(C&CAB$CAB|B$BrBZBvBn * r / Q 7BG a NBwBM |BzBbB-B# _ + `CkBbBa &CkB5                                                            ",
"                                                                CDCDCJCFCcCwCwCwC0CxCcC7C4C4C5C4C!C#C5C5C$C5C7CxCcC3CxC4CBCAC&CAB@B,B` Y R Q ( ( = c f x ^ p D ) oBl KBQ uBCBJB5BHBj uBP ! B 5 s F E ` EBl J TBFBKBFBwBK NBZ GBdBq -Bd GBE G GBqBi G G GBi - G - NBiBeBR w * w > 5 x W FBj Y `B:B/B%CAB%CAC(C&C&CAB$B}BcB?BX -Bg G 1 oBhB;B:B+B4BuBI !BnBRBpBDByBpBgBpB7B7B7B8B=BtBHB/B+B1B<B$C(C&C&CAB$B$B$B@BqB1B1BwBC %BL 5 xBEB% fBa `CkB-BtB# `B5B-BkB: + _ +B-                                                            ",
"                                                                BXCcCGCJCxC7C7C7C4C4C5B@C5C5C5C5C4C5C5C5C5C5C5C5C1C4C4C5CBC&CAB2B@B@B` z j 3 # S U E v { M Y cBQ ` l mBH m > w wBPBQBIBxBxBxBU `BN z R r 5BI 0 0 wBY !B4BxBwBEBEBeBFB4BwBZBRBZBFBFBYBwBKBw > WBKBKBFBx *BC K h O n 9 ~ g n 5BU +B#B,B|B~C&C&CAC&CAB$B}BfBrB?B&B?BXBe uBsB=Bp -B1B1ByBpB1BpBeBeB3B!B!BgBpB[B!BpBpB3 } 6B#B/B&B@C(C&C&CACAB$B}B,B)BRBJBsBwBNBIB3BsBcB3 ^ +B=B/B:B-BzBkB!B;B6B8C6C6B#B*                                                            ",
"                                                                  C4C3C3C3C4C4C5C5C5C5C5C5C5C5C5C5C5C5C5C5C5C5C5C4C4C4C5CBCA      B|B` ( i Y r s U ~ E y }BGBl m + KBxB4 ]BC wBPBJBxBPBx uBxBYBYBPB5B-B+BPBxBp H Q v xBw i H n e ) ~ { e m 9 o f M 5 ] h h x B x h h > h x ] x ] !BC e ) sBh lBUB/B,B,B$C&CACACACAB$B>B~BmBX 1B?BqBYB<B?B3 1BsBgBsBsBsBpBgBeB[B%BvBvB&BvB?BvB&B&B3Bt 6BHB-B8B@CAC&  C&CAB$B2B,B}Br wB&BgB6B%BcBdBx c eB9B`B;B; VB*B&B&B6B(B=B!B&B3Bp                                                            ",
"                                                                    B^C5C4C5C5C5C5B@B@B@B,C5C5C5B@C5C5C5B@B@C5C5C5C5C5C5B|          Br e T T s E 0 e M M f s * m uBD uBHBjBPBjBjBQBCBxBjBjBCBuBY wB1BuBUBQ hBuBxBN J J z 7 8 3 J J q C a a Q [ j i Q 3 c p v T c H d ~ M O x nBu 9BCBC oBV < #BBB(B,B9B$  C&CACACACAB}BcBXBX -BqBeBsB^B]Bp -BqB?B%BvB]B[B[B<B%B9B.B.B.B9B.B%B.B?BiB: +BUB-B6B,CA          B$B2B>B> GBrBfB3B`B?B4 ]BwB.B%BsBnB6B(B9B9B(B<B%B<B`B%B]Bf                                                            ",
"                                                                      B^C4C5C5C5C5B,B@B@B@B@B@B,C5C5B^B^C5C5C5C5C5C5C5B,            B_BC (BG { 4 e d F ] v f * KBP <BHBk }BjBHBH K < h hBjBPBP !BYB4BP ( ^ ( E ~ w KBU ^ + & X 8 R ; ; 2 P ; k 7 I 2 k k D q D 7 a T E HBW O B ]BK w o F )BQBOBkB9B9B0      C&CACAB$B2BfBfBmB3B3B%B%BvBwBwBZBsB)B,B.B9B%B%B.B9B%B.BcB.B?BcBcBfBmBgB:BkBOBHBpB~              B2B>B2B0B3B,BvBsB[B<B9B,BRBnBgBpB^B)B)B^B9B9B^B9B9B9BX                                                              ",
"                                                                          B|CBB|B2B|B|B|                      B2B|B|                  BF u T v d x x eBjB5B1BYBYB+BD * }BJBCBCBQBH u hBH u wBPBP wBPB1Bw }BD y ^BQBC }BQBh + , 3 Z & JBa [BT qBTBT 2BA q X aBG I 2 D i sBV ) O O hBQ K x < y `B=B)B?          CAC&CAB>B0B0BdBqB]B?Br ! KBpB3BcB$B>BfB)B)B)B%B%B9B.B.B?B?B.BcBrBrB`B&B(B* ,BpB>                B2B2B}BrB)BqB9B)B~B)B9B6B(B9B)B)B)B)B)BcB.B.B9B?B~                                                                ",
"                                                                                                                                       -BZBBBV H M ]BxBjBeBiBEBeBp -BRBwBJ * * K uBCBj u w wBPBPBjBPBDBJB4BZB1 uBP h n f m m u ` [ oBIBlB- +B* ` 6 + V _Bb V ^ 7 7 k 7 i r EBV F F g B x y V +B9B9B0            C&C&B2B_BfBr -BrB] w ~B7B9BcB@B, GBdB~B0B%BmB?B9B.B.BfB?B?BXBqBXB.B`B`B; +B3B>                  B$B>B~B? NB.B)BcB,BcB.B~B~B)B)B,B)B)B)BcBcB~                                                                    ",
"                                                                                                                                       GB4 m r { O h mBPBsBdBmBdBrBm -BeBYBY !BwBZ !BC u wBx wB5BP wBP w wBFBY !BuBCBh 9 < + 5B-BYBJBD 9 }BHB/Bk KBRBJ KBu u r ( y T j a [ r TBV g v E M d lB7B)B?                C&CABc GBd -BXBp #BRB,B)B~BcBEBFBrBrBdBq 1B9B.B9B.B?BrB3BqBqB?BrBqBsB3B5B1B}                      B~BrBfB.B.B.B)B.B.B)B~B>B>B>B~B>B}                                                                          ",
"                                                                                                                                         WBg U F ] e dBtBfBmBXB_BmBrBdB=BtBR *BDB4BDBeBwB4BuBJBJBJ ! }B4B4BKBKBwBwB4BH * * * u hBZBJBxBu ! !BDBRBu }B1BuB; KBHByBHBUBU ` [ j c SBN ~BN d y nB)B)B~                C&CAB$B0 - ! GBZBUB)B}BXBiBFBFB?B~ GBdB?BfBfBvBrB%BsBiBpBX 1B3BgBeBwBDBuBYB>                        B}B0B0B.B0BcB~B0BfB0B~B}B$                                                                                ",
"                                                                                                                                        Bd 1BYBQ > fBPBrBfBrBmBrBd 1BmBpBgB=B7BDB5 nBwBZBKB4BuBYBuBuBwBYBwBwBYBZBwBYBYB4BYBFBYBwBZBeBZBeBYBeB1BeBEBwBeBEBwBuBe *BkBk 6 t V R Y rBNBB o ~ `B3B,B9                      B$B$BfBeBeB%B9B,B~Be !BgB]B)B>B?B}B$B0BqBqBqBpBRB7B[B%BrB]B3BpBeBD !B1                              B2BcBfB0BfB~                                                                                          ",
"                                                                                                                                           NB=BtBZBRBt ]BhBZBq NBeBeB1BZBiBsB[BiBxBwBe ! W ! WB4BYBwBZBZBeBEBEBZBEBeBpBpBE -BEBi - -Bp -BE -BpBgBgBsBgBiB=BgBpBwBw *BHB- + r C j E ( V 4 6B.B)B>                        B2B}B>BXBcB$B}B=BwBsB)B)B,B}B}B$B$B~B?BfBcBXB?B9B)B.BfB~BcB?BvB?B[ G                                                                                                                                    ",
"                                                                                                                                             WB3B?B.B.Bs GBcBcBr 1Bg K KB1BgBdBmBtBYB1BgBwB4Bu !BxBK !BYBFBF NBZ GBdB3B[BdBmBmBXBr 1BmBmBmBrBmBm 1B[Br 1B[B[BqBsB8BeBu 6Bk 6 Z 7 c T r SB/B9B)                            B2B>B2B}B$B~ GB.B$B2B2B@B}B}B2B2B2B$B$B$B$B$B@B,B)B~B>B,B)B^B)B.Bm                                                                                                                                    ",
"                                                                                                                                               1B?BfB}B$B$B2B}B>B~B?BsBu <BwBiB[B]Bp eBQBPBYBY >Bx w > WBC > > >BxBK -Bs 1BrBrBrB?BXBXBXBfB?Bm 1BqBs 1Bd 1BXBr 1B[B(Bi }BHBIBbBABLBaBa 4B3B9B~                                B$B2B}B2B$B$B$B2B$B2B}B}B2B2B2B2B$B$B$B2B2B}B>B,B)B~B)B~B)BfB}                                                                                                                                    ",
"                                                                                                                                                BcB>B}B}B}B}B}B>B>B~B0B0BsBX 1 GBvB~B3 ^ z s ) p d K <Bh ] o ) v H ) m hBYBZBKBK N N NBZBZBZB4 ! > < *BFBi GBsBsB!BsB8B7B5 o ,BzBABT JB*B`Bv                                      CAB$B$B2B}B>B>B}B}B>B>B}B2B$B$B$B$B$B2B2B}B}B>B)B>B>B)B>                                                                                                                                      ",
"                                                                                                                                                    B2B2B}B>B>B>B>B>B~B>B>B}B>B0B~B~B}B.Bt m tBH ^Bb ( lBO z z j j Q i c l s L 9 m nBhBQBh f _ # R a [ a g }BxB1BpBtBRB7B5BlB*BOBoBO SB:B&B.                                                              B2B$B$B$B$B2B}B}B2B2B}B>B>B}                                                                                                                                          ",
"                                                                                                                                                            B$B$B2B>B}B}B>B}B}B2B2B}B}B2B$B@B)B,BvBkBkB:By K KBk n R Q qBL Z a a R # Y SBO # |Bo z ^Bl j j l 5BI !B1BYBDBk + _ _ ,BkB7B`B[                                                                                                                                                                                                                                      ",
"                                                                                                                                                                          CAB|B$B2B}B2B>B>B}B>BcB>B}B,B)B.B)BcB,B9B3Bt f m o r ^ (BaBb =Bo l +B7B[B3B]B[B1BH z ` uBJBxBk }BHB* }ByB:B<B%B~                                                                                                                                                                                                                                      ",
"                                                                                                                                                                                    CAB$B$B2B>B>B>B>B}B>B>BcBcB~BcB~B)B)B~B9B%BvB?B=B(B3BsB&B`B`BX 1BsB[B`B8B/ V 4 < KB-B-BHB;B=BtB6B9B.                                                                                                                                                                                                                                        ",
"                                                                                                                                                                                                B$B>B}B}B}B>B~B~B~B~B~B0BfB.BcBfBfB,BcB.B.B.BXBXBvBrBmB[B3BgB<BpBlBl KBkB/BpB3B(B]B%B.                                                                                                                                                                                                                                          ",
"                                                                                                                                                                                                          B}B>BcB~B~BcBcB~B~B~BcB)B~B~BcB.B0B0B0BfBfBfBXBXBfBvB?BvBpBgB3B`B]B[BrB%B.CA                                                                                                                                                                                                                                          ",
"                                                                                                                                                                                                                    B2B~B0BcB0BfB0B~BcB~B~BcB~B~B0B0B0BcBcB0BfBfB?B_B0B0B0BcB.B.B0B$                                                                                                                                                                                                                                            ",
"                                                                                                                                                                                                                                B$B2B>B~BcB>B0B0BfBfBfBfB0B0B0BfB0B0B0B~B>B}B}B~B$                                                                                                                                                                                                                                              ",
"                                                                                                                                                                                                                                                                                                                                                                                                                                                                                                                                ",
"                                                                                                                                                                                                                                                                                                                                                                                                                                                                                                                                ",
"                                                                                                                                                                                                                                                                                                                                                                                                                                                                                                                                ",
"                                                                                                                                                                                                                                                                                                                                                                                                                                                                                                                                ",
"                                                                                                                                                                                                                                                                                                                                                                                                                                                                                                                                ",
"                                                                                                                                                                                                                                                                                                                                                                                                                                                                                                                                "
};
