/* XPM */
static char * icon_xpm[] = {
"16 16 150 2",
"   c None",
" B c #69655E",
" C c #A09A94",
" D c #CEC5BB",
" E c #83796F",
" F c #66625E",
" G c #B6AFA6",
" H c #BBB5AE",
" I c #BAAEA5",
" J c #8D8279",
" K c #6B645C",
" L c #978F88",
" M c #B5ACA3",
" N c #C9C1BA",
" O c #B1A69E",
" P c #A1968E",
" Q c #998E85",
" R c #837A70",
" S c #7B746D",
" T c #92877E",
" U c #998D84",
" V c #71675F",
" W c #695F58",
" X c #756960",
" Y c #766A60",
" Z c #7D7168",
" a c #7F756E",
" b c #756B63",
" c c #7A6F67",
" d c #736A61",
" e c #4F4841",
" f c #37312A",
" g c #403A32",
" h c #6A5F55",
" i c #3D3630",
" j c #88757C",
" k c #B88DA0",
" l c #837071",
" m c #787168",
" n c #7B7169",
" o c #746961",
" p c #756C64",
" q c #766C63",
" r c #554E47",
" s c #7C7065",
" t c #342D27",
" u c #4F3A46",
" v c #C089A4",
" w c #925A78",
" x c #745B62",
" y c #706960",
" z c #7E746D",
" 0 c #786E66",
" 1 c #766B61",
" 2 c #453F37",
" 3 c #7A6E63",
" 4 c #39322C",
" 5 c #9C6685",
" 6 c #76465E",
" 7 c #6B5156",
" 8 c #706860",
" 9 c #877D75",
" ! c #82776F",
" # c #7E746A",
" $ c #433D36",
" % c #6F635A",
" & c #3F3731",
" ( c #B88EA0",
" ) c #875B6E",
" * c #60454C",
" + c #736A62",
" , c #726861",
" - c #6A6159",
" . c #847971",
" / c #80756C",
" : c #48413B",
" ; c #625950",
" < c #463C37",
" = c #AF8B9A",
" > c #A17689",
" ? c #AF8497",
" @ c #785865",
" [ c #786E67",
" ] c #8A817A",
" ^ c #7E756E",
" _ c #7B7069",
" ` c #6B5F56",
" { c #47413A",
" | c #625A51",
" } c #604E4A",
" ~ c #664751",
"BA c #7E5A69",
"BB c #664C5A",
"BC c #9E6E87",
"BD c #8B5D75",
"BE c #9E778A",
"BF c #5E394C",
"BG c #867B76",
"BH c #B6ABA2",
"BI c #9E948D",
"BJ c #6A6058",
"BK c #554A42",
"BL c #49433C",
"BM c #615A50",
"BN c #5E4645",
"BO c #653F4D",
"BP c #7B4456",
"BQ c #482930",
"BR c #A87B92",
"BS c #895B73",
"BT c #5E364B",
"BU c #6F5A5D",
"BV c #8B837A",
"BW c #7C726B",
"BX c #887E77",
"BY c #6D6159",
"BZ c #48423B",
"Ba c #7F776F",
"Bb c #59534C",
"Bc c #362A28",
"Bd c #4A2733",
"Be c #642E3D",
"Bf c #492930",
"Bg c #845B70",
"Bh c #7E4E67",
"Bi c #6C4859",
"Bj c #857773",
"Bk c #7F736B",
"Bl c #675D57",
"Bm c #574F49",
"Bn c #514941",
"Bo c #524A43",
"Bp c #60574F",
"Bq c #59544D",
"Br c #776460",
"Bs c #47222B",
"Bt c #322029",
"Bu c #2B1B23",
"Bv c #5A534E",
"Bw c #6F645D",
"Bx c #70665F",
"By c #6E655D",
"Bz c #69615B",
"B0 c #2B2621",
"B1 c #534B44",
"B2 c #423A35",
"B3 c #322D2B",
"B4 c #4E4540",
"B5 c #2D2A26",
"B6 c #3E3934",
"             B                  ",
"           C D E                ",
"         F G H I J K            ",
"         L M N O P Q R          ",
"         S T U V W X Y Z        ",
"         a b c d e f g h i      ",
"     j k l m n o p q r s t      ",
"   u v w x y z b 0 1 2 3 4      ",
"     5 6 7 8 9 b ! # $ % &      ",
"     ( ) * + , - . / : ; <      ",
"   = > ? @ [ ] ^ _ ` { | } ~BA  ",
"BBBCBDBEBFBGBHBIBJBKBLBMBNBOBPBQ",
"  BRBSBTBUBVBWBXBYBZBaBbBcBdBeBf",
"  BgBhBiBjBkBlBmBnBo nBpBqBrBs  ",
"    BtBuBvBwBxByBzB0B1B2B3B4    ",
"            B5B6                "
};
