/* XPM */
static char * icon_xpm[] = {
"128 128 246 2",
"   c None",
" B c #6E6861",
" C c #A79E96",
" D c #786F67",
" E c #4E4841",
" F c #BDB3AB",
" G c #AEA39B",
" H c #A1968E",
" I c #877D75",
" J c #81786F",
" K c #5E5750",
" L c #ADA198",
" M c #C4BBB3",
" N c #B5ABA3",
" O c #8A8179",
" P c #7F756D",
" Q c #7B7068",
" R c #635D57",
" S c #988F87",
" T c #978D84",
" U c #BAB0A7",
" V c #9A8D84",
" W c #827971",
" X c #7D756E",
" Y c #81766E",
" Z c #4C463F",
" a c #827B73",
" b c #A39A92",
" c c #A99E95",
" d c #D5C5C1",
" e c #8A8078",
" f c #6D645C",
" g c #716961",
" h c #6E665E",
" i c #524D47",
" j c #948C84",
" k c #BFB6AE",
" l c #E2DAD1",
" m c #A2978F",
" n c #8F877F",
" o c #7C736B",
" p c #72665D",
" q c #887B71",
" r c #857B71",
" s c #897F77",
" t c #9F948C",
" u c #CCC3BA",
" v c #D5CAC3",
" w c #EDE6DE",
" x c #938981",
" y c #70665E",
" z c #776B63",
" 0 c #756B63",
" 1 c #766960",
" 2 c #736960",
" 3 c #857E76",
" 4 c #9C938B",
" 5 c #B4A89F",
" 6 c #D7CFC7",
" 7 c #80746C",
" 8 c #6D6359",
" 9 c #655D55",
" ! c #CDBDB9",
" # c #928880",
" $ c #8E847A",
" % c #8B837B",
" & c #73685F",
" ( c #756C64",
" ) c #AFA79F",
" * c #C4B6AE",
" + c #9B9188",
" , c #897E75",
" - c #7C7169",
" . c #7B6F65",
" / c #7D736B",
" : c #756E66",
" ; c #59534C",
" < c #B9ACA3",
" = c #8F847C",
" > c #71675F",
" ? c #685F56",
" @ c #302C28",
" [ c #DDD3CB",
" ] c #9B9087",
" ^ c #A1948B",
" _ c #686059",
" ` c #79726B",
" { c #857B74",
" | c #554D46",
" } c #524B44",
" ~ c #38342E",
"BA c #574E46",
"BB c #575049",
"BC c #615952",
"BD c #675D56",
"BE c #A89C93",
"BF c #6A6059",
"BG c #635B54",
"BH c #6D655E",
"BI c #94877E",
"BJ c #81776F",
"BK c #463C35",
"BL c #8E8178",
"BM c #46423C",
"BN c #978A80",
"BO c #3F3933",
"BP c #5C534C",
"BQ c #6A625B",
"BR c #AD9F95",
"BS c #85786F",
"BT c #736A63",
"BU c #91847B",
"BV c #776D65",
"BW c #5D544C",
"BX c #635A52",
"BY c #423D36",
"BZ c #726B64",
"Ba c #9F9088",
"Bb c #524A43",
"Bc c #A79891",
"Bd c #877C75",
"Be c #5D504B",
"Bf c #6D635C",
"Bg c #7B6C62",
"Bh c #61554C",
"Bi c #3C332C",
"Bj c #50473F",
"Bk c #62564D",
"Bl c #433930",
"Bm c #464039",
"Bn c #6D6056",
"Bo c #473F37",
"Bp c #433F38",
"Bq c #695C53",
"Br c #71635A",
"Bs c #5D4F46",
"Bt c #60534B",
"Bu c #564B43",
"Bv c #5B4C47",
"Bw c #4F443D",
"Bx c #7F726A",
"By c #36312A",
"Bz c #595048",
"B0 c #695D55",
"B1 c #51463F",
"B2 c #534941",
"B3 c #4C433B",
"B4 c #4B4037",
"B5 c #B5A4A0",
"B6 c #3F342E",
"B7 c #2A211F",
"B8 c #2E2A24",
"B9 c #342C28",
"B! c #2C2822",
"B# c #3B3630",
"B$ c #423A33",
"B% c #3F372F",
"B& c #3A312A",
"B( c #453A34",
"B) c #4B443D",
"B* c #22201C",
"B+ c #4B413A",
"B, c #272420",
"B- c #4A3D38",
"B. c #625751",
"B/ c #76665F",
"B: c #1B1916",
"B; c #1E1D1A",
"B< c #2F2B27",
"B= c #312E29",
"B> c #34312B",
"B? c #3C3933",
"B@ c #C4ACB0",
"B[ c #B698A3",
"B] c #774F61",
"B^ c #AE8F9C",
"B_ c #846172",
"B` c #533E40",
"B{ c #2B251F",
"B| c #C199AA",
"B} c #9B6D83",
"B~ c #735A5E",
"CA c #877271",
"CB c #665A52",
"CC c #D0B5BD",
"CD c #AE8799",
"CE c #9A7687",
"CF c #A3778C",
"CG c #82676D",
"CH c #C39FAE",
"CI c #A98093",
"CJ c #936D7F",
"CK c #815A6C",
"CL c #665751",
"CM c #6C615A",
"CN c #72485B",
"CO c #6C4F5A",
"CP c #9C8187",
"CQ c #977283",
"CR c #BA90A3",
"CS c #91667A",
"CT c #584644",
"CU c #C6A4B2",
"CV c #B08197",
"CW c #AB7991",
"CX c #7E5067",
"CY c #895670",
"CZ c #895B72",
"Ca c #91607A",
"Cb c #B78A9E",
"Cc c #A36F89",
"Cd c #96657E",
"Ce c #925D79",
"Cf c #86516B",
"Cg c #6B4355",
"Ch c #9B6681",
"Ci c #683B4D",
"Cj c #60394A",
"Ck c #613E4C",
"Cl c #81556B",
"Cm c #5A3544",
"Cn c #905877",
"Co c #703C50",
"Cp c #76445A",
"Cq c #443532",
"Cr c #804A65",
"Cs c #593142",
"Ct c #392D2B",
"Cu c #462A35",
"Cv c #50323D",
"Cw c #512C3A",
"Cx c #3D242D",
"Cy c #613446",
"Cz c #7B6E69",
"C0 c #582C3D",
"C1 c #3B1B27",
"C2 c #502432",
"C3 c #4C1E2A",
"C4 c #693445",
"C5 c #1B1113",
"C6 c #602C3B",
"C7 c #26181C",
"C8 c #100F0D",
"C9 c #171514",
"C! c #0A0A09",
"C# c #060606",
"                                                                                                                                                                                                                                                                ",
"                                                                                                                                                                                                                                                                ",
"                                                                                               B C D E                                                                                                                                                          ",
"                                                                                               F G H I J K                                                                                                                                                      ",
"                                                                                             L C M N O P Q D R                                                                                                                                                  ",
"                                                                                           S T G U N V W X P P Y Z                                                                                                                                              ",
"                                                                                         a b L M c M d c e P f g P h i                                                                                                                                          ",
"                                                                                         c j M k k l l F m n o g f p q r Q E                                                                                                                                    ",
"                                                                                       L s t u v u w v v F H x I o Q y z 0 1 2                                                                                                                                  ",
"                                                                                     3 b 4 5 M M 6 6 M u u L S x D r W 7 P 8 9 0 Z                                                                                                                              ",
"                                                                                     G b F G N U l v M L ! u H # O e $ % q & h ( a i                                                                                                                            ",
"                                                                                   C n G t ) ) k M M G * l w M + 4 # # , - . / r : / ;                                                                                                                          ",
"                                                                                 x 4 n t n U M u k c H F u l v < < N n $ V = n J X > Q ? @                                                                                                                      ",
"                                                                               K G M u M U d l [ v ! 4 4 6 d [ U G H # ] ^ s _ ` s { D ; 9                                                                                                                      ",
"                                                                               S k M v M F 6 v u u 6 3 ) l l l v c , P I P | } P P : E ~BABB                                                                                                                    ",
"                                                                             X L 5 G F F v u u < ! = X 6 [ l [ l * ^ ] + PBC P PBD ?BBBC 8 f f f B K                                                                                                            ",
"                                                                             L c = C k l 6 d U < G K C l 6 6 [ [ [BE 5 5 b O $ { f QBF T = / _BG 2 D / (                                                                                                        ",
"                                                                           % C S b u l v U N N M cBH k l 6 v u [ v ^BI H ] x $ WBJ _BK JBEBL $ D h h h J QBM                                                                                                    ",
"                                                                         i + 4 4 u w l + N k U C Q 3 6 v [ 6 u [ [ UBN H m # J r &BOBP 9 r + $ I { f > ( / JBB                                                                                                  ",
"                                                                         S x j N u w v L ) k ) jBQ N l M 6 u v w l ! <BR L t ,BS & 8 Q ( ( $ H $ D D 0 Q W J Y }                                                                                                ",
"                                                                       B 4 t ) ) U l [ F G x {BT _ M k M u u l w l U k U <BEBLBUBR e W s o P { n sBV ( ( eBN $ 7 Z                                                                                              ",
"                                                                       G b N U C u w l ) =BWBXBY n k F u u 6 w w u < 5 5 M ] q V L ^ $BJ r D D { m S e $ h WBIBL r ;                                                                                            ",
"                                                                     # G c U u k d d G % ` KBMBZ C k k M v [ w w M 5 < U M < ^ GBa L ^ e e n e QBJ 2 xBL # o I J 2 I ;                                                                                          ",
"                                                                     k t U 6 [ u u M G c s B j b ) N ) N M 6 w w v * N U * u F d G L UBEBI T ] # PBbBA DBL e # /BXBT n Z                                                                                        ",
"                                                                     k 5 M 6 d 6 l l v TBPBZ b M U U C N M l w l k m G U U u ! l u ! ! *BRBaBa # xBHBQ ( = ]BNBI o 0 D , }                                                                                      ",
"                                                                   a ! k < u k u d 6 F : K O ) u F F G C N w 6 M M 5 5 5 N d L ! * M d d d 5 ^BI e (BH X { e # n J D rBVBS i                                                                                    ",
"                                                                   t F b m G + m 5 * F s % # T m b F b b v w ! u u U 5 G ) v U uBN t 5 ! d * GBRBU h W J - Y gBD h > > > QBTBG                                                                                  ",
"                                                                   ] U b N ) # % < < M m G 5 t S / b C v w w u 6 ! N N G M w LBcBJ $ H ! M v * M J } B o D P o % G ) +Bd WBJ . 2                                                                                ",
"                                                                   + N U M U + J 5 * [ k M 6 N b 3 F [ l w w F u U < C C u l $BU & oBN H * * * * X 9 {BJ X { / P =BEBE = a s rBV r E                                                                            ",
"                                                                   4 N N M M = : L M U [ d [ d ) U l l l w w N * UBE t U < u eBd Q {BL m U ^BUBI % e # # s =BN I W IBL 4 T P r / 2 JBH                                                                          ",
"                                                                   4BE t 5 *BE D 4 C L k k v k c ! d 6 l w [Bc c 5 m C C L c & Q 2 , e VBE e ` P TBa ] 4 x ]BU , W W r $ SBL 0BT P g I %                                                                        ",
"                                                                   S c x s + S 3 U HBLBE u l k U 6 d l w d k G L ! ) T P T 7Be hBf WBgBLBN D Q o x < F L ]BU = # # = ] ] $ $ PBV ( % J $ j                                                                      ",
"                                                                   e c 4 T t = a b L P ! w w ! [ l 6 l l d l CBE < #BVBF c pBeBhBDBV DBd tBJ s W # G * < GBa ] + T T 4 4 mBU q ,BI O s - rBd                                                                    ",
"                                                                   / x t 4 b { ` j 4 P L 6 U t cBN ] < [ l < I $BJ fBh h ]BgBiBjBk K hBT { e D ( e LBR ^ 5BR G t x # x O ,BN ] x H ^BL J Y / P                                                                  ",
"                                                                   - S C m 4 o : # S JBEBEBa m #BEBE m ! U j { I D (BQ Q + pBlBmBh 8 h D 4 = % oBL 5BaBU VBa 5 F LBEBE $BL ] L b C +BI e q = O X                                                                ",
"                                                                   X # 4 G ^ J : 4 4 eBR m HBIBaBcBaBU ^BE + { W / I y JBLBnBoBpBlBq 2BV bBd ( (BaBNBgBrBgBgBSBLBLBIBaBE L 5 U * 5 GBR V ] H # $ _                                                              ",
"                                                                   X P G m 4 9 B S t nBcBsBtBuBvBvBwBuBxBcBN O ` = Y ?BT nBUBw ~ByBzB0 DBI yBH > 7BuB1B2B1BwB3BKB4B2BtBrBgBxBSBLBgBgBSBN VBRBaBI qBm                                                            ",
"                                                                   I o t x s B ` 4 G TB5B6B7B8B8B9B8B9 ] M x Y P = z D a S ,B4B!B#B$BkBI G 0BH PBnBKB4B4BKBlBlB%BlBlBlB&BiBiB6BiB&B&BiBlB4B2BuBe Q o                                                            ",
"                                                                   aBT ] ^BI 3 ` H G SBcBKB!B(BjBzB)B$ V L Y a = e W D X tBxB3B*BMBOBoBXBI z QBIBkB%BoBoBjBoB+B%B&BiB&BlB%BlB(BlB(BlBlB+ |BzBQBD rBI K                                                          ",
"                                                                   X > V + ^ e X e 4 jBNB3B( KBQ B 9 |BI < S { 3 $ QBT o r qB1B, }BBBMBYBCB0B0 &BuBjB+B+BKBlBKB4B3BoBKB4B3B4B-B3BoBoBo K s GBE qBaBL Y                                                          ",
"                                                                   W g ^ ] S s 3 e n xBEB1BKB. o f 9BbBN < H ` IBUBxBQ gBLBNBlB8 E RBG }B)B&B7B*B*B,B!B,B*B!B8B!B6B%B9B8B!B8B8B8B8B8B! Z )BE .BxBI z .Bj                                                        ",
"                                                                   XBQ m ^ x n D eBN S LB1Bo 8 r oBDBzBI 5 = J # , zBD ` rB/BlB!BMBbBHBC WB+B:B,B;B*B*B!B<B=B!B8B#B# ~B#BO ~BKB+B+BYB%B> e ^ 1 &BLBnBqBA                                                        ",
"                                                                   : D m c ] xBH { ] = mB2B%Bk J Q fBDBI 5 # P ,Bd 1 gBZ # ^BuB,BM ZBC B bBWB7B&B&B#B)B3 ZB)BjB2BA |BuBABzB2BwBsBuB2B3 ~BZ 5B/ 8BUBnBsBW                                                        ",
"                                                         R         DBZ + HBaBUBf { O = ^BvBlBP / I >BQBU < % {BL p QBH `BNBLB8B= ZBA 9BH SBWB!B%B%B$B+BKBlBKBmBoB1BjB2B+BK |BKBKB2BjBjB?BQBRBqBP 7BqBuBe                                                        ",
"                                                     iB@B[B]BO     {BH I b $ 2 : { T jBRBhBlBzBV Q (BT qBN x WBn OBq KBH rBrB& ~ ZBh ? 9 TBtB!B#B$B% ~ ~B$BYBYB$BwBjBjBA EBb E }B2BuBuB#BZBEBhB4 pBqBABk                                                        ",
"                                                   K G !B^B_B_B`   %BnBV H #BJ ` = x 4 FB.B3BW ? g hBHBLBE HBX { /BF ( DBVBcBuByBzBW KBC jBAB{ByBYBpBYBYBmB+B+BjBbB2 |Bj } Z |BPBjBuB2B# :BcBuBm 8BqBsBh                                                        ",
"                                                 #B[B5 lB|B}B_B~CABJ yBT I r = : # j 4 cBsBoBuBF hBQBQ r GBJ o I -BJBXBP { VB2B# }BhBTBP TBuB7B>B#B#B#BYBmBoBo ZBABjB2BjBbBj |BuB2BzBwByBTBUBwB$BXBkBtCB                                                        ",
"                                               mB@B5B@CCCDCECFCFCG zBV D o $ s a j j + ^BtB%B2Bf g BBF V $ a W r {BVBPBH sBNBvByBw ?BHBGBUB2B{B8B= ~B>By ~B%B$B+B1BuBjBmBj E EB)BjBmBOB> hBNBwBm fBnB2 .                                                        ",
"                                            Bd M MB[CHCICECJCECECKCLCMBX P J j n j % #BRBuB6Bu 9 :BH :BLBU s / $ P ( 9BQ n UBsB9Bz y : X cB$B{B=B= ~B>B>B=B8B8BYBjB2 | iBM ~BpBM iBMBpBY XBaB4 ZBCBnB4 1                                                        ",
"                                        BTB^B^ MB@B[B^B[CDCICFCKCNCOBfBX , T C j x n n ^BwBlB2B. (BT : I , = Y sBf 8 _BH eBcBkB{B!B{ ~B> 4 oBY ;BC }BB _ _ DBfB%B3B2 ZB> R n a a rBL $ b MBIB1BmBWCBB3Bn ~                                                      ",
"                                      CPB^CQB^B@B@B@CDB^B[CRCFCSCKCOBeBk I m C % 3 : j mBtB%BzBD _BZ h m r sBd 0BG 2 _BQ n ^BhB8B>BM iBO T d G 5BcBc GBRBc < qB8B(BKB?B= Z u 6 <BR GBN 5BEBSBhB$CMBhBwB0 ~                                                      ",
"                                    B5CCCJCQCIB@ dCHCICFCDCDCECJCKCOCTCB J b C H O O % 5BtB$BzBC _ _ _BEBN e , , y -BXBC OBaBsBY _BHBQ i j V q Y rBN ^BS .BSB2B<B$BoBzB?BmBr 1BVBnBXBhB0Br 1BsBmB0BsB3B0B%                                                      ",
"                                  B5 dB^CQCQB| dCCCUCCB|CVCWCXCKCKCSCACM D + m # a % j *BtBiBjB.BQBZBH L rBd $ Q & .B.BQ = ^BnBlCB fBCBB xBS . W W n ] n Y 7BsB{BOB1BA ~BOBWBV 2 0 > f ? y .BkB) &BhB4B0B9                                                      ",
"                                B^B@B^CJCJCH dCHCDCICHCCCRCYB]CZCFCJB~BeCBBn O H 3 n j 5BtBiB4B.BH D B L s DBx & z 2BJ X n ^BhB%BX f ?BC T x , e r T *BE IBUBkB*B?BjB2B>B?BB & 8 ? r h fBVBxBqBo .BkB4BnB9                                                      ",
"                              B[B[CFCJCEB[ [CUCWCWCFCFCDCRCaCZCFCbCECKCOBP f + ) S 3 a LBsB&Bo ?BQ `BZ b Y -BJ 0 D - J - IBcBrB# K _ 9 R SBE n r ,BR *BN JBLBkB{B?B+B$B?B= K 0 9 >BVCM 0 ,BSBqB3BPBtB4BnB%                                                      ",
"                            B@CHB[CICbCDCC dCRCWCbCVCVCbCcCdCeCRB}CZCKB~BPBf 4 b C X aBRBsB%B2BC f :BGBE JBJBSBS - Q & o % < zBO KBX f K 4 t r WBU *BR - 7BNBnB{B#BKBo ~B8 K 2 8BQBQBQ o 0 7 1B3CBBqBl 1Bo                                                      ",
"                          B^B^B[B[B^CVCbB[CUCRCUCRCWCcCcB}CaCSCcCfCgCgCgBeBG % 4 SBQ O 5BkB%B3Bf oBZ R H W PBJ 7 yB.BV gBJ ]BrBo 9 YBCBC SBSBJBd t u q (BxBICLB{ ~B(B%BY @ 9 . ?BABX hBX YBIBnBj pCLBl .B%                                                      ",
"                        BQB^CPCDB[CICICICICbCRCUCbCYCeChCcCcCdCJCgCiCjCkB- _ T j % ;BZBRBqB&B+ &CM f B bBU PBS r 7Bg h &BZBE pB$B0BVBP K oBIBgBx 5 < / 0BVBLBtB, ~B%B6BYB= h /BP | 9CB > ,BUBgBj fBuBl 8By                                                      ",
"                         %CECQCICDCFB}CWCbCbB|CUCVCfCeCYCdChCYCdClCiCjCmBe g k n 3 R XBRBnB9BbBDBG a `Ba V W Q J IBg ( DBZBcBnB%BzBXBGBB DBU . r ^ ^ o 0 0BUBtB*BiB%B%B#B> ;BV 0BW 2 f y YBxBgBzBhBzBlBtBi                                                      ",
"                        B^CQCdCFCbCICECFCVCWB|B|CWChCeCnCfCfCoCSB}CiCNCgB`BG m P ` B 3BRCLB9BwBhBT 3 : mBN Q ( r ,BV f ` 3 +BrB9 |BXBQ ; oBL Q J sBNBV 2 0BLBhB7ByBiB% ~B=B) D 9BX -BWBF -B/BrBk 8BnB(BuB%                                                      ",
"                        CICdCnChCWCIB}CdCWCcCcCVChChChCnCfCpCgCYCYCiCNCmCqBP S P O R n LBkB&B- } D `BQ G ^ W ( =BS 0 B oBZBUBgB&B2BD ( ; ( q / Q Y q p 0BVBLCLB{B=BiB$B#B? Z -BC J QBFB. -BSBrB3 ?BvB3B2BK                                                      ",
"                      CTB}ChCnCeChCcCdCFCcCcCVCFCcCnChCYCYCrCgCXCYCjCmCjCqBT 4 = W ; % VCBBiB( &BZ BBZ cBa PBd x q 8BQ B W ] .BiB2BFBfBC (BUBV /BU e &Bn 1 qCLB{B>B&BlB?BpBG I fBn 2BXBX 0BS 7BtBzBAB2BvB2                                                      ",
"                      BeCaChCnCYCfCnCnCcCWCWCRCbChCnCeCnChChCfCdCZCiCgCsCt T x % o R 3BcBqB&Bl 8 o W : b H D P mBU z 9BV 3BI 1B%BzB. f 9 /BLBV JBI +BxBn & qBtB,ByBiBiB?B>B) /BF 1 ? yBP 0 q 1B.BXBtBuB2Bu                                                      ",
"                      B`CZCaCeCYCfCeCnCnCdCWCVCVChCeCYCnCcCcCZCYCYB]CgCuB` x , 3 D _BJ mBkB&BlBuBT h R b ^ Q Q VBU pBG h O H zBiBABV QBC P ,BxBxBN G 1Bq 1 qBqB*ByB&B%BMB>BY QB.BW &BkBW 0BxBrB1CBBzB1B1Bv                                                      ",
"                        CZCfCaCnCYCnCcCrCeCVCWCWCcCYCnChCfCpCNB]B]CpCvCuB- r W a Q R XBECLB6BiBzBQ OBZ b ^ D P sBS f _ h s ] pB&B2BF Q _ 3BL Q 1 ^ ^ 8BqBVBI pB7B>B&B$BpB?BY $CBBhBNBzBXBhBrBrBu zBhB1B4CB                                                      ",
"                        B_CrCaCdCnCrB}CnB}CWCcCRCWCnCnCcCrCgCmCiCaCpCmCmB- q e B : R ` <CLB6Bi ? D n 3 bBa XBJ r qBn _ g a # pB&B3 ? &BH s q 7 fBN $CB 8 PBLBrB,B= ~B$B?B#B? { pBWBXBu ?BzBSBgBt QBqBtB3Bk                                                      ",
"                        CKCXCeChCeCfCdB}CrCnCFCbCcCrCrCdCrCNCgCgCZCjCjCsCq p , O X ; a UBnB6B3 ? ` XBZ C m J P bBa pBDBQ % tB/B&BA 8 fBC a , D I 5 qB. > PBI pB,B>BiBiB?B>BpBX yBCBzBu f |Bq .Bq ,BSBqB+Bs @                                                    ",
"                        COClCaCFCdCeCnChCrCdCbCRCVCoCpChCZCmCsCgCXCiCkCwCx 1 j `BZ K ` ^BnBiB3CB g 3BG t G O o H ^ Q _ B WBaBgB6BW f 2 R D Y 0 < [ m eB0 QBU pB{ByBiB%B? ~ ~ R ? 9 9BzBC ?BS ,Bh 7BSBtB-BsBy                                                    ",
"                        B)CZCZCdCYCnCYCaCZCrCnCbCRCpCpCgCNCjCmCiCZCYCmCwCx YBI O X i ` UBnBiB3BV { (BQ x 5 Q ` sBN -BCBQ X e &B%BW 2 0 B X z T [ u 5BI r - , 8B,ByBlBlBYB#B> K hBXBVBbBWBk - .BwBrBSBkB4BuBY                                                    ",
"                          CZClCaCXCrCXCZCJCYCnCVChCiCoCrCpCiCNB]CFCSCsCwB6BS $Bd O ; ` GBrB&Bb 2 r oBZ bBc P X I V Q _BH 3 VBnB6Bz 2 2BZBJBN M [BR mBLBIBIBLBrB{ByB%B%BM ~Bp s DBCBABbBPBjBABhBoB. 7BsB-B1BM                                                    ",
"                          CKCXCaClCrB]CXCXCZCnCdCeCoCoCrCpCyCyCsB]CXCyCwCq p x /BV K D 5B/B%BzBQBT a R CBE I o $ eBg ? : 3BI YB%BA & &BQ P u l L ^ eBU W $BEBgB,By ~BOBpB# ~BQ rBGBC ? |BYBqBtBmBeBgBwBKB2B&                                                    ",
"                          CKCXCZCaCXCZCIB_B_CSCYCfCrCoCpCpCyCmCmB]CpCmCvCwBrBJ DBQ E ` U 1BKBWBP X XBC )BcBx D =BLBSBV { OBI 7B%BzCM y g P [ !Bc V V V JBNBN 1B,ByB%BOBpBp ~ i 7 9BWB0B2By pBs |BFBxBsBKB2By                                                    ",
"                          CKCXCYCaCZCRCUCCCICJCrCpCrCrCrCoCyCsCmCNCpCmCvCwCL JBJ {B)Cz LBrB-BP fBVBZ K HBRBN W S ] QCM ` O x QBlBWBFBQBQ P < ] mBU HBU r ,BaBqB7 ~BlB$BOB)By EBx 8BGBhBu @BuBsBA &BgBwB4BtB>                                                    ",
"                          CKB]CXCYCWCH d [B[CPClB]CiCrCpCjCsCwCkB]CgCmCvCuCT z Q : ; QB5CLBo ;BD o OBH L cBL s H 4BL f a # e qBKBt &BQ gBJBN W , $ 4 +BS 7 VBnB*B#BlBlB#BO E / Y . KBk }BYBoBhBwBqBgBKB-Bu                                                      ",
"                          CGClCXCICDB| [CCB@CDCKCiCjCgCKCQCmCmB]CoCiCkCwCxB`Bf D gBH PBRCLB+BBBF X XBZ 5 m -BT s ,BL 1BJ n -BSBKBt 2 h : WBN I / = U ^ q -BNBrB, ~B%BKB? ~B< {BRBSBxBr fB)B)B.B1BkBgBlBKBw                                                      ",
"                           `CKCQB|CDCU dCCB|CIB}CgCjCKCIB[CXCkCNCsCyC0CvCuB` ? W ` R DBEBnBj KBq g :BQBXB1B+B(BKB$B$B8BY 3 r 1BlBeCB _BT W V = O t 5 , JBVBI 1B{ ~B%BoBOBYBY E e .BuBwBABYB)BwBsBkBrBiB1B2           @BvB)                                      ",
"                           OB_B[B[CICUCUCbB}CcCDCJCJCI [CHCICgCNCiCwCyCyCsCvCB D > `BZ <BgBj 9 ? D - XBBB$ByB9B9B<B9B8B9 n rCMBKBe 8 _ o { qBI H ! ^ 1 P ,BNBxB{B?BlB$BOBYBM EBNBS ?BABpBMBGBjBiBzBkB&B4B+    B>B.BeCOCACGBe                                    ",
"                          B[B[B[B^CFCCCbCcChCbCRB^CICCCCCVCFB_CmCsCvCsCiC0CvBeBVBD _ ` * 1B1 ?CMBf D W `BG ; ;BC 9BCBA ~ H % 0B4B. yCMBH XBU $BEB5Bg 8 0 PBN 1B{B#BOB+BmBOB?BmBdBU pBQBXBp RBWBKBqBwBlB1B$    B/ zCOCOCGB~B~                                    ",
"                        B@B@CH dB|CICbCcCrCcB|CUCIB^CUCWCaB}B}CmCuCmCkCkCvC1B3BTBf R X 5BqBzBFBF h ( X /Cz Q I Y P .BWBM OBJBVB4 ? 8 > B X 0Bf tBLBr z / W ^ pB* ~B$B3B$BOBOB? KBxCBBjBYBM RBf 7BqBlBwB+B3   RBeB~B~COCACKCLCq                                  ",
"                     R ! dCUCU 6CICFCFCdCfCbB|CDCRB|CbCVCeCaB}CNB~B_B~CmCuB7B-Bf B : 0BRBnBhBD ? 0 D P PBd = x xBU -BBBZ b X 2B3 ? h D B W 8 s U Q p - JBdBaBqB, ~BoB3BMB$B?B#BC .BXBzB) iBGBT qB2B4BuBo 9CzBvCTB.BeB_B~CKCkB-                                  ",
"               ECACPCD 6 6CHCHCRB}B}CRCeCSCWCFCcCHCICVCbCcCKB}CFCDCFCPCOCxB9BO 0 DBCBTBR pBWBhBX f P 7 7 Q /BT #BLBb K % UBT 2Bu 8 > 0BH `B0 H GBnBfBg .BSBa pB{ ~B+BwBpBpBO _ 9 Q y |B) iBG h 1BKB4BnCBCBBeB`B`BeCKB_B]COCkCTCOBT      B)BTCJCJCGBB            ",
"            CGCICDCSCH [B|CDCUCHCFCgCbB}CJCZCdCVCVCVCbCdCVCJCJCcB}CVCFCQCgCxBiCM ( RBQ H qB1BXB.CBBD > ( o B _ OB3 ~ : U S . 0BP h P (BHBHCB kBLBr 1 1 1 7BIBrB! ~BoB4BMB?B#BBBQ zBD EB! ;BQ hCLBlB4 1B/B0BDB`B`CKCOCkCgCgCgB]CgCABDBbCACQCQCJCQB_CJCL          ",
"          CAB[B[CEB_CCB|B|CRCUB|CgCsCbCICQCECECWCVCWCVCdCWCICECFCJCcCrCFCQCkB6Bz (BC gBRBx } :BF f g / s + aBZ hBMBp n ) S Q J f I {BZ g D s U pBr z pBgBx ,BrB{ByBoB3BpB#BOBYBY 7 .BYB! ; D eBsBlB2BhBrB/BvB(COCjCwCwCwCsCuCgB]COB~CJB_CSCJCDCICQCSCA          ",
"        CAB^CHB|CSCECUCUB[CHCCB_CwCOCSCFCFB|CbCEB|CDB}B}CdCbCDCICQB]CYCWCECXCq Z :BCBZBE q j j b C m G L HBP _ a 4 ) M ) #Bh 1 s t J 3 a X mBE 8 z 1 pB/Bx qBqB{ByBKBK ZByB? gBM KB0BYB? ; J ,B4BlB2BnBqBnB+CvCjCvCjCiCwCwCuCkCOB~CJCKB_CECSCJCECFCSCE          ",
"       ;B[B[CCB|CSCECCCUB[CCCECkCgCFB|B^B|CDCHCbB|CbCWB}CSCbCbB[B[CXCdB}ClCNCxBK 0BD B m 5 M 5 ) ) k 6 b ~Bp B = ] u k u cBqCB $ W a a jBH cBSBnB/ pB/B/ .BSBkB{ByBlBbB) ~B? J y K 7 ^BbBC jBtB4BKBuBuBrCLCTCvCmCkCkCiC0C2CkCgB~CJCKB~CSCSCZCaCdClCZCQB+        ",
"      CPCUCHB@B|ClCHCCCHCCCKCmCiB_CCB@CHCHClCXCWCWCFCFCSCIB|B| dCCCZClCfCgCvB9B+ ?BGBH ]BN Q r e C v F ` _ 3 j 0 DBNBS .BgB0BzB. 9 gBfBH gBE 1B0BrCMB/ p pBU 8B*B#B(B3B=B?BOBG z QBc VB)BJ 1BlB4BKBsBvCLBnBvB~CkCkCwCxC3CvCkCgClClCOCKCaB}CaCfCrCSB]B]Cg        ",
"      B|B|B[CUCIClB|CRCVCSCgB}B}CSCCB|CHCbCSCxB]CVCbCVCICHB|CCB^CaB]CpB]CgCxB7B# ?BHBCBU YCM O x [ 5 Y a % x - _Bf y zBr 8Bf f K KBCBQ KBHBIBnCLBnBnBnBqCMBSBhB, ~BlB8B=BYBOB)BfBkCBBbBY DB3B&B4BiB2BKB+BnB`CkCGCvCwCwC1CuB~B_B]CgCiCSCcCfCpCrCoCpCpB]B`        ",
"      B^CSCECHB}CZCXB]CsCNCDCHCnCNCUCcB}CcCfC2CkCZCbCRCDCCCCCHCKClCiCjClCECKB_B.Be (BCBSBr > % k CBXBF : x H / % {BJ J Q W / / WBf ; _ ZBB QCBBtBkBXBqCBBqBSCBB,BOB6ByBOBMBYBbCMB)B$Bp } _BhB9B%B(BuB3BsBgCTCgCQB~CxB`CuB`CSCFCQCNCZCaCoC4C4CpCoC4C4CpB~        ",
"      CSClB}CICXCaCJCNClCVCUCRCrCyCDCdCpCdCYCsCKCFCJCDCCB[CCCFCgCyCsCgCaCFCIB_CkCTBDBB zB1 g + v c bBE L + $ t b C t x # = sBd { -BHBG R : -BsBtBeBkBkBkBq 7CLB{B$B6B#BpB)Bp }B+ E ;BBBP 9 -CLB(BKB0B2Bt 7CTC2CKCSCTB7B7CvB_CSCdCSCFCrCYCpC4C4C4CrB]CSB~        ",
"      CSClCdCaB]CSCZCSCbCRB|ChCfCiCFCeCrCZCaCmCECUCECQCDClCgCgCmCyCwCDChCECICXCvCu }BBCMBw X k d U 5BcBc c H N L ) G C L b S O % e { X 0 3B0B4BABuBeBeBhB0 1B.B!B$B%BOB$B)BY ZBV rCM yBQ DBcBxBvBoB0BsBs .CTC1CNCKB]B-C5B!CgCZCpCYCaCoCZC4C6C6C6CpCoCXCK        ",
"      CKCXCgCXB]CsCXB|CHCUB|CdCfClCFCnCnCfB]C0B}B|CICUCHCDCOCkCgCuB_ dCYCZCZCkCwCu ; ; . 9 S v U 5 L b HBc L G 5 N U k U k M U L ) C + t xBkBwB+BuBuBhBXBX zCLB!BmBoBYB$BoBM }BpBz 7BUBIBcBLBnB1BwBuCLBuBgB`C2CgClCKB_CtC5CjCXCyB]CXCrC4C6C6C6C4CoC4CoCG        ",
"      CkCsCjCXCNCsB^ [CUCHCWCcCrB}B}CcB}CcCpCiCFCVCb [CCB@B]CgCkCxCUCFCiCXCNCuCuCvBB ;BJ 0 N u 5 5 G L 5 N U M k u M [BE b F $BEBR ^ ]BN qB1BzBuB2BuBzCBBqBXBkB8BYB+BmB?B# ~BmB?BpBj YBcBLB0CBBwBACLBhBsBgCqC2CgCsClCKCOCtCqCgCJCSClB}C6CoC6C4C6C4CpCYCl        ",
"        COCDChCgCN vCCCUCVChCeCpCgCIChCfCWCaCSCRCRCC d 6CICiCvCjB_CHCiCmClCjCuCuBeBQ } y - v < L cBa T VBa H L LBR VBE b t XB2 ZBoB3B2B3BlB7BjBsBwBjBzBPBPBXBnB8 ~BO ~ @B# @B?B?BpB8B;B%BUBS 8BkBkB/B%BhBrCvCyCsCsCgCgCZCkCuB]CJCKCiC4CrCoC6C6C4C2CoCSCXB-      ",
"        B[CCCFB]CE [CUB|CeCYCZClCmB}CYCrChB]CKCeCVCUCUCUB}CNCvCvCICaCwCgCgCwCuCuB-BBBbBe N v F N m ^Ba HBc b t V ] N NBJ G m % B KBPBABW _B%B8BwB(BwBzBP KBCCLB9B<B,B*B> }BpB>B!B,B,B#B= &BU pBgBqBnB(CMB/CvCjCyCiCyCgB]CwCxCOCJCiC2CoCrC4C2C2CoC6C4B]CSCg      ",
"        CHCbCWCSCUCCB|CcCeCaCaCYCiCfCrCrCYC2CjCoCFCRB^CFCWCKCjCmB}CNCmCgCsCxCuCxCtBBB( D [ M N ) U G ]BI C M < d ! v G ( u m $ J o : h fBxBkB9B)B)B3BzBzB.BfCBB!B>B>B?BpBmBB ; i RBB ~B? y VBqBtBKBwBoBhCLCqCwC4CyCNCgCjCwCxCkCZCoCpCpCoC4C6C3C2CoC6CoCeB~      ",
"        B^B|CRCECUB|CcCnCfCeCrCNCsCYCpCdCYC0CjCpCICUCVCFCdCXCkCKClCNCgCkCuCxCuC7Ct EBb M [ v N # O + ! M [ * + GBd ,BN h b 5Ba sBd { W - ,BkBlBO ZBoB2BhCLBFCMBX s n T S DBzBP ?BV IB<B#BHBUBkB(B&B6ByBwB1CqC3C4C0B]CjC0CwCxCvCgC3CrCpCpCXC4C4CoC6C3C6B]B]      ",
"        B[CHCbB}CDCdCfCoCoCgCyCsCjClCSCFB}CyCgCdB|B|B}CdCrCoCjB]B]B]CiCmCxC1B7B9 EBb G w l w w [ C P D G ^ ^ 5BhCM :BTBT n u 5BE T I / DBSBsBK ~BOB)B1BsBvBjCMBaBaBaBaBc ^ 7 7 8BXBLB#B, i 7BtBiB(B{B9B%BuCxC3CyCiCyC0CsC1CxCkC0C1C4C4CoCfC4C6CoC2C6C6CfCg      ",
"        B@CWCcCYCdCpCyC0CNCZB]CXCECDCECZCKCgCYCFCHCcCYCrCoCyCsCvCNCiCjCwC1B9B6BbBC X 6 G x HBEBE M N +BQBP 2BL O DBQ _ D L Y O k I > 2 rBcBvB1B% ~BOB)B2B1BjBwB3BPCBBXCB yCBBD y &BNBYB,BpBJBsB&B&B*B&B3B4B7C7C0CpC3C3C3CxCuB]C2CiCrC6C6C6C6C6C2C4C2C4CiCm      ",
"        B5B}CXCNCiCjCmCNB}CRCWCcCWCHCRCDCaClB]CNCZCnCrCyCyC0CuCvCNCiCsCxBKB2CB 7Cz M *Bd YBfBD h Y < FBE V { ( 7 x nBQBDBH ` % L =Bf > HBLBwB2Bi ~B< EByB!B#Bj |BBBzBz 2 W : yBf & ^BYBM i XBsB&B7B8BiCLB6C5C7C2CNC0C3C1CxCvCNC0C4C4C6C6CpC4C6C2CoCoC2CyCm      ",
"        B^CVCdCXCmB]CSCFCDCRCWCICRCRCcCSCIB}CXCkCmCgCyC0CsCwCuCjCjCjCuB+BA > s e S M T / ( /BTBHBf f e L ,BS { _ # M + _ P m H T U # HBcBtBuB2B9B;B<B#BM Z ~B?B+BoB+ y / J I n , Y ^BYBB B XB2B7B;ByBwBuC7C5C1CwCgCgCuC1CxCvCyCiC0C2C6C4C3C2CiCiCXCoC6C6Ck      ",
"        B]CaCZClCNCSB^CHCUCVCWCCB|CrCrCYCKB]CpCNCkCsCsC0CuCuCuCjCsC2B/ ] # 4 t b MBa ? YBT >BT >BHBQ _BDBFBV 0 s Y J IBC P I j C eBJ H zBtBuB1BlB8B;B<BO K _ KBC K KBPBBBBBb E } }BABm }BH {BwB:B*CtBKB9C8C5C7C1CuCvCuC1C1B~CiCiCpC6C2C6C3C3C3C3C4CoC4CiCiCt    ",
"        CTCZCgCsCOB[ dCCCUCRCbCRCYCnCnCnCZCmCjCJCgCuCwCuCxCmCvCsC0CuBN ! u v ! l ) zBHCM DBdBV yBfBf _BD ? _ _BF y ? gBTBQ Y W x T hBf pBkB+B2BKB$B#C9B;B* ~BZ b %BZ BBZ BBQ K ;BC RBQBMBY hB+B:B,ByBiB;B>B> @B9B9B7C7C7CuCXCiC4C6C3C2C3C3C3C1C3C3C6CoCpCKB9    ",
"          CSCNCsB_CCCCCUB|CHCcCpCnCFCdCaCZCcCjCkCsCsCuC1CmB]CuCuCwCxBf L C N 6 d - QBVCMBD f >BDCMBFB.BG KBG _BF g ? fBGBH W 0BE O {BEBgBuB-BlB%BOBzB!B! ~BM I U M U N C 3 : : ` W 3 a aBpB1B6B,B,B8B;B*BM EB)BoBoB9C7C7CxC0C6C3CyCwC3C3C3C3C3C3C3C3C4CXCO      ",
"          CTCKCmCICCCHB|CDCbCcCnCfCfCdCcCeCECNCxC1CxCxCvCECSCvC7CuC7 / C C t V . 2CMBVBJBdBT > / _BfBC K 9Bf _CM g 8BWBC 9BVBJ QBX n s pBtB4BKB8 E pB+B#B?BZBI F M b k ) U N L C C C )BJBKBbB8B*B,B,C8B8BBBTBXB3 KBwByB7CxC2C3C3CNCyC3C6C6C2C6CoC6C0C0CoCt      ",
"            CuCOCUCbCWCRCICYChCfCfCrChCdB}B}CgCxC1CxCmCFCICJCuC7CxC7Bd s k M T 7CzBGBH 0 _ g f QBTBQ 9BGCBCBCMBQBfCM ; RBD _BF f 3 j -BqCLB4BlB8 _BSBtBM iBQBL ]Bn z 7 Q e L M 6 v u u YBlBwB&C9B*B:C8B?BDBdBrBeBkBkBmCtC1C1C1C2C3C4C4C4C0C2C2C6C0C0CsCj        ",
"               RB@CICICaCaChCaCYCrCrCrCYCVCfC3CxCuCsCSB|CDClCuCxC7CxCz P U L nCz YBC f gBTCzBf _BT Q _ _BBBeBXBFBXCBBDBC > KBCB. fBJBrBkCLB4B8B% eBrB+ ZBMBM Y &BABWBu KBX _BVBJ rBS xBLBwB1B%C8C8C8B;B)BT ,BrBWB.CzBhB$B8C7C1C3C2C6C6CyC2C2C3C3C2C2C6B`        ",
"                CHB^B}CpCrCdCFCcChChCrCdCaC0CwCmCgB]B[CRB}CyCwCuC7Cv { r =BL Y = zBDBWBZ sBdBVBf o hBG 9BCBGBkBWCMBB EBB KBQ K f gBVBwBtBvB(B8 E sB0BiB=B, EB0BAB2B2 | |BWBPBWBB }BC JBIBzB+B6C8C8C9BM _ x p |BBBFBa ^BvBiC5C1CwC6C4C3C6C2C1C3C3CyCmCm          ",
"                CICRChCrCaCcCcB}CeCnCZCZCsC7CsB]CgCECbB}CoC0CjCuC1Cg < fB1 7 ( + V y _ 9 7BDBJBIBU { j OBQBQBX 9BDBC } ;BP 9Bf RBQBXB&B-B2B9Bp KCzCBBKC9B; }B-B$BwBwBABeBABABj EBB B s #BsB(B$C9C!B>BZ jBHBBB) E R D V 1B(BOCvCwC1C3C3C3C6C4CyCwCyCk            ",
"                COCDCRCWCWCfCrCfCYCdCFCNC7C7C1CxCmCCCUCQC0CmCmB7B<COBEB.BUBcBJ &BU zCMBf - .CMCMBdBN L = % ( ?BXB) | iBB K E B _BCB9B&BlB9 @ } YBIBkBlB!B; @B!ByBYB3BjB2 |BzBPBABz h Q qBsB(B$C8C8 B G X ZBZByB) B a x .BuBtBeCTC2C1C3C3CwCwC2CwCmB!            ",
"                B-CJCRCVCcCpCyCoCpB}CZC2C7C1CuC1CJ [B[B]CgCgCxC7CxCO H ) d LCM y 0 K ? zBxBE P ECM >B0BDBf = > 0Bd E } K i :BTBPBoB! @B{B*BOBX eBxCBBiB{B*B8BOBmB) EB3Bo EBABB ;BWBQ PBSBsB+BoC8B# PBk E ZBZBTBZBT ) <BxBu .BgBgBvCxC3C3C2C3C1CxB7              ",
"                  CNCNCpC4CjCyCyCsCgCuC1CuCjCjCsB^CJCSCgClB]CuC7C7CO N N L xB0CB yBR 5BIBIBfBG ; | }BPCBBfBfBG e V K E } RBG ~ByB*B*B*B*B? |BDBL 7BqB{C#B* ( sBD _ 9 K KBCBXBDBFCMBJ O 7BeBwBlC9B>BO ~BpBB nBE + H F L .BsB/BSBqB-CxCxC1C1C1B9                  ",
"                  B`CoCwC3C3CxCuCuC1C1CkB]CaCJCECQCiCyCgCJCOCvC7C7CO N ) 4 t K > >BLBc G V = g K 9 i |BABzBPBB KBB YCz DBGB,B:C9B;B,B>Bp K _BZ >BrBsB:C!B:CBBE U j = x j = TBLBI # # ]BLCMBuBoC9C9BYBYBB j ] 5 <BI ^ ^ YBkBnBLB/B9B7C7C5C7                      ",
"                    B`CsCxCxC1CxCOCmCvCaCQCJCICEClCNCyB]CSCkCuC7C1B~ ) L +Bd & Q WCzBHBxBL q GBJ _ XBW ;BA } i i KCMBXB)C8B*B!B< ~BpB) |BQBZ ` >CLB9C9C8B;B8B2BL VBa 5 G m c HBa c bBc -BrBkBKB;C8 @ ZBb &BT FBNBf SBUBLBnBnBSBIBwC9                            ",
"                        C7C7C7CuCQCECXCXCpCJB_CiCgCmCsCiCkCkC1C5C1B~ ) T #BVBd O D (BTCMBDBVBU DB.BV { KBABbB) ZB)B>B!B! ~B#BOBpBM Z ;BQBZ ( P ?BtB;B:C8B: @B$B-B3BX q p W , z p & &BL 1BqCLBKC8C8B:B*BoB3 P F 4 D z ^ 7BrBSBIBaBr                              ",
"                                BeCKCkCsC0CuCxCxCxC1C1CwCsCuC5B:C7Br L e $ / = xBxBTBF 9BF 9 KBVBL s W /BCBBBBB) Z Z E } } EBB i |BPBDBHBT : PBgB-B7C9C8B:B<BOBp ZBGB1BABkBzB2BuB+BjBwB+BeBnB1C5C8B:B*ByBABG ]BC E YBrBnBgBkBsCLBr                              ",
"                                  CuCuCxC1C1C1CxCxCxCxC1CuCxC5    BC 4 n W XBJ ( 8BDBFBD ?BDBDB.CB 1BFBQ j e t j + 4 n % n 3 X a : g BBf 9 Q XBSBKB*C8C9B:B<BOBoBwB% ZB+B$B+B3B%BiB%BiB%BuBgBhB;    B:B!BmBmB%B$BfBjB4BkB1B%BlBlBK                              ",
"                                    B!B7B7C7C7B:C7C7C7B7B7C7      Bp s s DBTBfBXCBB0BDBfBfBF _BG KBDBV / h -BdBR < < < N k F G N N n X B _ > PBrB&    C8C9B8BOB+B6BeBA @B<ByByB&By ~ByBOBKBnB0B:      B; @B#BOB%B&BoBKB8B8B&BiB&                                ",
"                                                                     g %BZ _B)B)BM |BkBXB.BDBGBD ?B. ;B.BDBH f 0 zBfBr 1 p z QBNBE C S sBJ ` WB2B{      C8B!BMBp 9BPB8B#BMB#BYB&ByB%BmBpB%B1B.             ~B$B8B9B& @ @B8B,                                    ",
"                                                                    Bb hBVBXBOBYBpB+B2BWBXBz KB. K KBPBzBWBXBXBXBBBPBWBzBzBABWBXCM - + S Y W fB9          C9B?BbB1B9 EBb ~B#ByBYBoB2BoBYBjBzBh              B,B>B>B<B;                                          ",
"                                                                      BBBm Z EBOBjBX }B+BWBP ;BP ;BB | } ZBmBMBmBMBMBmBmBoBmB+BjBzB0Bx ) # %BuB*            B:B>B,B#BKB{B{B,B,B<B<B9B8 @B9BiBY                                                                  ",
"                                                                        B=B!B,B<B>B) }BoB$BF -Cz ( hBZ o : K ZBMBpBmBm } K ;BmBKBoBzCM V <BIB(                  B;B*B;B,B,B8B!B*B*B,B!B<B9B9B*                                                                  ",
"                                                                            B;B,B,B,B!B<B<B=BjBA f p z J TBE H T = s ,BN V T {BFBuBABf 7 qCLB8                                          B:                                                                      ",
"                                                                                        C9B;B;B,B8B<B9B9BiB2 KCM > pCMBABoB+Be Y (CMBrBkB1B6                                                                                                                    ",
"                                                                                                  B:B, @ @B<B<B<B8B8B<B>B#BOB%BKBXBWBwBKB%                                                                                                                      ",
"                                                                                                            B*B,B!B< @B=B>B=B=B>B>B=B!B=B:                                                                                                                      ",
"                                                                                                                                                                                                                                                                ",
"                                                                                                                                                                                                                                                                ",
"                                                                                                                                                                                                                                                                "
};
